YechanE/asmr2025-Humanoid-Lowlevel/20251212_joints_timeseries_1.csv
Frame_Index,leg_left_ankle_roll_joint,leg_left_ankle_pitch_joint,leg_left_knee_pitch_joint,leg_left_hip_pitch_joint,leg_left_hip_yaw_joint,leg_left_hip_roll_joint,leg_right_ankle_roll_joint,leg_right_ankle_pitch_joint,leg_right_knee_pitch_joint,leg_right_hip_pitch_joint,leg_right_hip_yaw_joint,leg_right_hip_roll_joint
0,0.0067,-0.51972,0.99551,-0.37633,-0.00518,-0.00424,0.0067,-0.52175,0.99967,-0.37845,-0.00519,-0.00425
1,0.00653,-0.51974,0.99557,-0.37636,-0.00506,-0.00414,0.00653,-0.52173,0.99963,-0.37843,-0.00506,-0.00414
2,0.00624,-0.51979,0.99566,-0.37641,-0.00483,-0.00395,0.00624,-0.52169,0.99954,-0.37839,-0.00483,-0.00396
3,0.00583,-0.51986,0.9958,-0.37648,-0.00451,-0.00369,0.00583,-0.52163,0.99943,-0.37833,-0.00452,-0.0037
4,0.00531,-0.51994,0.99598,-0.37657,-0.00411,-0.00336,0.00531,-0.52156,0.99928,-0.37825,-0.00411,-0.00337
5,0.00468,-0.52005,0.99619,-0.37667,-0.00362,-0.00297,0.00468,-0.52147,0.9991,-0.37816,-0.00363,-0.00297
6,0.00395,-0.52017,0.99643,-0.3768,-0.00306,-0.0025,0.00395,-0.52136,0.99889,-0.37805,-0.00306,-0.00251
7,0.00311,-0.5203,0.99671,-0.37693,-0.00241,-0.00197,0.00311,-0.52124,0.99864,-0.37792,-0.00241,-0.00198
8,0.00216,-0.52045,0.99701,-0.37709,-0.00168,-0.00137,0.00216,-0.52111,0.99836,-0.37777,-0.00168,-0.00138
9,0.00112,-0.52061,0.99734,-0.37726,-0.00087,-0.00071,0.00112,-0.52095,0.99804,-0.37761,-0.00087,-0.00071
10,-4e-05,-0.52079,0.99771,-0.37744,3e-05,3e-05,-4e-05,-0.52078,0.99769,-0.37743,3e-05,2e-05
11,-0.00138,-0.52099,0.99812,-0.37765,0.00107,0.00087,-0.00138,-0.52057,0.99727,-0.37722,0.00107,0.00087
12,-0.00278,-0.5212,0.99854,-0.37787,0.00215,0.00176,-0.00278,-0.52035,0.99682,-0.37699,0.00215,0.00176
13,-0.00431,-0.52142,0.99899,-0.3781,0.00334,0.00273,-0.00431,-0.52011,0.99632,-0.37673,0.00333,0.00272
14,-0.00598,-0.52165,0.99946,-0.37835,0.00463,0.00379,-0.00598,-0.51983,0.99576,-0.37645,0.00462,0.00378
15,-0.0078,-0.5219,0.99997,-0.37861,0.00603,0.00494,-0.0078,-0.51953,0.99513,-0.37614,0.00603,0.00493
16,-0.00978,-0.52216,1.0005,-0.37889,0.00757,0.0062,-0.00978,-0.51919,0.99444,-0.37579,0.00756,0.00619
17,-0.01194,-0.52244,1.00106,-0.37918,0.00924,0.00756,-0.01193,-0.51881,0.99366,-0.3754,0.00923,0.00755
18,-0.0143,-0.52273,1.00164,-0.37949,0.01106,0.00905,-0.01428,-0.51838,0.99278,-0.37497,0.01105,0.00904
19,-0.01686,-0.52303,1.00225,-0.37982,0.01305,0.01068,-0.01685,-0.5179,0.99179,-0.37448,0.01303,0.01066
20,-0.01966,-0.52334,1.00288,-0.38016,0.01521,0.01245,-0.01964,-0.51736,0.99068,-0.37393,0.01519,0.01243
21,-0.02272,-0.52366,1.00352,-0.38051,0.01758,0.01439,-0.02269,-0.51675,0.98942,-0.37332,0.01755,0.01436
22,-0.02605,-0.52399,1.00417,-0.38088,0.02016,0.0165,-0.02601,-0.51606,0.988,-0.37262,0.02012,0.01647
23,-0.02989,-0.52433,1.00486,-0.38127,0.02313,0.01893,-0.02983,-0.51524,0.9863,-0.3718,0.02308,0.01889
24,-0.03389,-0.52466,1.0055,-0.38165,0.02622,0.02147,-0.03382,-0.51434,0.98444,-0.3709,0.02617,0.02142
25,-0.03827,-0.52497,1.00611,-0.38202,0.02961,0.02425,-0.03818,-0.51332,0.98232,-0.36988,0.02954,0.02418
26,-0.04306,-0.52527,1.00668,-0.38239,0.03332,0.02728,-0.04295,-0.51215,0.9799,-0.36872,0.03323,0.0272
27,-0.0483,-0.52554,1.00719,-0.38275,0.03737,0.03061,-0.04816,-0.5108,0.97712,-0.3674,0.03726,0.03051
28,-0.05404,-0.52576,1.00759,-0.38307,0.04181,0.03425,-0.05386,-0.50926,0.97391,-0.36588,0.04167,0.03413
29,-0.06032,-0.52592,1.00786,-0.38335,0.04666,0.03823,-0.06009,-0.50748,0.97022,-0.36414,0.04649,0.03808
30,-0.06715,-0.526,1.00794,-0.38357,0.05194,0.04257,-0.06687,-0.50544,0.96597,-0.36214,0.05173,0.04239
31,-0.07422,-0.52598,1.0078,-0.38369,0.05741,0.04706,-0.07389,-0.50321,0.96131,-0.35996,0.05715,0.04684
32,-0.08092,-0.52646,1.00874,-0.38441,0.06259,0.05132,-0.0805,-0.50104,0.95683,-0.35791,0.06227,0.05105
33,-0.08727,-0.53983,1.03704,-0.3996,0.0675,0.05536,-0.08634,-0.50017,0.95607,-0.35824,0.06678,0.05476
34,-0.0934,-0.56612,1.09283,-0.42937,0.07223,0.05926,-0.09139,-0.50079,0.95935,-0.36113,0.07068,0.05798
35,-0.09921,-0.5991,1.16287,-0.4667,0.07672,0.06296,-0.09567,-0.50248,0.96535,-0.36565,0.07399,0.0607
36,-0.10454,-0.63343,1.23584,-0.50562,0.08084,0.06636,-0.0992,-0.50481,0.97275,-0.37088,0.07671,0.06295
37,-0.10918,-0.66478,1.30257,-0.54124,0.08442,0.06931,-0.10197,-0.5073,0.98024,-0.37601,0.07885,0.06471
38,-0.11281,-0.68956,1.35538,-0.56947,0.08722,0.07163,-0.10398,-0.50948,0.98656,-0.38025,0.0804,0.066
39,-0.1151,-0.70451,1.38728,-0.58655,0.08899,0.0731,-0.10522,-0.51085,0.99046,-0.38285,0.08136,0.06678
40,-0.11578,-0.7074,1.39343,-0.58985,0.08951,0.07353,-0.10566,-0.51104,0.99106,-0.38328,0.0817,0.06707
41,-0.11547,-0.70742,1.39348,-0.58985,0.08927,0.07333,-0.10538,-0.51115,0.99129,-0.38338,0.08148,0.06689
42,-0.11437,-0.70749,1.39362,-0.58987,0.08843,0.07263,-0.10439,-0.51154,0.99209,-0.38375,0.08071,0.06625
43,-0.11249,-0.7076,1.39386,-0.58989,0.08697,0.07143,-0.10267,-0.51219,0.99346,-0.38437,0.07939,0.06516
44,-0.10979,-0.70774,1.39417,-0.58992,0.08489,0.06971,-0.10023,-0.51312,0.99539,-0.38525,0.0775,0.0636
45,-0.10626,-0.70791,1.39456,-0.58995,0.08217,0.06746,-0.09702,-0.51431,0.99787,-0.38639,0.07503,0.06156
46,-0.10187,-0.70809,1.39498,-0.58996,0.07877,0.06465,-0.09303,-0.51576,1.00089,-0.38777,0.07194,0.05902
47,-0.09639,-0.70546,1.38938,-0.58673,0.07454,0.06117,-0.08819,-0.51711,1.00351,-0.38883,0.06821,0.05594
48,-0.08893,-0.68969,1.3558,-0.56858,0.06878,0.05641,-0.08211,-0.51726,1.00269,-0.3876,0.06351,0.05207
49,-0.08003,-0.66315,1.29929,-0.53824,0.0619,0.05075,-0.07496,-0.5165,0.99919,-0.38458,0.05799,0.04753
50,-0.07003,-0.62958,1.22791,-0.50006,0.05417,0.0444,-0.06673,-0.51538,0.99439,-0.38062,0.05162,0.0423
51,-0.05917,-0.59316,1.15057,-0.45879,0.04577,0.0375,-0.05736,-0.51443,0.98968,-0.37658,0.04437,0.03635
52,-0.04754,-0.559,1.07809,-0.42018,0.03678,0.03012,-0.04678,-0.51412,0.98644,-0.37338,0.03619,0.02964
53,-0.03524,-0.53343,1.02394,-0.39134,0.02727,0.02233,-0.03505,-0.51484,0.98598,-0.37197,0.02712,0.0222
54,-0.02248,-0.52372,1.00345,-0.38038,0.01739,0.01424,-0.02245,-0.51688,0.9895,-0.37326,0.01737,0.01421
55,-0.00926,-0.52219,1.00033,-0.37869,0.00717,0.00587,-0.00926,-0.51938,0.99459,-0.37575,0.00716,0.00586
56,0.00421,-0.52024,0.99631,-0.37659,-0.00326,-0.00267,0.00421,-0.52152,0.99892,-0.37793,-0.00326,-0.00267
57,0.0176,-0.5179,0.99144,-0.37414,-0.01362,-0.01115,0.01762,-0.52326,1.00238,-0.37972,-0.01364,-0.01117
58,0.03061,-0.51524,0.98588,-0.37139,-0.02369,-0.01939,0.03067,-0.52457,1.00493,-0.38111,-0.02374,-0.01944
59,0.04293,-0.51236,0.97983,-0.36844,-0.03322,-0.0272,0.04304,-0.52548,1.00662,-0.38211,-0.03331,-0.02728
60,0.05426,-0.50941,0.97359,-0.36543,-0.04198,-0.03439,0.05444,-0.52603,1.00753,-0.38275,-0.04212,-0.03451
61,0.06435,-0.50691,0.96866,-0.36329,-0.04978,-0.04079,0.06472,-0.53095,1.01778,-0.38838,-0.05007,-0.04103
62,0.07319,-0.50607,0.96848,-0.36424,-0.05662,-0.04641,0.07428,-0.55242,1.06335,-0.4128,-0.05746,-0.0471
63,0.08087,-0.50661,0.97195,-0.36747,-0.06255,-0.0513,0.08323,-0.58443,1.1315,-0.44929,-0.06438,-0.05279
64,0.08745,-0.50807,0.9776,-0.37194,-0.06763,-0.05548,0.09151,-0.62028,1.20805,-0.49035,-0.07079,-0.05805
65,0.09296,-0.50994,0.98398,-0.37668,-0.07189,-0.05899,0.09896,-0.65453,1.28145,-0.52985,-0.07655,-0.06279
66,0.09742,-0.51169,0.98961,-0.38078,-0.07533,-0.06183,0.1053,-0.68278,1.3423,-0.56277,-0.08145,-0.06682
67,0.10084,-0.51276,0.9931,-0.38336,-0.07797,-0.06402,0.11016,-0.7012,1.38237,-0.58467,-0.08521,-0.06991
68,0.10322,-0.51259,0.99306,-0.38361,-0.0798,-0.06554,0.11313,-0.70625,1.394,-0.59141,-0.08751,-0.07179
69,0.10462,-0.51211,0.99197,-0.38307,-0.08088,-0.06644,0.11468,-0.70577,1.39386,-0.59184,-0.08872,-0.07277
70,0.1051,-0.51199,0.99161,-0.38285,-0.08124,-0.06675,0.11522,-0.70534,1.39386,-0.5923,-0.08915,-0.07311
71,0.10466,-0.51224,0.99199,-0.38297,-0.0809,-0.06648,0.11475,-0.70497,1.39398,-0.59277,-0.08879,-0.07279
72,0.1033,-0.51284,0.99311,-0.38342,-0.07984,-0.06562,0.11325,-0.70467,1.39423,-0.59324,-0.08765,-0.07183
73,0.101,-0.51381,0.99496,-0.38418,-0.07806,-0.06416,0.11073,-0.70443,1.3946,-0.5937,-0.08571,-0.07021
74,0.09774,-0.51513,0.99752,-0.38525,-0.07554,-0.06209,0.10715,-0.70427,1.39504,-0.59412,-0.08295,-0.06791
75,0.09345,-0.51628,0.99936,-0.38575,-0.07222,-0.05936,0.10219,-0.69989,1.38637,-0.58957,-0.07913,-0.06474
76,0.08709,-0.51652,0.99832,-0.38418,-0.0673,-0.05532,0.0943,-0.68227,1.34921,-0.56965,-0.07304,-0.05971
77,0.08078,-0.51557,0.99401,-0.38056,-0.06242,-0.05131,0.08618,-0.65447,1.29021,-0.53808,-0.06678,-0.05454
78,0.07338,-0.5144,0.98867,-0.37612,-0.05669,-0.04662,0.07697,-0.62034,1.21761,-0.49925,-0.05966,-0.04867
79,0.06483,-0.51353,0.98372,-0.37174,-0.05008,-0.04119,0.06687,-0.58417,1.14058,-0.45803,-0.05186,-0.04225
80,0.05505,-0.51348,0.98058,-0.36837,-0.04251,-0.03499,0.05599,-0.55122,1.07031,-0.42039,-0.04345,-0.03535
81,0.04409,-0.51463,0.98061,-0.36698,-0.03403,-0.02805,0.04444,-0.52801,1.02065,-0.39365,-0.03451,-0.02802
82,0.0322,-0.51723,0.98485,-0.3684,-0.02483,-0.02051,0.03239,-0.52126,1.00583,-0.38535,-0.02518,-0.02038
83,0.01963,-0.52017,0.99024,-0.37068,-0.0151,-0.01255,0.01977,-0.52036,1.00337,-0.38363,-0.01542,-0.01239
84,0.00666,-0.52283,0.99498,-0.37268,-0.00506,-0.00434,0.00679,-0.51907,1.00006,-0.38152,-0.00537,-0.00417
85,-0.00637,-0.52511,0.99893,-0.37435,0.00503,0.00391,-0.00625,-0.5174,0.99594,-0.37907,0.00473,0.00408
86,-0.01914,-0.52699,1.00201,-0.37564,0.01491,0.012,-0.019,-0.51539,0.99111,-0.37633,0.01459,0.01216
87,-0.03131,-0.52844,1.00424,-0.37656,0.02433,0.01971,-0.03113,-0.51314,0.98578,-0.3734,0.02398,0.01984
88,-0.04253,-0.52951,1.00568,-0.37714,0.03301,0.02682,-0.0423,-0.51077,0.98022,-0.3704,0.03262,0.02692
89,-0.05265,-0.53702,1.02095,-0.38513,0.04083,0.03324,-0.05222,-0.509,0.97647,-0.36865,0.0403,0.03321
90,-0.06199,-0.56087,1.07121,-0.4118,0.04805,0.03917,-0.06091,-0.50881,0.97736,-0.36998,0.04702,0.03872
91,-0.07064,-0.59414,1.1418,-0.44942,0.05473,0.04467,-0.06843,-0.50986,0.98161,-0.37342,0.05284,0.0435
92,-0.07857,-0.63028,1.2189,-0.49066,0.06085,0.04972,-0.07485,-0.51169,0.98775,-0.37794,0.0578,0.04757
93,-0.08562,-0.66403,1.29133,-0.52963,0.06629,0.05423,-0.08021,-0.51382,0.99433,-0.3826,0.06195,0.05097
94,-0.09154,-0.69109,1.34994,-0.56144,0.07085,0.05801,-0.08452,-0.5157,0.99994,-0.3865,0.06529,0.0537
95,-0.096,-0.70766,1.38659,-0.58172,0.07428,0.06087,-0.0878,-0.51679,1.00315,-0.38877,0.06784,0.05578
96,-0.09868,-0.71075,1.3948,-0.58697,0.07633,0.0626,-0.09006,-0.51663,1.00283,-0.38871,0.06958,0.0572
97,-0.0998,-0.70994,1.39484,-0.58787,0.07717,0.06333,-0.09108,-0.5164,1.00214,-0.38829,0.07039,0.05785
98,-0.10017,-0.70912,1.39495,-0.58882,0.07744,0.06359,-0.09143,-0.51641,1.00194,-0.3881,0.07067,0.05806
99,-0.09953,-0.70832,1.39514,-0.58978,0.07693,0.06321,-0.09086,-0.51675,1.00243,-0.38822,0.07024,0.05768
100,-0.09788,-0.70755,1.3954,-0.59073,0.07564,0.06218,-0.08938,-0.5174,1.00357,-0.38865,0.0691,0.05672
101,-0.0952,-0.70683,1.39573,-0.59164,0.07355,0.06049,-0.08695,-0.51838,1.00538,-0.38937,0.06723,0.05516
102,-0.09145,-0.70617,1.39608,-0.59248,0.07064,0.05813,-0.08355,-0.51968,1.00782,-0.39038,0.06462,0.05299
103,-0.08627,-0.69953,1.38348,-0.5863,0.06662,0.05485,-0.07911,-0.52056,1.00894,-0.39044,0.0612,0.05015
104,-0.07935,-0.67969,1.34244,-0.56482,0.06126,0.05046,-0.07357,-0.52019,1.00647,-0.38812,0.05693,0.04661
105,-0.07103,-0.65028,1.28074,-0.53222,0.05482,0.04519,-0.06689,-0.51912,1.00175,-0.38425,0.05178,0.04236
106,-0.06162,-0.61513,1.20657,-0.49289,0.04754,0.03922,-0.05905,-0.51788,0.99616,-0.37966,0.04573,0.03737
107,-0.0513,-0.57863,1.12929,-0.45182,0.03955,0.03268,-0.05001,-0.51698,0.99107,-0.37522,0.03874,0.03162
108,-0.04016,-0.54621,1.06042,-0.41512,0.03093,0.02561,-0.0397,-0.51691,0.98788,-0.37187,0.03077,0.02507
109,-0.02831,-0.52456,1.01416,-0.39032,0.02177,0.0181,-0.02825,-0.51802,0.98787,-0.37056,0.02193,0.0178
110,-0.01593,-0.5194,1.00265,-0.38383,0.01219,0.01025,-0.01595,-0.52047,0.99185,-0.37196,0.01241,0.01
111,-0.00304,-0.51804,0.99913,-0.38162,0.00223,0.00207,-0.00307,-0.52303,0.99632,-0.37382,0.00246,0.00183
112,0.01009,-0.51627,0.99473,-0.37901,-0.00793,-0.00625,0.01006,-0.52524,1.00007,-0.37537,-0.0077,-0.00649
113,0.02313,-0.51412,0.98954,-0.37607,-0.01801,-0.01452,0.02313,-0.52707,1.00298,-0.37656,-0.01781,-0.01478
114,0.03576,-0.51167,0.98371,-0.37288,-0.02778,-0.02253,0.03581,-0.52848,1.00504,-0.37739,-0.02761,-0.02282
115,0.04766,-0.50903,0.97749,-0.36954,-0.03698,-0.03008,0.04777,-0.5295,1.0063,-0.37788,-0.03686,-0.0304
116,0.05853,-0.50633,0.97116,-0.3662,-0.04539,-0.03697,0.05871,-0.53016,1.00686,-0.37806,-0.04532,-0.03735
117,0.06815,-0.50449,0.96742,-0.3646,-0.05283,-0.04308,0.06865,-0.53981,1.02665,-0.38852,-0.05301,-0.04365
118,0.07656,-0.50428,0.96837,-0.36605,-0.05933,-0.04843,0.07795,-0.56519,1.08021,-0.41702,-0.0602,-0.04956
119,0.08381,-0.50531,0.97259,-0.36953,-0.06492,-0.05304,0.08662,-0.59905,1.15209,-0.4554,-0.06691,-0.05506
120,0.08997,-0.50709,0.97858,-0.37401,-0.06968,-0.05697,0.09459,-0.635,1.22884,-0.49655,-0.07308,-0.06012
121,0.0951,-0.50912,0.98489,-0.37852,-0.07363,-0.06024,0.10169,-0.66793,1.29958,-0.53471,-0.07857,-0.06463
122,0.0992,-0.51086,0.99007,-0.38216,-0.07679,-0.06286,0.10759,-0.69363,1.35536,-0.56509,-0.08314,-0.06837
123,0.10226,-0.51173,0.99271,-0.38408,-0.07915,-0.06482,0.11189,-0.70834,1.38808,-0.58334,-0.08648,-0.07109
124,0.1043,-0.5114,0.99194,-0.38374,-0.08072,-0.06613,0.1143,-0.70998,1.39322,-0.58697,-0.08836,-0.07261
125,0.10539,-0.51111,0.99111,-0.38326,-0.08155,-0.06684,0.11551,-0.70913,1.39319,-0.58786,-0.08931,-0.07336
126,0.10557,-0.51117,0.99103,-0.38312,-0.08168,-0.06696,0.11572,-0.70831,1.3933,-0.5888,-0.08949,-0.07347
127,0.10483,-0.51159,0.9917,-0.38333,-0.0811,-0.06651,0.11492,-0.70754,1.39355,-0.58978,-0.08889,-0.07294
128,0.10317,-0.51236,0.99309,-0.38387,-0.07981,-0.06546,0.1131,-0.70682,1.39392,-0.59077,-0.08751,-0.07176
129,0.10057,-0.51349,0.99521,-0.38474,-0.07779,-0.06382,0.11025,-0.70618,1.39439,-0.59173,-0.08532,-0.06991
130,0.09701,-0.51496,0.99803,-0.38591,-0.07502,-0.06156,0.10633,-0.70561,1.39493,-0.59262,-0.08232,-0.0674
131,0.09239,-0.51579,0.99891,-0.38575,-0.07144,-0.05863,0.1008,-0.69707,1.37824,-0.58419,-0.07806,-0.06385
132,0.08665,-0.51545,0.99641,-0.38332,-0.067,-0.05499,0.09346,-0.67577,1.33405,-0.56096,-0.0724,-0.05916
133,0.07978,-0.51451,0.9919,-0.37947,-0.06168,-0.05064,0.08472,-0.64546,1.27041,-0.52723,-0.06566,-0.05359
134,0.07175,-0.51351,0.98679,-0.37506,-0.05546,-0.04555,0.07489,-0.61004,1.19562,-0.48748,-0.05807,-0.04733
135,0.06251,-0.51297,0.98247,-0.37097,-0.0483,-0.03969,0.06419,-0.57402,1.11932,-0.44684,-0.0498,-0.04053
136,0.05201,-0.51336,0.98033,-0.36816,-0.04018,-0.03304,0.05273,-0.54301,1.05343,-0.41163,-0.04094,-0.03325
137,0.04042,-0.51502,0.98165,-0.36755,-0.03121,-0.0257,0.04069,-0.52387,1.01248,-0.38953,-0.03162,-0.02562
138,0.02803,-0.51797,0.98682,-0.36957,-0.02161,-0.01786,0.0282,-0.52071,1.00518,-0.38519,-0.02195,-0.01772
139,0.0151,-0.52089,0.99207,-0.37176,-0.0116,-0.00967,0.01524,-0.51969,1.00239,-0.38328,-0.01191,-0.00951
140,0.00195,-0.52346,0.99658,-0.37364,-0.00142,-0.00135,0.00207,-0.51827,0.99874,-0.381,-0.00172,-0.00118
141,-0.01109,-0.52563,1.00023,-0.37516,0.00868,0.00691,-0.01097,-0.51648,0.99432,-0.37839,0.00837,0.00707
142,-0.02371,-0.52737,1.003,-0.37629,0.01845,0.01489,-0.02355,-0.51439,0.98926,-0.37553,0.01812,0.01504
143,-0.03557,-0.5287,1.00492,-0.37706,0.02763,0.02241,-0.03537,-0.51209,0.9838,-0.37253,0.02726,0.02253
144,-0.04637,-0.52974,1.00629,-0.3776,0.03598,0.02925,-0.04612,-0.50974,0.97825,-0.36955,0.03557,0.02934
145,-0.05616,-0.54234,1.03241,-0.39137,0.04355,0.03547,-0.05559,-0.50845,0.9759,-0.36872,0.0429,0.03535
146,-0.06523,-0.56961,1.09,-0.42196,0.05055,0.04123,-0.06386,-0.50868,0.97791,-0.37075,0.0493,0.04059
147,-0.07362,-0.60431,1.16372,-0.46127,0.05703,0.04657,-0.07099,-0.51003,0.98287,-0.3746,0.05481,0.04512
148,-0.08125,-0.64026,1.24051,-0.5024,0.06292,0.05144,-0.07703,-0.51202,0.98931,-0.37926,0.05949,0.04895
149,-0.08795,-0.67251,1.30985,-0.53977,0.06809,0.05572,-0.08202,-0.51416,0.99579,-0.38379,0.06336,0.05212
150,-0.09344,-0.69695,1.36299,-0.56871,0.07231,0.05923,-0.08598,-0.5159,1.00089,-0.38732,0.06642,0.05463
151,-0.09735,-0.70985,1.39188,-0.58489,0.07532,0.06174,-0.08891,-0.51669,1.0032,-0.38897,0.0687,0.05649
152,-0.09952,-0.71044,1.39479,-0.58731,0.07698,0.06314,-0.09083,-0.51633,1.0023,-0.38851,0.07018,0.05769
153,-0.10059,-0.70962,1.39483,-0.58822,0.07778,0.06384,-0.0918,-0.51613,1.00164,-0.3881,0.07095,0.0583
154,-0.10064,-0.70881,1.39496,-0.58916,0.0778,0.0639,-0.09186,-0.51625,1.00166,-0.388,0.071,0.05833
155,-0.09967,-0.70802,1.39518,-0.59012,0.07704,0.06331,-0.091,-0.5167,1.00236,-0.38822,0.07034,0.05776
156,-0.09769,-0.70728,1.39547,-0.59105,0.07549,0.06207,-0.0892,-0.51747,1.00373,-0.38873,0.06897,0.05661
157,-0.09466,-0.70658,1.39581,-0.59194,0.07313,0.06016,-0.08646,-0.51856,1.00575,-0.38955,0.06686,0.05485
158,-0.09055,-0.70573,1.39569,-0.5925,0.06994,0.05756,-0.08275,-0.51993,1.00833,-0.3906,0.064,0.05247
159,-0.08481,-0.69502,1.37432,-0.58159,0.06549,0.05392,-0.07796,-0.52043,1.00834,-0.38992,0.06032,0.04942
160,-0.07742,-0.67207,1.32658,-0.5565,0.05976,0.04924,-0.07207,-0.51982,1.00511,-0.38708,0.05577,0.04566
161,-0.06873,-0.64063,1.26045,-0.52151,0.05304,0.04373,-0.06504,-0.51866,1.00002,-0.38292,0.05035,0.04118
162,-0.06001,-0.60462,1.18441,-0.48119,0.04629,0.0382,-0.05779,-0.5172,0.99391,-0.37805,0.04475,0.03657
163,-0.05055,-0.56875,1.10837,-0.44077,0.03897,0.0322,-0.04948,-0.51623,0.98867,-0.37356,0.03834,0.03128
164,-0.04047,-0.53881,1.04468,-0.40679,0.03117,0.02581,-0.04013,-0.51621,0.98572,-0.37043,0.03111,0.02534
165,-0.0298,-0.52182,1.00822,-0.38714,0.02292,0.01904,-0.02976,-0.51751,0.98644,-0.36967,0.0231,0.01876
166,-0.01844,-0.51975,1.0032,-0.38406,0.01414,0.01183,-0.01845,-0.52006,0.99085,-0.37139,0.01435,0.01158
167,-0.0063,-0.51857,1.00005,-0.38202,0.00476,0.00414,-0.00633,-0.52256,0.99521,-0.37318,0.00499,0.0039
168,0.00636,-0.51697,0.99601,-0.37958,-0.00504,-0.00389,0.00633,-0.52481,0.99903,-0.37475,-0.00481,-0.00413
169,0.01925,-0.51496,0.99112,-0.37677,-0.01501,-0.01206,0.01924,-0.52673,1.00214,-0.37602,-0.01479,-0.01231
170,0.03198,-0.51261,0.98549,-0.37366,-0.02485,-0.02013,0.03201,-0.52826,1.00445,-0.37696,-0.02467,-0.02041
171,0.04412,-0.51001,0.97936,-0.37036,-0.03425,-0.02783,0.04421,-0.52938,1.00594,-0.37755,-0.03411,-0.02815
172,0.05523,-0.50738,0.97325,-0.36715,-0.04284,-0.03488,0.0554,-0.53074,1.00799,-0.37851,-0.04276,-0.03524
173,0.06504,-0.50602,0.97093,-0.36648,-0.05042,-0.0411,0.06565,-0.54575,1.03925,-0.39507,-0.05069,-0.04175
174,0.07361,-0.50614,0.97284,-0.36856,-0.05704,-0.04655,0.07521,-0.57437,1.09974,-0.42728,-0.05809,-0.04781
175,0.08101,-0.50735,0.97754,-0.37233,-0.06276,-0.05126,0.0841,-0.60947,1.17438,-0.46717,-0.06497,-0.05346
176,0.0873,-0.50917,0.98357,-0.37681,-0.06761,-0.05527,0.09221,-0.64506,1.25048,-0.50802,-0.07125,-0.0586
177,0.0925,-0.51107,0.9895,-0.38106,-0.07163,-0.05859,0.09933,-0.67635,1.31783,-0.54442,-0.07676,-0.06312
178,0.09663,-0.51252,0.9939,-0.3842,-0.07481,-0.06123,0.10512,-0.69929,1.36785,-0.57179,-0.08124,-0.06679
179,0.0997,-0.51296,0.99536,-0.38537,-0.07717,-0.06319,0.10919,-0.71016,1.39248,-0.58576,-0.0844,-0.06936
180,0.10173,-0.51241,0.99402,-0.38468,-0.07873,-0.06449,0.11146,-0.70991,1.39361,-0.58728,-0.08618,-0.07079
181,0.1028,-0.51214,0.99322,-0.38421,-0.07955,-0.06519,0.11266,-0.70906,1.3936,-0.58818,-0.08711,-0.07153
182,0.10293,-0.51222,0.99318,-0.38409,-0.07964,-0.06528,0.11281,-0.70823,1.39372,-0.58914,-0.08725,-0.07161
183,0.10054,-0.51325,0.99514,-0.38491,-0.07778,-0.06377,0.11019,-0.70753,1.39418,-0.59015,-0.08525,-0.06991
184,0.09875,-0.51405,0.9966,-0.38547,-0.07639,-0.06265,0.10824,-0.70681,1.39453,-0.59112,-0.08376,-0.06865
185,0.09605,-0.51518,0.99873,-0.38634,-0.07429,-0.06094,0.10527,-0.70617,1.39497,-0.59205,-0.08149,-0.06673
186,0.09238,-0.51655,1.00128,-0.38735,-0.07145,-0.05862,0.1012,-0.70483,1.39381,-0.59203,-0.07836,-0.06412
187,0.08763,-0.5169,1.00085,-0.38636,-0.06776,-0.0556,0.09534,-0.69221,1.36834,-0.57889,-0.07384,-0.06037
188,0.08172,-0.51624,0.99743,-0.38335,-0.06319,-0.05186,0.08777,-0.66792,1.31771,-0.5522,-0.06801,-0.05554
189,0.07465,-0.51515,0.99243,-0.37917,-0.05771,-0.04738,0.07888,-0.6357,1.2499,-0.51626,-0.06115,-0.04987
190,0.06638,-0.51415,0.98723,-0.37469,-0.05131,-0.04214,0.06895,-0.59956,1.17352,-0.47565,-0.05348,-0.04355
191,0.05686,-0.51375,0.98322,-0.37079,-0.04393,-0.0361,0.05815,-0.56429,1.09875,-0.43582,-0.04513,-0.03669
192,0.04661,-0.51433,0.98178,-0.3685,-0.036,-0.02962,0.04714,-0.53696,1.04061,-0.40471,-0.03662,-0.02971
193,0.03543,-0.51613,0.98371,-0.36842,-0.02734,-0.02254,0.03564,-0.52199,1.00845,-0.38729,-0.02771,-0.02242
194,0.02357,-0.51895,0.98875,-0.37047,-0.01816,-0.01503,0.02373,-0.52032,1.00433,-0.38467,-0.01849,-0.01488
195,0.01129,-0.5216,0.99349,-0.37244,-0.00865,-0.00726,0.01142,-0.51924,1.00144,-0.38275,-0.00896,-0.00709
196,-0.00114,-0.52394,0.99754,-0.37413,0.00097,0.0006,-0.00102,-0.5178,0.99779,-0.38051,0.00067,0.00078
197,-0.01343,-0.52591,1.00083,-0.37548,0.01049,0.00838,-0.01329,-0.51605,0.99346,-0.37798,0.01017,0.00855
198,-0.02531,-0.52751,1.00332,-0.3765,0.01968,0.01591,-0.02515,-0.51403,0.98859,-0.37523,0.01935,0.01605
199,-0.0365,-0.52873,1.00506,-0.37719,0.02835,0.023,-0.0363,-0.51184,0.98337,-0.37237,0.02798,0.02312
200,-0.04676,-0.52962,1.00614,-0.37759,0.03628,0.0295,-0.0465,-0.50959,0.97804,-0.3695,0.03587,0.02959
201,-0.05607,-0.53863,1.02462,-0.38729,0.04348,0.03541,-0.05558,-0.50809,0.97499,-0.36817,0.04289,0.03534
202,-0.06472,-0.5622,1.07431,-0.41366,0.05017,0.04091,-0.06355,-0.50804,0.97615,-0.36962,0.04906,0.0404
203,-0.07278,-0.59401,1.14181,-0.44962,0.05639,0.04603,-0.0705,-0.5091,0.98031,-0.37295,0.05444,0.04481
204,-0.0802,-0.62844,1.21522,-0.48889,0.06211,0.05076,-0.07646,-0.51088,0.9862,-0.37727,0.05905,0.04859
205,-0.08663,-0.6609,1.28484,-0.52631,0.06707,0.05487,-0.08127,-0.51302,0.9927,-0.38182,0.06277,0.05165
206,-0.0922,-0.68764,1.34267,-0.55764,0.07136,0.05843,-0.08528,-0.51494,0.99835,-0.38571,0.06588,0.05419
207,-0.09652,-0.70535,1.38161,-0.57907,0.07468,0.0612,-0.08839,-0.5162,1.00201,-0.38824,0.06829,0.05616
208,-0.09928,-0.71082,1.39474,-0.58687,0.0768,0.06298,-0.0906,-0.51633,1.00245,-0.38865,0.07,0.05755
209,-0.10076,-0.71005,1.39474,-0.58771,0.07792,0.06394,-0.09195,-0.51599,1.0015,-0.38811,0.07106,0.0584
210,-0.10132,-0.70928,1.39482,-0.58859,0.07834,0.06432,-0.09248,-0.51594,1.00117,-0.38785,0.07147,0.05873
211,-0.10098,-0.70851,1.39498,-0.5895,0.07805,0.06412,-0.09217,-0.51618,1.00146,-0.38788,0.07124,0.05852
212,-0.09972,-0.70778,1.39522,-0.5904,0.07706,0.06334,-0.09104,-0.51671,1.00235,-0.38819,0.07038,0.05778
213,-0.09753,-0.70708,1.39551,-0.59129,0.07536,0.06197,-0.08906,-0.51754,1.00385,-0.38878,0.06886,0.05651
214,-0.09439,-0.70644,1.39585,-0.59212,0.07292,0.05999,-0.08622,-0.51866,1.00594,-0.38962,0.06668,0.05469
215,-0.09024,-0.70508,1.39455,-0.59199,0.0697,0.05736,-0.08249,-0.51997,1.00834,-0.39057,0.0638,0.05231
216,-0.08453,-0.69328,1.37077,-0.57976,0.06527,0.05375,-0.07778,-0.5203,1.00793,-0.38964,0.06018,0.0493
217,-0.07736,-0.67072,1.32378,-0.55504,0.05972,0.0492,-0.07207,-0.51967,1.00471,-0.38683,0.05577,0.04566
218,-0.06903,-0.64061,1.26046,-0.52153,0.05327,0.04392,-0.06532,-0.51857,0.99985,-0.38285,0.05057,0.04136
219,-0.05978,-0.60636,1.18809,-0.48313,0.04611,0.03805,-0.05752,-0.51744,0.99456,-0.37845,0.04454,0.0364
220,-0.04973,-0.57195,1.11517,-0.44435,0.03834,0.03168,-0.04862,-0.51674,0.99002,-0.37438,0.03767,0.03074
221,-0.03895,-0.54229,1.05213,-0.41073,0.03,0.02485,-0.03857,-0.51686,0.98744,-0.37146,0.0299,0.02435
222,-0.02757,-0.52335,1.01159,-0.38895,0.0212,0.01763,-0.02752,-0.51809,0.9879,-0.37052,0.02137,0.01734
223,-0.01571,-0.51937,1.0026,-0.38381,0.01203,0.01011,-0.01573,-0.52051,0.99194,-0.37201,0.01225,0.00986
224,-0.0034,-0.51807,0.99924,-0.3817,0.00251,0.0023,-0.00343,-0.52295,0.99621,-0.37378,0.00274,0.00206
225,0.00913,-0.5164,0.99509,-0.37923,-0.00718,-0.00564,0.0091,-0.52509,0.99982,-0.37528,-0.00695,-0.00588
226,0.02159,-0.51439,0.9902,-0.37645,-0.01682,-0.01354,0.02159,-0.52686,1.00268,-0.37645,-0.01661,-0.0138
227,0.03371,-0.51209,0.98472,-0.37343,-0.02619,-0.02122,0.03374,-0.52827,1.00476,-0.37729,-0.02601,-0.02151
228,0.04519,-0.5096,0.97884,-0.37027,-0.03507,-0.02851,0.04529,-0.52931,1.00609,-0.37781,-0.03494,-0.02883
229,0.0558,-0.50703,0.97281,-0.36708,-0.04328,-0.03524,0.05596,-0.53002,1.00677,-0.37804,-0.04319,-0.0356
230,0.06529,-0.5049,0.96811,-0.36479,-0.05061,-0.04126,0.06563,-0.53511,1.01688,-0.38334,-0.05068,-0.04174
231,0.07366,-0.50426,0.96778,-0.36538,-0.05708,-0.04658,0.07468,-0.55543,1.05959,-0.40604,-0.05767,-0.04748
232,0.08097,-0.50486,0.97084,-0.36811,-0.06273,-0.05124,0.08318,-0.58558,1.12348,-0.44011,-0.06425,-0.05288
233,0.08729,-0.50632,0.97602,-0.3721,-0.06761,-0.05526,0.09109,-0.61969,1.19612,-0.47898,-0.07037,-0.0579
234,0.09264,-0.50821,0.98205,-0.37648,-0.07174,-0.05867,0.09828,-0.65291,1.26726,-0.51724,-0.07594,-0.06247
235,0.09705,-0.51007,0.98769,-0.38047,-0.07514,-0.06148,0.10453,-0.68131,1.32853,-0.55042,-0.08077,-0.06643
236,0.10051,-0.51141,0.9917,-0.38329,-0.07781,-0.0637,0.10951,-0.7015,1.37269,-0.57466,-0.08464,-0.06959
237,0.10304,-0.51176,0.99284,-0.38422,-0.07975,-0.06532,0.11288,-0.71026,1.39279,-0.58618,-0.08725,-0.07172
238,0.10465,-0.51131,0.99168,-0.38359,-0.08098,-0.06636,0.11468,-0.7097,1.39321,-0.58726,-0.08866,-0.07285
239,0.10542,-0.51114,0.99111,-0.38323,-0.08157,-0.06686,0.11554,-0.7089,1.39323,-0.58813,-0.08934,-0.07338
240,0.10536,-0.51129,0.99122,-0.38319,-0.08151,-0.06683,0.11549,-0.70813,1.39337,-0.58904,-0.08932,-0.07332
241,0.10447,-0.51176,0.992,-0.38345,-0.08081,-0.06628,0.11452,-0.7074,1.39363,-0.58997,-0.08859,-0.07268
242,0.10274,-0.51255,0.99345,-0.38402,-0.07947,-0.06518,0.11262,-0.70673,1.394,-0.59091,-0.08714,-0.07145
243,0.10015,-0.51366,0.99555,-0.38488,-0.07746,-0.06355,0.10978,-0.70613,1.39446,-0.59181,-0.08496,-0.06962
244,0.09668,-0.51508,0.99827,-0.38601,-0.07477,-0.06135,0.10597,-0.70556,1.3949,-0.59262,-0.08204,-0.06717
245,0.09225,-0.51584,0.99901,-0.38579,-0.07134,-0.05854,0.10065,-0.69708,1.37825,-0.58419,-0.07794,-0.06376
246,0.08681,-0.51554,0.99668,-0.38352,-0.06712,-0.05509,0.09369,-0.67702,1.33667,-0.56233,-0.07258,-0.05931
247,0.08034,-0.51467,0.99248,-0.37992,-0.06211,-0.05099,0.08544,-0.64864,1.27709,-0.53077,-0.06622,-0.05405
248,0.07281,-0.51369,0.9876,-0.37573,-0.05628,-0.04622,0.07619,-0.61526,1.20664,-0.49334,-0.05907,-0.04815
249,0.0642,-0.51307,0.98326,-0.37173,-0.04961,-0.04076,0.06612,-0.58069,1.13345,-0.45437,-0.05129,-0.04176
250,0.05242,-0.51376,0.98183,-0.36926,-0.0405,-0.0333,0.05329,-0.54952,1.06732,-0.41902,-0.04137,-0.03361
251,0.04232,-0.51478,0.98163,-0.36782,-0.03268,-0.0269,0.04265,-0.52761,1.02055,-0.39391,-0.03314,-0.02687
252,0.03154,-0.5171,0.98526,-0.36893,-0.02433,-0.02008,0.03172,-0.52091,1.00581,-0.38568,-0.02468,-0.01994
253,0.02026,-0.51978,0.99007,-0.37092,-0.0156,-0.01294,0.02041,-0.52015,1.0036,-0.38407,-0.01592,-0.01278
254,0.0086,-0.52224,0.99439,-0.3727,-0.00657,-0.00556,0.00873,-0.51906,1.00068,-0.38216,-0.00688,-0.00539
255,-0.00329,-0.52442,0.99813,-0.37424,0.00264,0.00197,-0.00317,-0.51764,0.99705,-0.37993,0.00234,0.00214
256,-0.01519,-0.52629,1.0012,-0.37549,0.01185,0.0095,-0.01506,-0.51589,0.99274,-0.37742,0.01154,0.00966
257,-0.02681,-0.52781,1.00355,-0.37644,0.02085,0.01686,-0.02665,-0.51387,0.98788,-0.3747,0.02051,0.017
258,-0.0378,-0.52897,1.00519,-0.37709,0.02935,0.02382,-0.0376,-0.51168,0.98268,-0.37186,0.02898,0.02394
259,-0.04783,-0.53177,1.01037,-0.37969,0.03711,0.03018,-0.04753,-0.50962,0.97793,-0.36938,0.03667,0.03024
260,-0.05704,-0.54893,1.04628,-0.39868,0.04423,0.03603,-0.05632,-0.50888,0.97713,-0.36954,0.04346,0.03581
261,-0.0656,-0.57744,1.10662,-0.43076,0.05084,0.04147,-0.06402,-0.50941,0.97991,-0.37202,0.04942,0.04069
262,-0.07353,-0.61124,1.1785,-0.46912,0.05697,0.04652,-0.07069,-0.51085,0.98503,-0.37592,0.05458,0.04493
263,-0.08075,-0.64522,1.25115,-0.50806,0.06253,0.05112,-0.07637,-0.5128,0.99124,-0.38039,0.05898,0.04853
264,-0.08708,-0.67526,1.31582,-0.54294,0.06741,0.05516,-0.0811,-0.51481,0.9973,-0.38462,0.06264,0.05153
265,-0.09228,-0.69789,1.36507,-0.5698,0.07141,0.05849,-0.08488,-0.5164,1.00198,-0.38786,0.06557,0.05392
266,-0.09603,-0.70989,1.39198,-0.58489,0.0743,0.0609,-0.08771,-0.5171,1.00407,-0.38937,0.06777,0.05572
267,-0.0982,-0.71052,1.39489,-0.58727,0.07595,0.0623,-0.08962,-0.51675,1.00318,-0.38892,0.06925,0.05693
268,-0.09934,-0.70974,1.39492,-0.58813,0.07682,0.06305,-0.09067,-0.51652,1.00247,-0.38849,0.07007,0.05758
269,-0.09955,-0.70896,1.39503,-0.58903,0.07697,0.06321,-0.09088,-0.51658,1.00238,-0.38835,0.07024,0.0577
270,-0.09884,-0.70821,1.39522,-0.58994,0.0764,0.06277,-0.09024,-0.51693,1.00291,-0.38849,0.06976,0.05728
271,-0.0972,-0.70748,1.39547,-0.59084,0.07511,0.06175,-0.08876,-0.51758,1.00404,-0.38891,0.06862,0.05633
272,-0.09461,-0.7068,1.39578,-0.59169,0.0731,0.06012,-0.08641,-0.51853,1.00577,-0.3896,0.06682,0.05482
273,-0.0881,-0.70621,1.39625,-0.59247,0.06805,0.05599,-0.0805,-0.52063,1.00993,-0.39142,0.06226,0.05105
274,-0.0834,-0.70078,1.38617,-0.58761,0.06441,0.05302,-0.07644,-0.5215,1.01112,-0.39158,0.05914,0.04846
275,-0.07722,-0.68316,1.34983,-0.56865,0.05961,0.0491,-0.07147,-0.52118,1.00892,-0.38951,0.0553,0.04528
276,-0.0698,-0.65639,1.29373,-0.53905,0.05387,0.0444,-0.06553,-0.52013,1.00446,-0.3859,0.05072,0.0415
277,-0.06135,-0.62372,1.22483,-0.50256,0.04733,0.03905,-0.05856,-0.51883,0.99896,-0.3815,0.04534,0.03706
278,-0.05203,-0.5888,1.15093,-0.46332,0.04011,0.03314,-0.05048,-0.51774,0.99364,-0.37704,0.0391,0.03192
279,-0.0419,-0.55604,1.08141,-0.42632,0.03228,0.02672,-0.04125,-0.51729,0.98969,-0.37334,0.03197,0.02606
280,-0.03105,-0.5309,1.02783,-0.39769,0.02388,0.01983,-0.0309,-0.51783,0.98827,-0.3712,0.02397,0.01948
281,-0.01964,-0.5197,1.0036,-0.38453,0.01506,0.0126,-0.01965,-0.51961,0.99045,-0.37145,0.01528,0.01235
282,-0.00772,-0.51852,1.00052,-0.38253,0.00585,0.00504,-0.00775,-0.52209,0.99481,-0.37326,0.00608,0.0048
283,0.00456,-0.51701,0.9967,-0.38022,-0.00365,-0.00274,0.00453,-0.52431,0.99861,-0.37482,-0.00342,-0.00298
284,0.01694,-0.51515,0.99212,-0.37757,-0.01322,-0.01059,0.01692,-0.5262,1.00171,-0.3761,-0.013,-0.01084
285,0.02912,-0.51297,0.98689,-0.37465,-0.02264,-0.01831,0.02914,-0.52774,1.00407,-0.37705,-0.02245,-0.01859
286,0.04083,-0.51055,0.98116,-0.37154,-0.0317,-0.02574,0.0409,-0.52892,1.00567,-0.37768,-0.03155,-0.02605
287,0.0518,-0.508,0.97516,-0.36835,-0.04018,-0.0327,0.05193,-0.52975,1.00659,-0.37802,-0.04008,-0.03305
288,0.06177,-0.50547,0.96927,-0.36527,-0.04789,-0.03903,0.06198,-0.53067,1.00775,-0.37854,-0.04785,-0.03942
289,0.0706,-0.50409,0.96679,-0.36445,-0.05472,-0.04463,0.07123,-0.54364,1.03472,-0.39284,-0.055,-0.04529
290,0.07835,-0.50413,0.96833,-0.36624,-0.06071,-0.04957,0.07993,-0.56965,1.08966,-0.42209,-0.06174,-0.05082
291,0.0851,-0.50522,0.97263,-0.36972,-0.06592,-0.05386,0.08809,-0.60244,1.15933,-0.45931,-0.06805,-0.056
292,0.09087,-0.50696,0.97842,-0.37402,-0.07037,-0.05754,0.09562,-0.63664,1.23236,-0.49848,-0.07387,-0.06078
293,0.09569,-0.5089,0.98444,-0.37832,-0.07409,-0.06062,0.10233,-0.6679,1.29952,-0.53471,-0.07907,-0.06503
294,0.09958,-0.51058,0.98944,-0.38183,-0.07709,-0.0631,0.10794,-0.69259,1.3531,-0.56389,-0.08342,-0.0686
295,0.10188,-0.51174,0.99272,-0.38405,-0.07886,-0.06458,0.11141,-0.70751,1.3862,-0.58226,-0.08611,-0.07079
296,0.10379,-0.51156,0.99235,-0.38396,-0.08033,-0.06581,0.11374,-0.71011,1.39327,-0.58687,-0.08792,-0.07225
297,0.10489,-0.51127,0.99152,-0.38348,-0.08116,-0.06652,0.11495,-0.70931,1.39324,-0.5877,-0.08888,-0.07301
298,0.10521,-0.51128,0.99132,-0.38329,-0.0814,-0.06673,0.11531,-0.70852,1.39333,-0.5886,-0.08917,-0.07322
299,0.10472,-0.51159,0.99177,-0.3834,-0.08102,-0.06643,0.11479,-0.70777,1.39353,-0.58952,-0.08879,-0.07286
300,0.10341,-0.51222,0.99289,-0.38382,-0.07999,-0.06561,0.11336,-0.70706,1.39384,-0.59046,-0.0877,-0.07193
301,0.10125,-0.51317,0.99466,-0.38454,-0.07831,-0.06424,0.11099,-0.70643,1.39426,-0.59138,-0.08589,-0.07039
302,0.09822,-0.51444,0.99708,-0.38554,-0.07596,-0.06232,0.10766,-0.70586,1.39475,-0.59227,-0.08333,-0.06825
303,0.09427,-0.51573,0.99935,-0.38633,-0.0729,-0.05983,0.10319,-0.70298,1.39018,-0.59034,-0.0799,-0.06538
304,0.08933,-0.5159,0.9984,-0.38499,-0.06907,-0.05669,0.097,-0.68829,1.36017,-0.57472,-0.07513,-0.06142
305,0.08336,-0.51525,0.99499,-0.38196,-0.06445,-0.05291,0.08934,-0.66367,1.30872,-0.54755,-0.06922,-0.05654
306,0.07635,-0.51427,0.9903,-0.37798,-0.05902,-0.04846,0.08054,-0.63234,1.24277,-0.51255,-0.06244,-0.05093
307,0.06827,-0.51342,0.98554,-0.37379,-0.05277,-0.04334,0.07085,-0.59784,1.16983,-0.47375,-0.05495,-0.04476
308,0.05906,-0.51313,0.98192,-0.37017,-0.04564,-0.03751,0.06041,-0.56435,1.09883,-0.4359,-0.04688,-0.03813
309,0.04874,-0.51378,0.98062,-0.36794,-0.03764,-0.03096,0.04929,-0.53707,1.04079,-0.40484,-0.03828,-0.03108
310,0.03748,-0.51565,0.98271,-0.36793,-0.02893,-0.02384,0.0377,-0.52214,1.00873,-0.38746,-0.02931,-0.02373
311,0.02555,-0.51854,0.9879,-0.37005,-0.01969,-0.01628,0.02571,-0.52052,1.00472,-0.38488,-0.02002,-0.01614
312,0.01318,-0.52127,0.99279,-0.37209,-0.01011,-0.00846,0.01331,-0.51948,1.00192,-0.383,-0.01043,-0.00829
313,0.00066,-0.52367,0.99699,-0.37384,-0.00042,-0.00053,0.00078,-0.51808,0.99835,-0.38078,-0.00072,-0.00036
314,-0.01174,-0.52571,1.0004,-0.37525,0.00918,0.00732,-0.01161,-0.51636,0.99408,-0.37828,0.00887,0.00748
315,-0.02374,-0.52736,1.00302,-0.37632,0.01847,0.01492,-0.02359,-0.51436,0.98925,-0.37555,0.01814,0.01507
316,-0.03507,-0.52863,1.00486,-0.37706,0.02723,0.02209,-0.03487,-0.51218,0.98406,-0.3727,0.02687,0.02221
317,-0.04545,-0.52956,1.00602,-0.3775,0.03527,0.02867,-0.0452,-0.50993,0.97874,-0.36983,0.03487,0.02876
318,-0.05487,-0.53859,1.02455,-0.38723,0.04255,0.03465,-0.05439,-0.50842,0.97568,-0.36849,0.04197,0.03459
319,-0.06361,-0.56219,1.07429,-0.41362,0.04931,0.0402,-0.06247,-0.50836,0.97682,-0.36993,0.04822,0.03971
320,-0.07175,-0.59402,1.14183,-0.4496,0.05559,0.04538,-0.06951,-0.50941,0.98095,-0.37324,0.05367,0.04418
321,-0.07924,-0.62846,1.21525,-0.48887,0.06138,0.05016,-0.07556,-0.51118,0.98681,-0.37755,0.05835,0.04802
322,-0.08596,-0.66092,1.28488,-0.5263,0.06655,0.05444,-0.08065,-0.51323,0.99313,-0.38202,0.06229,0.05125
323,-0.09167,-0.68766,1.3427,-0.55763,0.07095,0.0581,-0.0848,-0.51511,0.9987,-0.38587,0.0655,0.05388
324,-0.09611,-0.70537,1.38164,-0.57907,0.07437,0.06094,-0.08801,-0.51634,1.00228,-0.38836,0.068,0.05592
325,-0.09895,-0.71084,1.39477,-0.58686,0.07654,0.06277,-0.0903,-0.51644,1.00267,-0.38875,0.06977,0.05736
326,-0.10048,-0.71007,1.39477,-0.5877,0.07771,0.06376,-0.0917,-0.51608,1.00169,-0.38819,0.07086,0.05824
327,-0.10109,-0.70929,1.39484,-0.58858,0.07816,0.06417,-0.09226,-0.51602,1.00133,-0.38792,0.07131,0.05859
328,-0.10078,-0.70853,1.395,-0.58949,0.07791,0.064,-0.092,-0.51624,1.00158,-0.38793,0.07111,0.05841
329,-0.09956,-0.70779,1.39523,-0.5904,0.07695,0.06324,-0.0909,-0.51677,1.00245,-0.38823,0.07027,0.0577
330,-0.09741,-0.70709,1.39552,-0.59128,0.07527,0.06189,-0.08896,-0.51758,1.00393,-0.38881,0.06878,0.05645
331,-0.09432,-0.70644,1.39585,-0.59212,0.07286,0.05994,-0.08615,-0.51869,1.00599,-0.38964,0.06662,0.05465
332,-0.0902,-0.70508,1.39455,-0.59199,0.06966,0.05734,-0.08245,-0.51998,1.00837,-0.39057,0.06377,0.05228
333,-0.08452,-0.69329,1.37077,-0.57976,0.06526,0.05374,-0.07778,-0.5203,1.00794,-0.38964,0.06017,0.0493
334,-0.07739,-0.67073,1.32378,-0.55504,0.05974,0.04922,-0.07209,-0.51967,1.00469,-0.38682,0.05579,0.04567
335,-0.06909,-0.64062,1.26046,-0.52153,0.05332,0.04396,-0.06538,-0.51855,0.99982,-0.38283,0.05061,0.0414
336,-0.05987,-0.60637,1.1881,-0.48313,0.04618,0.03811,-0.05761,-0.51742,0.99451,-0.37842,0.04461,0.03645
337,-0.04986,-0.57196,1.11518,-0.44435,0.03844,0.03176,-0.04874,-0.51672,0.98996,-0.37434,0.03776,0.03081
338,-0.03911,-0.54231,1.05215,-0.41073,0.03012,0.02495,-0.03873,-0.51683,0.98736,-0.37142,0.03002,0.02445
339,-0.02776,-0.52337,1.01162,-0.38896,0.02134,0.01775,-0.02771,-0.51805,0.98782,-0.37047,0.02151,0.01746
340,-0.01593,-0.5194,1.00265,-0.38383,0.01219,0.01024,-0.01594,-0.52047,0.99185,-0.37196,0.01241,0.01
341,-0.00363,-0.51811,0.99931,-0.38172,0.00269,0.00245,-0.00366,-0.52292,0.99613,-0.37374,0.00292,0.00221
342,0.00889,-0.51645,0.99517,-0.37926,-0.00699,-0.00549,0.00886,-0.52506,0.99976,-0.37524,-0.00677,-0.00573
343,0.02134,-0.51444,0.9903,-0.37649,-0.01663,-0.01339,0.02134,-0.52684,1.00263,-0.37642,-0.01642,-0.01364
344,0.03346,-0.51215,0.98483,-0.37348,-0.026,-0.02107,0.0335,-0.52825,1.00472,-0.37726,-0.02583,-0.02135
345,0.04497,-0.50966,0.97896,-0.37032,-0.0349,-0.02837,0.04506,-0.5293,1.00607,-0.37779,-0.03477,-0.02868
346,0.05559,-0.50709,0.97294,-0.36713,-0.04311,-0.03511,0.05575,-0.53001,1.00676,-0.37803,-0.04303,-0.03546
347,0.06509,-0.50496,0.96823,-0.36484,-0.05046,-0.04114,0.06544,-0.53512,1.01688,-0.38333,-0.05053,-0.04162
348,0.07348,-0.50432,0.9679,-0.36543,-0.05694,-0.04647,0.0745,-0.55544,1.05959,-0.40603,-0.05753,-0.04736
349,0.08081,-0.50492,0.97095,-0.36817,-0.0626,-0.05113,0.08301,-0.58559,1.12349,-0.4401,-0.06412,-0.05277
350,0.08714,-0.50638,0.97613,-0.37215,-0.06749,-0.05516,0.09093,-0.6197,1.19613,-0.47898,-0.07025,-0.0578
351,0.0925,-0.50826,0.98216,-0.37653,-0.07163,-0.05858,0.09813,-0.65292,1.26727,-0.51724,-0.07582,-0.06237
352,0.09691,-0.51012,0.98779,-0.38051,-0.07503,-0.0614,0.10438,-0.68132,1.32855,-0.55042,-0.08066,-0.06633
353,0.10039,-0.51146,0.9918,-0.38334,-0.07771,-0.06362,0.10937,-0.70151,1.37271,-0.57465,-0.08453,-0.0695
354,0.10292,-0.51181,0.99294,-0.38426,-0.07966,-0.06524,0.11275,-0.71027,1.39281,-0.58618,-0.08715,-0.07163
355,0.10453,-0.51135,0.99177,-0.38363,-0.0809,-0.06628,0.11456,-0.70971,1.39323,-0.58726,-0.08856,-0.07277
356,0.10531,-0.51118,0.9912,-0.38327,-0.08149,-0.06679,0.11542,-0.70891,1.39324,-0.58813,-0.08925,-0.0733
357,0.10526,-0.51133,0.99131,-0.38322,-0.08143,-0.06677,0.11537,-0.70814,1.39338,-0.58904,-0.08923,-0.07325
358,0.10437,-0.5118,0.99208,-0.38349,-0.08074,-0.06621,0.11441,-0.70741,1.39364,-0.58997,-0.0885,-0.07261
359,0.10264,-0.51259,0.99353,-0.38405,-0.07939,-0.06512,0.11252,-0.70674,1.39401,-0.59091,-0.08706,-0.07138
360,0.10006,-0.5137,0.99562,-0.38491,-0.07739,-0.06349,0.10968,-0.70613,1.39447,-0.59181,-0.08489,-0.06955
361,0.09659,-0.51512,0.99834,-0.38604,-0.0747,-0.06129,0.10587,-0.70557,1.39491,-0.59262,-0.08196,-0.0671
362,0.09216,-0.51587,0.99908,-0.38582,-0.07127,-0.05849,0.10055,-0.69708,1.37826,-0.58419,-0.07787,-0.0637
363,0.08462,-0.51628,0.99825,-0.38425,-0.06543,-0.0537,0.09132,-0.67707,1.33683,-0.56233,-0.07075,-0.0578
364,0.07859,-0.51523,0.99368,-0.38049,-0.06076,-0.04988,0.08358,-0.64866,1.27718,-0.53077,-0.06478,-0.05286
365,0.07164,-0.51406,0.98838,-0.37611,-0.05537,-0.04547,0.07495,-0.61525,1.20667,-0.49333,-0.05812,-0.04737
366,0.06368,-0.51322,0.98359,-0.37189,-0.04921,-0.04043,0.06559,-0.58067,1.13345,-0.45436,-0.05088,-0.04142
367,0.05462,-0.51316,0.98057,-0.36866,-0.0422,-0.03469,0.05552,-0.54959,1.06744,-0.41913,-0.0431,-0.03502
368,0.04448,-0.51424,0.98051,-0.36728,-0.03435,-0.02827,0.04483,-0.52773,1.02078,-0.39406,-0.03483,-0.02825
369,0.03346,-0.51667,0.98436,-0.3685,-0.02581,-0.02129,0.03365,-0.52106,1.00611,-0.38585,-0.02617,-0.02116
370,0.02174,-0.51949,0.98946,-0.37062,-0.01674,-0.01388,0.02189,-0.52031,1.00391,-0.38424,-0.01707,-0.01372
371,0.00957,-0.52207,0.99405,-0.37253,-0.00732,-0.00617,0.0097,-0.51919,1.00094,-0.38229,-0.00763,-0.00601
372,-0.00278,-0.52435,0.99798,-0.37415,0.00224,0.00164,-0.00266,-0.51772,0.99721,-0.38001,0.00194,0.00181
373,-0.01501,-0.52627,1.00115,-0.37547,0.01171,0.00939,-0.01488,-0.51593,0.99281,-0.37746,0.0114,0.00955
374,-0.02682,-0.52781,1.00355,-0.37644,0.02086,0.01687,-0.02666,-0.51387,0.98787,-0.37469,0.02052,0.01701
375,-0.0379,-0.52898,1.0052,-0.3771,0.02943,0.02388,-0.03769,-0.51166,0.98263,-0.37184,0.02906,0.024
376,-0.04796,-0.53178,1.01038,-0.37969,0.03721,0.03027,-0.04767,-0.50959,0.97785,-0.36934,0.03677,0.03032
377,-0.05721,-0.54893,1.04629,-0.39869,0.04436,0.03614,-0.05648,-0.50884,0.97703,-0.36949,0.04359,0.03592
378,-0.0658,-0.57745,1.10662,-0.43076,0.051,0.0416,-0.06421,-0.50935,0.97979,-0.37196,0.04957,0.04082
379,-0.07376,-0.61124,1.1785,-0.46912,0.05714,0.04667,-0.07091,-0.51079,0.98489,-0.37585,0.05475,0.04507
380,-0.08101,-0.64522,1.25114,-0.50806,0.06273,0.05129,-0.07662,-0.51272,0.99107,-0.38031,0.05917,0.04869
381,-0.08737,-0.67526,1.3158,-0.54295,0.06764,0.05535,-0.08137,-0.51472,0.99711,-0.38453,0.06285,0.0517
382,-0.0926,-0.69789,1.36505,-0.5698,0.07166,0.05869,-0.08517,-0.5163,1.00177,-0.38776,0.0658,0.05411
383,-0.09639,-0.70988,1.39196,-0.58489,0.07457,0.06113,-0.08804,-0.51699,1.00383,-0.38926,0.06802,0.05593
384,-0.09858,-0.7105,1.39486,-0.58727,0.07625,0.06254,-0.08997,-0.51663,1.00293,-0.38881,0.06952,0.05715
385,-0.09825,-0.70976,1.39501,-0.58814,0.07597,0.06235,-0.08968,-0.51685,1.0032,-0.38884,0.0693,0.05695
386,-0.09836,-0.70899,1.39513,-0.58904,0.07604,0.06245,-0.08979,-0.51695,1.00318,-0.38873,0.0694,0.05701
387,-0.09763,-0.70823,1.39532,-0.58995,0.07546,0.062,-0.08913,-0.51731,1.00371,-0.38887,0.0689,0.05658
388,-0.09604,-0.7075,1.39556,-0.59084,0.07421,0.06101,-0.0877,-0.51794,1.00481,-0.38927,0.0678,0.05565
389,-0.09354,-0.70682,1.39585,-0.5917,0.07227,0.05944,-0.08544,-0.51885,1.00647,-0.38993,0.06607,0.0542
390,-0.09007,-0.70618,1.39616,-0.59249,0.06957,0.05725,-0.08229,-0.52004,1.00871,-0.39084,0.06365,0.05219
391,-0.08533,-0.70076,1.3861,-0.58764,0.0659,0.05425,-0.0782,-0.52094,1.00995,-0.39103,0.0605,0.04958
392,-0.07863,-0.68201,1.34741,-0.56743,0.06071,0.05,-0.07282,-0.52065,1.0077,-0.38887,0.05634,0.04614
393,-0.0705,-0.65334,1.2873,-0.53569,0.05441,0.04485,-0.06629,-0.51959,1.00307,-0.38508,0.05131,0.04198
394,-0.06124,-0.61855,1.2139,-0.49679,0.04724,0.03898,-0.05859,-0.51831,0.99744,-0.38049,0.04537,0.03708
395,-0.05104,-0.58195,1.13641,-0.45562,0.03935,0.03251,-0.04968,-0.51734,0.99219,-0.37597,0.03849,0.03141
396,-0.04,-0.54885,1.06611,-0.41818,0.03081,0.02551,-0.0395,-0.51715,0.98869,-0.37245,0.03062,0.02494
397,-0.02822,-0.52582,1.01695,-0.39185,0.0217,0.01804,-0.02814,-0.5181,0.98826,-0.37088,0.02184,0.01774
398,-0.0159,-0.51935,1.00266,-0.3839,0.01217,0.01023,-0.01591,-0.52043,0.99188,-0.37204,0.01239,0.00998
399,-0.00306,-0.51799,0.99915,-0.38169,0.00225,0.00209,-0.0031,-0.52297,0.99633,-0.37388,0.00248,0.00185
400,0.01002,-0.51623,0.99477,-0.37909,-0.00787,-0.0062,0.00999,-0.52518,1.00007,-0.37542,-0.00764,-0.00645
401,0.02302,-0.5141,0.9896,-0.37616,-0.01793,-0.01445,0.02302,-0.52701,1.00298,-0.37662,-0.01772,-0.01471
402,0.03563,-0.51166,0.98379,-0.37297,-0.02768,-0.02245,0.03568,-0.52843,1.00504,-0.37744,-0.02751,-0.02273
403,0.04753,-0.50902,0.97757,-0.36963,-0.03688,-0.02999,0.04764,-0.52945,1.0063,-0.37793,-0.03676,-0.03032
404,0.05843,-0.50632,0.97124,-0.36629,-0.04531,-0.03691,0.05861,-0.53012,1.00687,-0.37811,-0.04524,-0.03728
405,0.06808,-0.50433,0.96705,-0.36438,-0.05277,-0.04304,0.06854,-0.53808,1.02307,-0.38665,-0.05292,-0.04358
406,0.07653,-0.50399,0.96762,-0.36559,-0.0593,-0.04841,0.07783,-0.56228,1.07405,-0.41378,-0.06011,-0.04948
407,0.08382,-0.50493,0.97162,-0.36894,-0.06493,-0.05305,0.0865,-0.59561,1.1448,-0.45154,-0.06682,-0.05498
408,0.09003,-0.50668,0.97753,-0.37337,-0.06972,-0.057,0.0945,-0.6316,1.22158,-0.49269,-0.07301,-0.06006
409,0.0952,-0.50873,0.9839,-0.37793,-0.07371,-0.0603,0.10164,-0.66501,1.2933,-0.53134,-0.07854,-0.0646
410,0.09935,-0.51053,0.98928,-0.38171,-0.07691,-0.06295,0.10762,-0.69157,1.35086,-0.56266,-0.08317,-0.06839
411,0.10247,-0.51152,0.99225,-0.38384,-0.07931,-0.06495,0.11205,-0.70748,1.38612,-0.58224,-0.08661,-0.0712
412,0.10456,-0.51128,0.99173,-0.38366,-0.08092,-0.0663,0.11458,-0.71003,1.39317,-0.58689,-0.08858,-0.07279
413,0.10571,-0.51097,0.99086,-0.38316,-0.08179,-0.06704,0.11585,-0.70918,1.39314,-0.58777,-0.08958,-0.07358
414,0.10594,-0.51102,0.99073,-0.383,-0.08196,-0.0672,0.11612,-0.70836,1.39324,-0.58871,-0.0898,-0.07373
415,0.10526,-0.51141,0.99135,-0.38319,-0.08143,-0.06678,0.11538,-0.70758,1.39348,-0.58969,-0.08925,-0.07324
416,0.10366,-0.51216,0.9927,-0.38371,-0.08018,-0.06577,0.11363,-0.70686,1.39384,-0.59068,-0.08792,-0.0721
417,0.10113,-0.51326,0.99477,-0.38455,-0.07821,-0.06417,0.11086,-0.70621,1.39431,-0.59164,-0.08579,-0.0703
418,0.09763,-0.51471,0.99755,-0.3857,-0.07551,-0.06196,0.10702,-0.70565,1.39486,-0.59255,-0.08285,-0.06784
419,0.0931,-0.51568,0.99883,-0.3858,-0.07199,-0.05908,0.10166,-0.69848,1.38112,-0.58571,-0.07872,-0.0644
420,0.08745,-0.51545,0.9966,-0.38356,-0.06762,-0.0555,0.09445,-0.67823,1.33921,-0.5637,-0.07317,-0.0598
421,0.08068,-0.51455,0.99225,-0.37982,-0.06238,-0.05121,0.08581,-0.64862,1.27708,-0.53078,-0.0665,-0.05428
422,0.07275,-0.51354,0.98714,-0.37543,-0.05623,-0.04618,0.07606,-0.61351,1.20297,-0.4914,-0.05897,-0.04807
423,0.06361,-0.51294,0.9827,-0.37128,-0.04916,-0.04039,0.06542,-0.57733,1.12635,-0.4506,-0.05075,-0.04131
424,0.05322,-0.51323,0.98031,-0.3683,-0.04112,-0.03381,0.05402,-0.54557,1.05889,-0.41456,-0.04193,-0.03407
425,0.04172,-0.51476,0.98126,-0.36745,-0.03221,-0.02652,0.04201,-0.52499,1.01489,-0.39086,-0.03264,-0.02646
426,0.02939,-0.51765,0.98623,-0.36931,-0.02266,-0.01871,0.02956,-0.5208,1.00543,-0.38537,-0.02301,-0.01858
427,0.01649,-0.5206,0.99155,-0.37154,-0.01267,-0.01055,0.01662,-0.51982,1.00273,-0.3835,-0.01299,-0.01039
428,0.00333,-0.52321,0.99615,-0.37346,-0.00249,-0.00223,0.00345,-0.51844,0.99916,-0.38125,-0.00279,-0.00205
429,-0.00974,-0.52543,0.99989,-0.37501,0.00763,0.00605,-0.00961,-0.51668,0.99481,-0.37867,0.00732,0.00622
430,-0.02241,-0.52721,1.00275,-0.37619,0.01744,0.01407,-0.02226,-0.51462,0.98982,-0.37584,0.01712,0.01423
431,-0.03437,-0.52858,1.00476,-0.37699,0.0267,0.02165,-0.03418,-0.51234,0.98439,-0.37285,0.02634,0.02177
432,-0.04529,-0.52957,1.006,-0.37746,0.03515,0.02857,-0.04505,-0.50998,0.97881,-0.36984,0.03475,0.02866
433,-0.05517,-0.54039,1.02831,-0.3892,0.04278,0.03484,-0.05465,-0.50853,0.97597,-0.36868,0.04217,0.03475
434,-0.06431,-0.56659,1.08359,-0.41855,0.04984,0.04065,-0.06303,-0.50863,0.97763,-0.37049,0.04866,0.04007
435,-0.07277,-0.60087,1.15639,-0.45735,0.05638,0.04603,-0.07028,-0.50989,0.98236,-0.3742,0.05427,0.04467
436,-0.08049,-0.63693,1.23337,-0.49856,0.06233,0.05095,-0.07643,-0.51184,0.98872,-0.37883,0.05903,0.04857
437,-0.0873,-0.66971,1.30382,-0.53651,0.06758,0.0553,-0.08153,-0.51399,0.99526,-0.38341,0.06297,0.05181
438,-0.09292,-0.69506,1.35886,-0.56644,0.07191,0.05889,-0.08559,-0.51579,1.00054,-0.38707,0.06612,0.05438
439,-0.097,-0.70922,1.3904,-0.58402,0.07505,0.06151,-0.08863,-0.51669,1.00318,-0.38894,0.06847,0.0563
440,-0.09932,-0.71051,1.39479,-0.58723,0.07682,0.06301,-0.09064,-0.51639,1.00244,-0.38859,0.07004,0.05757
441,-0.10048,-0.7097,1.39483,-0.58813,0.0777,0.06378,-0.09171,-0.51615,1.00171,-0.38814,0.07087,0.05824
442,-0.10063,-0.70889,1.39495,-0.58907,0.0778,0.06389,-0.09186,-0.51624,1.00166,-0.38801,0.07099,0.05832
443,-0.09977,-0.7081,1.39516,-0.59003,0.07711,0.06337,-0.09108,-0.51665,1.00229,-0.38819,0.07041,0.05782
444,-0.09789,-0.70735,1.39544,-0.59097,0.07564,0.06219,-0.08938,-0.51739,1.00359,-0.38868,0.06911,0.05672
445,-0.09497,-0.70665,1.39578,-0.59186,0.07337,0.06035,-0.08674,-0.51845,1.00555,-0.38947,0.06707,0.05503
446,-0.09097,-0.70597,1.39605,-0.59263,0.07027,0.05783,-0.08312,-0.51982,1.00813,-0.39053,0.06429,0.05271
447,-0.0854,-0.69662,1.37762,-0.58331,0.06595,0.0543,-0.07844,-0.52045,1.00852,-0.3901,0.06069,0.04972
448,-0.07816,-0.67468,1.33204,-0.55938,0.06034,0.04971,-0.07266,-0.51992,1.00553,-0.38743,0.05622,0.04603
449,-0.06958,-0.64388,1.26732,-0.52514,0.0537,0.04427,-0.06574,-0.51879,1.00056,-0.38336,0.05089,0.04163
450,-0.06085,-0.60812,1.19182,-0.48513,0.04694,0.03874,-0.05851,-0.51733,0.99448,-0.37852,0.04531,0.03702
451,-0.05146,-0.57201,1.1153,-0.44445,0.03967,0.03278,-0.0503,-0.5163,0.98911,-0.37395,0.03897,0.0318
452,-0.04144,-0.54122,1.04982,-0.40954,0.03192,0.02642,-0.04105,-0.51616,0.98588,-0.37065,0.03182,0.02592
453,-0.03083,-0.52267,1.01008,-0.38816,0.02372,0.01969,-0.03078,-0.51732,0.98618,-0.36962,0.02388,0.0194
454,-0.01954,-0.51984,1.00346,-0.38424,0.01499,0.01253,-0.01955,-0.51981,0.99042,-0.37122,0.01521,0.01228
455,-0.00747,-0.51869,1.00039,-0.38223,0.00566,0.00488,-0.0075,-0.52233,0.99482,-0.37302,0.00589,0.00464
456,0.00515,-0.51714,0.99643,-0.37983,-0.0041,-0.00313,0.00512,-0.52461,0.9987,-0.37461,-0.00387,-0.00336
457,0.01803,-0.51517,0.99162,-0.37705,-0.01407,-0.01129,0.01802,-0.52656,1.00188,-0.37592,-0.01385,-0.01154
458,0.03079,-0.51284,0.98605,-0.37396,-0.02393,-0.01938,0.03082,-0.52813,1.00427,-0.37689,-0.02375,-0.01965
459,0.04301,-0.51026,0.97995,-0.37068,-0.03339,-0.02713,0.04309,-0.52929,1.00583,-0.37751,-0.03324,-0.02744
460,0.05423,-0.5076,0.97374,-0.36739,-0.04207,-0.03425,0.05439,-0.5303,1.00711,-0.37806,-0.04198,-0.0346
461,0.06416,-0.50607,0.97095,-0.36641,-0.04974,-0.04055,0.06471,-0.54362,1.03476,-0.39269,-0.04996,-0.04115
462,0.07285,-0.50608,0.97251,-0.36827,-0.05645,-0.04607,0.07434,-0.57126,1.09315,-0.42377,-0.05741,-0.04726
463,0.08036,-0.5072,0.97701,-0.37192,-0.06226,-0.05085,0.08329,-0.60602,1.16703,-0.46323,-0.06434,-0.05294
464,0.08675,-0.50898,0.98298,-0.37638,-0.06719,-0.05492,0.09149,-0.64179,1.24346,-0.50424,-0.07068,-0.05814
465,0.09206,-0.5109,0.98898,-0.38069,-0.07128,-0.0583,0.09871,-0.67367,1.31204,-0.54128,-0.07628,-0.06272
466,0.09629,-0.51242,0.99359,-0.38398,-0.07455,-0.06101,0.10464,-0.69757,1.36405,-0.56969,-0.08087,-0.06649
467,0.09946,-0.51297,0.99539,-0.38537,-0.07699,-0.06304,0.10889,-0.70975,1.39145,-0.58513,-0.08417,-0.06917
468,0.10158,-0.51245,0.99413,-0.38474,-0.07861,-0.0644,0.1113,-0.70999,1.39362,-0.58719,-0.08605,-0.07069
469,0.10274,-0.51215,0.99327,-0.38424,-0.0795,-0.06515,0.11259,-0.70914,1.3936,-0.5881,-0.08706,-0.07149
470,0.10296,-0.5122,0.99315,-0.38409,-0.07966,-0.0653,0.11284,-0.70831,1.3937,-0.58905,-0.08728,-0.07163
471,0.10224,-0.5126,0.99379,-0.38428,-0.07909,-0.06486,0.11206,-0.70753,1.39394,-0.59002,-0.08669,-0.07111
472,0.09824,-0.51422,0.99699,-0.38566,-0.076,-0.06232,0.10767,-0.70691,1.39458,-0.59104,-0.08332,-0.06829
473,0.09562,-0.51532,0.99905,-0.3865,-0.07396,-0.06067,0.1048,-0.70626,1.395,-0.59197,-0.08112,-0.06644
474,0.0921,-0.51669,1.00162,-0.38754,-0.07123,-0.05844,0.10092,-0.70531,1.39469,-0.59241,-0.07814,-0.06394
475,0.08753,-0.51712,1.00147,-0.38675,-0.06769,-0.05554,0.09532,-0.69399,1.37203,-0.58079,-0.07383,-0.06036
476,0.08182,-0.51651,0.99821,-0.38387,-0.06326,-0.05192,0.08799,-0.67064,1.32343,-0.55521,-0.06818,-0.05568
477,0.07493,-0.5154,0.99324,-0.37974,-0.05793,-0.04756,0.0793,-0.63901,1.25689,-0.51995,-0.06147,-0.05014
478,0.06684,-0.51434,0.98794,-0.37522,-0.05167,-0.04243,0.06954,-0.60305,1.18091,-0.47957,-0.05393,-0.04393
479,0.0575,-0.51384,0.9837,-0.3712,-0.04444,-0.03652,0.05889,-0.56745,1.10547,-0.43939,-0.0457,-0.03716
480,0.04689,-0.51434,0.98191,-0.36863,-0.03622,-0.02979,0.04745,-0.53808,1.04299,-0.40599,-0.03686,-0.02991
481,0.03523,-0.51617,0.98381,-0.36846,-0.02719,-0.02241,0.03544,-0.52197,1.00842,-0.38728,-0.02756,-0.0223
482,0.02281,-0.51912,0.98907,-0.3706,-0.01757,-0.01455,0.02297,-0.52026,1.00418,-0.38457,-0.0179,-0.0144
483,0.00994,-0.52187,0.99397,-0.37265,-0.0076,-0.0064,0.01006,-0.5191,1.00108,-0.38253,-0.00791,-0.00623
484,-0.00308,-0.52427,0.99811,-0.37437,0.00247,0.00183,-0.00296,-0.51755,0.99716,-0.38013,0.00217,0.00201
485,-0.01591,-0.52627,1.0014,-0.37572,0.01241,0.00995,-0.01577,-0.51565,0.9925,-0.37743,0.01209,0.01012
486,-0.02823,-0.52785,1.00383,-0.37671,0.02194,0.01776,-0.02806,-0.51348,0.98728,-0.37451,0.0216,0.0179
487,-0.03973,-0.52903,1.00546,-0.37734,0.03085,0.02505,-0.03952,-0.51115,0.98175,-0.37149,0.03047,0.02516
488,-0.05014,-0.53074,1.00826,-0.37866,0.03889,0.03164,-0.04985,-0.50887,0.9764,-0.36866,0.03846,0.03171
489,-0.05964,-0.54667,1.04151,-0.39624,0.04624,0.03767,-0.05893,-0.5079,0.97499,-0.36846,0.04548,0.03747
490,-0.06845,-0.57586,1.10324,-0.42906,0.05305,0.04328,-0.06683,-0.50839,0.97771,-0.37093,0.0516,0.04248
491,-0.0766,-0.61121,1.17843,-0.46919,0.05934,0.04847,-0.07363,-0.50992,0.9831,-0.37503,0.05686,0.0468
492,-0.08399,-0.64679,1.25452,-0.50999,0.06503,0.05318,-0.07936,-0.512,0.9897,-0.37976,0.06129,0.05043
493,-0.09013,-0.67785,1.32142,-0.54609,0.06977,0.0571,-0.08381,-0.51421,0.99625,-0.38427,0.06474,0.05325
494,-0.09519,-0.70038,1.37055,-0.57293,0.07366,0.06035,-0.08742,-0.51586,1.00102,-0.38755,0.06754,0.05554
495,-0.09866,-0.71064,1.3939,-0.58618,0.07632,0.06257,-0.09005,-0.51643,1.00271,-0.38878,0.06958,0.05721
496,-0.10049,-0.71025,1.39474,-0.5875,0.07772,0.06376,-0.09171,-0.51604,1.00167,-0.38821,0.07086,0.05825
497,-0.1013,-0.70943,1.3948,-0.58841,0.07832,0.0643,-0.09245,-0.51592,1.00118,-0.38788,0.07145,0.05871
498,-0.1011,-0.70863,1.39495,-0.58936,0.07815,0.0642,-0.09228,-0.51612,1.00137,-0.38786,0.07133,0.05859
499,-0.09989,-0.70785,1.39519,-0.59031,0.0772,0.06345,-0.0912,-0.51664,1.00223,-0.38815,0.0705,0.05789
