YechanE/asmr2025-Humanoid-Lowlevel/joints_timeseries_fast1.csv
Frame_Index,leg_left_ankle_roll_joint,leg_left_ankle_pitch_joint,leg_left_knee_pitch_joint,leg_left_hip_pitch_joint,leg_left_hip_yaw_joint,leg_left_hip_roll_joint,leg_right_ankle_roll_joint,leg_right_ankle_pitch_joint,leg_right_knee_pitch_joint,leg_right_hip_pitch_joint,leg_right_hip_yaw_joint,leg_right_hip_roll_joint
0,-0.04242,-0.56152,1.0873,-0.42674,0.03282,0.02688,0.05604,-0.562,1.08841,-0.4277,-0.04336,-0.03553
1,-0.04297,-0.56155,1.08736,-0.42679,0.03324,0.02722,0.0555,-0.56199,1.08838,-0.42767,-0.04294,-0.03518
2,-0.04383,-0.56159,1.08745,-0.42686,0.03391,0.02777,0.05464,-0.56197,1.08833,-0.42762,-0.04228,-0.03463
3,-0.04499,-0.56164,1.08757,-0.42695,0.03481,0.0285,0.05348,-0.56194,1.08826,-0.42755,-0.04138,-0.0339
4,-0.04643,-0.5617,1.08771,-0.42706,0.03592,0.02942,0.05203,-0.5619,1.08817,-0.42745,-0.04026,-0.03298
5,-0.04815,-0.56177,1.08786,-0.42719,0.03725,0.03051,0.05031,-0.56184,1.08804,-0.42734,-0.03893,-0.03189
6,-0.05014,-0.56184,1.08802,-0.42733,0.03879,0.03177,0.04833,-0.56177,1.08788,-0.4272,-0.0374,-0.03063
7,-0.05239,-0.56191,1.08819,-0.42748,0.04053,0.0332,0.04608,-0.56169,1.08768,-0.42703,-0.03566,-0.0292
8,-0.05491,-0.56198,1.08835,-0.42763,0.04248,0.0348,0.04356,-0.56157,1.08743,-0.42684,-0.03371,-0.02761
9,-0.0577,-0.56204,1.08849,-0.4278,0.04464,0.03657,0.04076,-0.56144,1.08711,-0.42661,-0.03154,-0.02583
10,-0.06078,-0.56208,1.08861,-0.42796,0.04702,0.03853,0.03768,-0.56127,1.08673,-0.42633,-0.02916,-0.02388
11,-0.06434,-0.56211,1.0887,-0.42813,0.04977,0.04078,0.03412,-0.56104,1.08624,-0.426,-0.0264,-0.02162
12,-0.06805,-0.56212,1.08873,-0.42828,0.05264,0.04314,0.0304,-0.56079,1.08567,-0.42563,-0.02353,-0.01927
13,-0.07211,-0.56209,1.0887,-0.42841,0.05578,0.04572,0.02634,-0.56047,1.08498,-0.42519,-0.02039,-0.01669
14,-0.07653,-0.56202,1.08859,-0.42853,0.05919,0.04853,0.02191,-0.56009,1.08414,-0.42469,-0.01696,-0.01389
15,-0.08134,-0.5619,1.08837,-0.42862,0.06292,0.05159,0.01708,-0.55963,1.08314,-0.4241,-0.01322,-0.01083
16,-0.08659,-0.56172,1.08802,-0.42867,0.06697,0.05493,0.01182,-0.55908,1.08193,-0.4234,-0.00915,-0.00749
17,-0.09231,-0.56146,1.08751,-0.42867,0.07139,0.05857,0.00609,-0.55841,1.08047,-0.42259,-0.00472,-0.00386
18,-0.09853,-0.5611,1.08679,-0.4286,0.0762,0.06253,-0.00016,-0.5576,1.07873,-0.42164,0.00012,9e-05
19,-0.10528,-0.56062,1.08582,-0.42845,0.08141,0.06683,-0.00693,-0.55664,1.07664,-0.42054,0.00536,0.00438
20,-0.11235,-0.56001,1.08459,-0.4282,0.08686,0.07134,-0.01403,-0.55552,1.07424,-0.41928,0.01085,0.00888
21,-0.11898,-0.56478,1.09477,-0.434,0.09199,0.07558,-0.0204,-0.55487,1.07322,-0.41897,0.01578,0.01292
22,-0.12647,-0.60632,1.18321,-0.48136,0.09776,0.08036,-0.02539,-0.55758,1.08205,-0.42514,0.01964,0.01607
23,-0.13479,-0.67079,1.32071,-0.55491,0.10418,0.08569,-0.02907,-0.56314,1.09843,-0.43601,0.02249,0.01841
24,-0.14187,-0.72981,1.44695,-0.62261,0.10964,0.09022,-0.03107,-0.56913,1.11516,-0.44679,0.02404,0.01968
25,-0.14635,-0.77082,1.53492,-0.66989,0.11309,0.09309,-0.03156,-0.57382,1.12778,-0.45473,0.02442,0.01999
26,-0.14627,-0.78187,1.55861,-0.68253,0.11303,0.09304,-0.03049,-0.57535,1.13171,-0.4571,0.02359,0.01931
27,-0.14336,-0.78217,1.55913,-0.68254,0.11078,0.09117,-0.02788,-0.57586,1.13274,-0.45759,0.02157,0.01765
28,-0.13873,-0.7826,1.55991,-0.68257,0.10721,0.08821,-0.02373,-0.57662,1.13432,-0.45836,0.01836,0.01502
29,-0.13233,-0.78315,1.56089,-0.68258,0.10228,0.08411,-0.018,-0.57762,1.1364,-0.45938,0.01392,0.01139
30,-0.1241,-0.78376,1.56199,-0.68254,0.09593,0.07884,-0.01063,-0.5788,1.13886,-0.46061,0.00822,0.00673
31,-0.11307,-0.77376,1.54024,-0.67015,0.08742,0.0718,-0.00155,-0.57884,1.13822,-0.45991,0.0012,0.00098
32,-0.0982,-0.73357,1.45382,-0.62315,0.07594,0.06232,0.00929,-0.57551,1.12845,-0.45347,-0.00719,-0.00589
33,-0.08133,-0.67496,1.32835,-0.55553,0.06291,0.05158,0.02192,-0.57056,1.11386,-0.44394,-0.01697,-0.01389
34,-0.06371,-0.61314,1.19639,-0.48477,0.04928,0.04038,0.03642,-0.5658,1.09931,-0.43435,-0.02819,-0.02308
35,-0.04588,-0.56893,1.10211,-0.43422,0.0355,0.02907,0.05274,-0.56286,1.08978,-0.42812,-0.04081,-0.03343
36,-0.02817,-0.56115,1.08513,-0.4247,0.02179,0.01784,0.07028,-0.56263,1.08857,-0.42767,-0.05437,-0.04457
37,-0.01019,-0.55968,1.08128,-0.42214,0.00789,0.00646,0.08821,-0.56244,1.08765,-0.42764,-0.06823,-0.05597
38,0.00753,-0.55778,1.07606,-0.41882,-0.00583,-0.00477,0.10587,-0.5618,1.08534,-0.42681,-0.08187,-0.06721
39,0.02449,-0.55557,1.06969,-0.41479,-0.01895,-0.01551,0.12275,-0.56083,1.0818,-0.42519,-0.09489,-0.07799
40,0.04027,-0.55326,1.06252,-0.41018,-0.03116,-0.02552,0.13844,-0.55968,1.07728,-0.42284,-0.107,-0.08803
41,0.05459,-0.55103,1.0549,-0.40513,-0.04224,-0.0346,0.15266,-0.55853,1.07211,-0.41984,-0.11795,-0.09715
42,0.06726,-0.54908,1.04722,-0.39978,-0.05204,-0.04264,0.16522,-0.55755,1.06663,-0.41633,-0.12762,-0.10523
43,0.07818,-0.54755,1.03981,-0.39428,-0.06048,-0.04958,0.17604,-0.55688,1.06114,-0.41243,-0.13594,-0.1122
44,0.08734,-0.54657,1.03293,-0.38876,-0.06755,-0.0554,0.1851,-0.55665,1.05592,-0.40825,-0.14291,-0.11805
45,0.09481,-0.54621,1.02677,-0.38329,-0.07332,-0.06016,0.19249,-0.55691,1.05112,-0.40388,-0.14859,-0.12283
46,0.10072,-0.54649,1.0214,-0.37793,-0.07789,-0.06393,0.19833,-0.5577,1.04686,-0.3994,-0.15307,-0.12662
47,0.10528,-0.54736,1.01681,-0.3727,-0.08141,-0.06683,0.20283,-0.55899,1.04314,-0.39485,-0.15653,-0.12954
48,0.10892,-0.54945,1.01489,-0.36887,-0.08422,-0.06915,0.20713,-0.56811,1.0575,-0.40052,-0.15983,-0.13233
49,0.11176,-0.55544,1.02525,-0.3734,-0.08641,-0.07096,0.21463,-0.61316,1.16186,-0.46062,-0.16558,-0.13721
50,0.11373,-0.56412,1.04336,-0.38294,-0.08794,-0.07222,0.22414,-0.66953,1.30594,-0.54938,-0.17286,-0.14341
51,0.11469,-0.57341,1.06273,-0.39308,-0.08867,-0.07283,0.23321,-0.71265,1.43781,-0.63916,-0.17981,-0.14934
52,0.11447,-0.58095,1.077,-0.3998,-0.08851,-0.0727,0.23864,-0.72609,1.51985,-0.70841,-0.18396,-0.15289
53,0.11298,-0.58506,1.08192,-0.40052,-0.08736,-0.07175,0.23788,-0.70398,1.53233,-0.74291,-0.18338,-0.15239
54,0.11043,-0.58917,1.08594,-0.40029,-0.08539,-0.07012,0.23514,-0.67462,1.53267,-0.77229,-0.18129,-0.1506
55,0.10684,-0.59403,1.09056,-0.39986,-0.08261,-0.06782,0.23125,-0.64433,1.5316,-0.80105,-0.17831,-0.14806
56,0.10216,-0.5997,1.09552,-0.39891,-0.079,-0.06484,0.22617,-0.61476,1.52931,-0.82775,-0.17441,-0.14473
57,0.09636,-0.60607,1.10014,-0.39688,-0.07452,-0.06115,0.21963,-0.58665,1.52369,-0.84951,-0.16941,-0.14047
58,0.08924,-0.60933,1.09466,-0.38781,-0.06902,-0.05662,0.20776,-0.54064,1.4587,-0.82925,-0.16031,-0.13274
59,0.0808,-0.60996,1.07971,-0.37188,-0.0625,-0.05125,0.19188,-0.47891,1.33708,-0.76778,-0.14812,-0.12244
60,0.07108,-0.61079,1.06162,-0.35259,-0.05499,-0.04507,0.1751,-0.41491,1.19466,-0.68783,-0.13522,-0.11159
61,0.06008,-0.61465,1.04724,-0.334,-0.04648,-0.03808,0.15947,-0.36807,1.07894,-0.61766,-0.1232,-0.10153
62,0.04789,-0.62399,1.04343,-0.32053,-0.03706,-0.03035,0.14615,-0.36495,1.05033,-0.59116,-0.11294,-0.09297
63,0.03456,-0.63552,1.04323,-0.30853,-0.02675,-0.0219,0.13288,-0.38031,1.05842,-0.58297,-0.10271,-0.08447
64,0.02024,-0.64705,1.04174,-0.29532,-0.01567,-0.01282,0.1186,-0.39596,1.06561,-0.57362,-0.0917,-0.07534
65,0.00503,-0.65838,1.03868,-0.28083,-0.00389,-0.00318,0.10342,-0.41175,1.07163,-0.56302,-0.07998,-0.06565
66,-0.01072,-0.66919,1.03386,-0.26522,0.00829,0.00679,0.08769,-0.42731,1.07617,-0.55127,-0.06783,-0.05564
67,-0.02677,-0.6793,1.02715,-0.24855,0.02072,0.01696,0.07163,-0.44246,1.07909,-0.53841,-0.05542,-0.04542
68,-0.04288,-0.68854,1.01849,-0.23093,0.03317,0.02717,0.05551,-0.45702,1.0803,-0.52456,-0.04295,-0.03519
69,-0.05874,-0.69679,1.00794,-0.21252,0.04544,0.03723,0.03961,-0.47085,1.0798,-0.50986,-0.03065,-0.0251
70,-0.07407,-0.70399,0.99563,-0.19351,0.0573,0.04697,0.02422,-0.48384,1.07771,-0.49453,-0.01874,-0.01535
71,-0.08858,-0.71011,0.98179,-0.17412,0.06851,0.05619,0.00965,-0.49593,1.0742,-0.47881,-0.00747,-0.00612
72,-0.10195,-0.71521,0.96676,-0.15462,0.07883,0.0647,-0.0038,-0.50712,1.06956,-0.46297,0.00294,0.0024
73,-0.11389,-0.71939,0.95096,-0.13529,0.08805,0.07232,-0.01582,-0.51742,1.06416,-0.44732,0.01224,0.01002
74,-0.1252,-0.74294,0.98294,-0.14438,0.09678,0.07955,-0.02619,-0.52744,1.06252,-0.43577,0.02026,0.01658
75,-0.13769,-0.80554,1.11655,-0.2162,0.10641,0.08754,-0.03496,-0.53815,1.07071,-0.43338,0.02705,0.02214
76,-0.15048,-0.87097,1.28038,-0.31551,0.11627,0.09574,-0.04216,-0.54916,1.08438,-0.43618,0.03262,0.02671
77,-0.16189,-0.91155,1.42284,-0.41827,0.12505,0.10308,-0.04776,-0.55934,1.09858,-0.44033,0.03695,0.03026
78,-0.16938,-0.90756,1.50646,-0.5065,0.13082,0.1079,-0.05169,-0.56703,1.10797,-0.44211,0.03999,0.03275
79,-0.17215,-0.86266,1.53002,-0.57519,0.13295,0.10968,-0.05396,-0.57208,1.11142,-0.44057,0.04174,0.03419
80,-0.17302,-0.80949,1.54627,-0.64469,0.13362,0.11024,-0.0546,-0.57744,1.11596,-0.43977,0.04224,0.0346
81,-0.17238,-0.75155,1.55526,-0.71157,0.13313,0.10983,-0.05388,-0.58338,1.12128,-0.43913,0.04169,0.03414
82,-0.17012,-0.69222,1.55682,-0.77226,0.13139,0.10838,-0.05171,-0.59006,1.12693,-0.43805,0.04,0.03276
83,-0.1655,-0.63052,1.53961,-0.81636,0.12783,0.1054,-0.04804,-0.59677,1.13038,-0.4347,0.03717,0.03044
84,-0.15574,-0.54991,1.44964,-0.80622,0.12032,0.09912,-0.04281,-0.59995,1.122,-0.42303,0.03312,0.02712
85,-0.14301,-0.46329,1.31109,-0.75335,0.11051,0.09095,-0.03605,-0.60128,1.10534,-0.40489,0.02789,0.02283
86,-0.12955,-0.38673,1.164,-0.68193,0.10014,0.08233,-0.02775,-0.60357,1.08662,-0.38376,0.02147,0.01757
87,-0.11678,-0.3429,1.06283,-0.62381,0.09028,0.07416,-0.01789,-0.60963,1.07279,-0.36376,0.01384,0.01132
88,-0.10514,-0.3513,1.0548,-0.60674,0.0813,0.06674,-0.00661,-0.62103,1.06876,-0.34826,0.00511,0.00418
89,-0.09264,-0.36837,1.06177,-0.59603,0.07164,0.05877,0.0059,-0.6332,1.06539,-0.33272,-0.00457,-0.00375
90,-0.07915,-0.38538,1.06755,-0.58424,0.06122,0.05019,0.01939,-0.64507,1.06063,-0.31618,-0.01501,-0.01229
91,-0.06493,-0.40208,1.0719,-0.57138,0.05023,0.04116,0.03359,-0.65641,1.05429,-0.29868,-0.02599,-0.02129
92,-0.05026,-0.41829,1.07466,-0.55752,0.03888,0.03185,0.04823,-0.66702,1.04624,-0.2803,-0.03732,-0.03057
93,-0.03541,-0.43383,1.07576,-0.54276,0.0274,0.02243,0.06302,-0.67675,1.03641,-0.26115,-0.04876,-0.03996
94,-0.02,-0.44909,1.07512,-0.52665,0.01547,0.01267,0.07837,-0.68579,1.02439,-0.24062,-0.06063,-0.04971
95,-0.0054,-0.4631,1.07289,-0.51032,0.00418,0.00342,0.09289,-0.69353,1.01095,-0.22006,-0.07185,-0.05894
96,0.00856,-0.47617,1.06923,-0.4936,-0.00663,-0.00543,0.10677,-0.70018,0.99603,-0.19916,-0.08256,-0.06779
97,0.02162,-0.4883,1.06439,-0.47673,-0.01673,-0.0137,0.11973,-0.70579,0.97992,-0.17817,-0.09256,-0.07606
98,0.03349,-0.49951,1.0587,-0.46,-0.02592,-0.02122,0.1315,-0.71042,0.96298,-0.15733,-0.10164,-0.08358
99,0.04392,-0.50987,1.05261,-0.44373,-0.03398,-0.02783,0.14184,-0.71451,0.94634,-0.1373,-0.10962,-0.09021
100,0.05283,-0.52041,1.05365,-0.43445,-0.04087,-0.03348,0.15282,-0.75208,1.01217,-0.16637,-0.11808,-0.09725
101,0.0603,-0.53164,1.06371,-0.43348,-0.04665,-0.03822,0.16531,-0.81871,1.16024,-0.24878,-0.12769,-0.10529
102,0.0663,-0.54295,1.07802,-0.43667,-0.05129,-0.04203,0.17792,-0.87922,1.32162,-0.35073,-0.13739,-0.11342
103,0.07074,-0.55302,1.09148,-0.44021,-0.05472,-0.04485,0.18841,-0.90869,1.4502,-0.45079,-0.14546,-0.1202
104,0.07352,-0.56007,1.09856,-0.44033,-0.05687,-0.04662,0.19378,-0.88938,1.5102,-0.53062,-0.14958,-0.12367
105,0.07474,-0.56551,1.1023,-0.43869,-0.05782,-0.04739,0.19528,-0.84143,1.53,-0.59852,-0.15073,-0.12464
106,0.07455,-0.57142,1.10731,-0.43777,-0.05767,-0.04727,0.19523,-0.78692,1.54385,-0.66686,-0.15069,-0.12461
107,0.07295,-0.57799,1.11309,-0.43693,-0.05643,-0.04625,0.19362,-0.72861,1.55043,-0.73161,-0.14945,-0.12356
108,0.06988,-0.58532,1.11918,-0.43558,-0.05406,-0.04431,0.19037,-0.67002,1.54998,-0.78942,-0.14696,-0.12146
109,0.06538,-0.59166,1.12028,-0.43019,-0.05058,-0.04144,0.18377,-0.60396,1.51496,-0.81985,-0.14189,-0.11719
110,0.05932,-0.59447,1.10944,-0.41636,-0.0459,-0.0376,0.17194,-0.52051,1.40756,-0.79486,-0.13279,-0.10955
111,0.05176,-0.59624,1.09209,-0.39704,-0.04005,-0.0328,0.15779,-0.43535,1.26223,-0.73354,-0.12191,-0.10045
112,0.0427,-0.5998,1.07472,-0.37589,-0.03304,-0.02706,0.14357,-0.36572,1.12216,-0.66203,-0.11095,-0.09132
113,0.03217,-0.60797,1.06448,-0.35728,-0.02489,-0.02038,0.13067,-0.33719,1.04728,-0.6148,-0.10101,-0.08306
114,0.02032,-0.62064,1.06259,-0.34258,-0.01573,-0.01287,0.11878,-0.35327,1.05326,-0.60397,-0.09184,-0.07546
115,0.00733,-0.63335,1.05987,-0.32706,-0.00567,-0.00464,0.10581,-0.37092,1.06102,-0.59338,-0.08182,-0.06718
116,-0.00656,-0.64571,1.05574,-0.31056,0.00507,0.00415,0.09193,-0.38843,1.06754,-0.5817,-0.07111,-0.05833
117,-0.02108,-0.65749,1.04999,-0.29313,0.01631,0.01335,0.07741,-0.40559,1.07258,-0.56898,-0.05988,-0.04909
118,-0.03596,-0.6685,1.04251,-0.27485,0.02783,0.02278,0.06251,-0.4222,1.07598,-0.55526,-0.04836,-0.03963
119,-0.05093,-0.67858,1.03325,-0.25583,0.0394,0.03227,0.0475,-0.43808,1.07768,-0.54067,-0.03676,-0.03011
120,-0.0657,-0.68763,1.02226,-0.23621,0.05082,0.04165,0.03269,-0.45312,1.07771,-0.52537,-0.0253,-0.02072
121,-0.07998,-0.6956,1.00967,-0.21617,0.06187,0.05072,0.01834,-0.46724,1.07617,-0.50954,-0.01419,-0.01162
122,-0.09351,-0.70247,0.99572,-0.19592,0.07232,0.05933,0.00474,-0.48038,1.07326,-0.49341,-0.00367,-0.00301
123,-0.10734,-0.70882,0.97912,-0.17366,0.083,0.06814,-0.00918,-0.49368,1.06874,-0.4756,0.0071,0.00581
124,-0.11892,-0.7137,0.96286,-0.15316,0.09194,0.07554,-0.02085,-0.50507,1.06365,-0.4592,0.01613,0.0132
125,-0.12925,-0.72244,0.95742,-0.13961,0.0999,0.08213,-0.03101,-0.51569,1.05903,-0.4441,0.024,0.01964
126,-0.14062,-0.77254,1.05512,-0.18797,0.10867,0.08942,-0.03964,-0.52674,1.0636,-0.43776,0.03067,0.02511
127,-0.15293,-0.84052,1.21268,-0.27845,0.11816,0.09732,-0.04679,-0.53831,1.07569,-0.43844,0.0362,0.02964
128,-0.16475,-0.8943,1.36852,-0.38143,0.12726,0.10492,-0.05243,-0.54957,1.0905,-0.44213,0.04056,0.03322
129,-0.17379,-0.91135,1.48094,-0.47756,0.13421,0.11074,-0.05649,-0.55908,1.10285,-0.44508,0.0437,0.03579
130,-0.17759,-0.87898,1.52146,-0.55079,0.13713,0.11319,-0.05889,-0.56532,1.10799,-0.44405,0.04556,0.03732
131,-0.17875,-0.82881,1.53976,-0.61936,0.13803,0.11394,-0.05981,-0.5709,1.11214,-0.44264,0.04627,0.0379
132,-0.17835,-0.77272,1.55152,-0.68717,0.13771,0.11368,-0.0593,-0.57697,1.11733,-0.44175,0.04587,0.03758
133,-0.17636,-0.71376,1.55586,-0.7503,0.13619,0.1124,-0.05737,-0.58369,1.12307,-0.44071,0.04438,0.03635
134,-0.17275,-0.65549,1.553,-0.80539,0.13341,0.11007,-0.05401,-0.59115,1.12879,-0.43887,0.04178,0.03422
135,-0.16474,-0.58287,1.49473,-0.81907,0.12724,0.10491,-0.04914,-0.59622,1.12585,-0.43074,0.03802,0.03114
136,-0.15254,-0.49732,1.3725,-0.78144,0.11786,0.09707,-0.04277,-0.59832,1.11218,-0.41483,0.03309,0.02709
137,-0.13869,-0.4145,1.22351,-0.71427,0.10719,0.08818,-0.03478,-0.60012,1.09376,-0.39446,0.02691,0.02203
138,-0.12519,-0.35349,1.09485,-0.64574,0.09677,0.07954,-0.02537,-0.60449,1.07714,-0.37332,0.01963,0.01606
139,-0.11301,-0.34199,1.05033,-0.61201,0.08738,0.07176,-0.01449,-0.61413,1.06954,-0.35598,0.01121,0.00917
140,-0.10085,-0.35928,1.05803,-0.60178,0.07799,0.06401,-0.00232,-0.62659,1.06688,-0.34082,0.00179,0.00146
141,-0.08761,-0.37658,1.06463,-0.59046,0.06776,0.05557,0.01093,-0.63883,1.06294,-0.32466,-0.00846,-0.00693
142,-0.07353,-0.39366,1.06987,-0.57807,0.05688,0.04662,0.02499,-0.65063,1.05748,-0.30752,-0.01934,-0.01584
143,-0.05888,-0.4103,1.07356,-0.56463,0.04555,0.03732,0.03962,-0.66176,1.05033,-0.28947,-0.03066,-0.02511
144,-0.04394,-0.42633,1.07557,-0.55024,0.034,0.02784,0.05452,-0.67206,1.04141,-0.2706,-0.04219,-0.03456
145,-0.02898,-0.44159,1.07588,-0.53502,0.02242,0.01836,0.06943,-0.68138,1.03071,-0.25103,-0.05371,-0.04402
146,-0.01429,-0.45598,1.07456,-0.51916,0.01105,0.00905,0.08405,-0.68966,1.01832,-0.23092,-0.06502,-0.05332
147,-0.00015,-0.46942,1.07175,-0.50285,0.00011,9e-05,0.09811,-0.69684,1.00441,-0.21046,-0.07588,-0.06227
148,0.01316,-0.4819,1.06769,-0.48635,-0.01019,-0.00834,0.11133,-0.70296,0.98926,-0.18986,-0.08608,-0.0707
149,0.02537,-0.49344,1.06266,-0.46991,-0.01963,-0.01607,0.12344,-0.70807,0.97319,-0.16938,-0.09543,-0.07843
150,0.0362,-0.50407,1.05704,-0.45381,-0.02801,-0.02293,0.13418,-0.71231,0.95662,-0.14926,-0.10371,-0.0853
151,0.04546,-0.51426,1.05407,-0.44085,-0.03517,-0.0288,0.14416,-0.7297,0.97319,-0.14913,-0.1114,-0.09169
152,0.05321,-0.52513,1.06127,-0.43736,-0.04117,-0.03373,0.15572,-0.78847,1.096,-0.21402,-0.12031,-0.09911
153,0.05948,-0.53641,1.07481,-0.43979,-0.04602,-0.0377,0.16798,-0.85473,1.25844,-0.3112,-0.12974,-0.107
154,0.0642,-0.54707,1.08974,-0.44421,-0.04967,-0.0407,0.17912,-0.89943,1.40571,-0.41472,-0.13832,-0.11419
155,0.06726,-0.55549,1.10074,-0.44688,-0.05204,-0.04264,0.18648,-0.90211,1.49918,-0.50617,-0.14397,-0.11895
156,0.06864,-0.56091,1.10507,-0.44584,-0.0531,-0.04352,0.18847,-0.85986,1.52612,-0.57556,-0.1455,-0.12023
157,0.06852,-0.56639,1.11009,-0.44538,-0.05301,-0.04344,0.1885,-0.80707,1.54245,-0.64467,-0.14552,-0.12025
158,0.06694,-0.57241,1.1161,-0.44532,-0.05178,-0.04244,0.18691,-0.74909,1.55174,-0.7118,-0.1443,-0.11922
159,0.06388,-0.57912,1.12261,-0.44501,-0.04942,-0.04049,0.18367,-0.68915,1.55356,-0.77326,-0.14181,-0.11713
160,0.05931,-0.58618,1.12801,-0.44321,-0.04589,-0.0376,0.17835,-0.62853,1.54224,-0.82208,-0.13773,-0.11369
161,0.05315,-0.58991,1.12229,-0.4336,-0.04112,-0.03368,0.16775,-0.54974,1.46148,-0.8192,-0.12957,-0.10686
162,0.04539,-0.5914,1.10756,-0.41719,-0.03512,-0.02876,0.15369,-0.46277,1.327,-0.77057,-0.11874,-0.09781
163,0.03605,-0.59343,1.08998,-0.3974,-0.0279,-0.02284,0.13867,-0.38324,1.17769,-0.69971,-0.10717,-0.08817
164,0.02512,-0.59883,1.07643,-0.37828,-0.01944,-0.01591,0.12428,-0.33247,1.06566,-0.63751,-0.09608,-0.07897
165,0.01278,-0.60971,1.0729,-0.36375,-0.00989,-0.0081,0.11133,-0.33485,1.04799,-0.6167,-0.08608,-0.0707
166,-0.00069,-0.62199,1.07115,-0.34968,0.00053,0.00044,0.09787,-0.35155,1.05582,-0.60714,-0.07569,-0.06211
167,-0.01501,-0.63409,1.06789,-0.33438,0.01161,0.0095,0.08356,-0.36836,1.06248,-0.59635,-0.06464,-0.05301
168,-0.02985,-0.64581,1.06287,-0.3178,0.0231,0.01891,0.0687,-0.38513,1.06774,-0.58429,-0.05315,-0.04356
169,-0.04494,-0.65697,1.05592,-0.29997,0.03477,0.02848,0.05359,-0.40169,1.07145,-0.57099,-0.04146,-0.03397
170,-0.05999,-0.66742,1.04698,-0.28097,0.04641,0.03802,0.0385,-0.41788,1.07352,-0.55652,-0.02979,-0.0244
171,-0.07472,-0.67703,1.03607,-0.26093,0.0578,0.04738,0.0237,-0.43357,1.07395,-0.54104,-0.01834,-0.01502
172,-0.08889,-0.68572,1.02331,-0.24005,0.06875,0.05639,0.00946,-0.44863,1.07282,-0.52474,-0.00732,-0.006
173,-0.10225,-0.69344,1.00892,-0.21858,0.07907,0.0649,-0.004,-0.46296,1.07029,-0.50785,0.00309,0.00252
174,-0.11459,-0.70017,0.99321,-0.1968,0.0886,0.07277,-0.01643,-0.47649,1.06658,-0.49067,0.01271,0.0104
175,-0.12571,-0.70594,0.97656,-0.17503,0.09717,0.07987,-0.02764,-0.48918,1.06197,-0.47351,0.02138,0.0175
176,-0.13541,-0.71084,0.95943,-0.15363,0.10465,0.08608,-0.03743,-0.50098,1.05681,-0.45669,0.02896,0.02371
177,-0.14524,-0.74153,1.00652,-0.17071,0.11223,0.09238,-0.04574,-0.51261,1.05705,-0.44547,0.03539,0.02898
178,-0.15667,-0.80618,1.14624,-0.24663,0.12104,0.09972,-0.05268,-0.52484,1.06681,-0.44317,0.04076,0.03338
179,-0.16844,-0.86895,1.30764,-0.34621,0.13009,0.10729,-0.05822,-0.53713,1.08139,-0.44561,0.04504,0.03689
180,-0.1785,-0.90381,1.44212,-0.4467,0.13783,0.11378,-0.06227,-0.54829,1.09576,-0.44894,0.04817,0.03947
181,-0.18406,-0.89208,1.51289,-0.5297,0.1421,0.11737,-0.06475,-0.5566,1.10444,-0.44939,0.05009,0.04104
182,-0.18526,-0.84533,1.53271,-0.59638,0.14303,0.11815,-0.06571,-0.56263,1.10827,-0.44722,0.05083,0.04165
183,-0.18496,-0.79162,1.54678,-0.66414,0.14279,0.11795,-0.06529,-0.56899,1.1133,-0.44588,0.0505,0.04138
184,-0.18314,-0.73366,1.55376,-0.7289,0.1414,0.11677,-0.0635,-0.57589,1.1191,-0.44472,0.04912,0.04025
185,-0.17978,-0.67494,1.55364,-0.7872,0.13882,0.11461,-0.06035,-0.58346,1.12514,-0.4431,0.04669,0.03825
186,-0.1737,-0.61165,1.52779,-0.8241,0.13414,0.11068,-0.05577,-0.59054,1.12771,-0.43845,0.04315,0.03534
187,-0.16245,-0.52998,1.42842,-0.80547,0.12549,0.10344,-0.04971,-0.59396,1.11817,-0.42533,0.03846,0.03149
188,-0.14865,-0.44447,1.28588,-0.74738,0.11486,0.09457,-0.04218,-0.59588,1.1012,-0.40627,0.03263,0.02672
189,-0.13451,-0.37159,1.14163,-0.67502,0.10396,0.08551,-0.03318,-0.59913,1.08316,-0.38482,0.02567,0.02101
190,-0.1214,-0.33543,1.05287,-0.62159,0.09385,0.07712,-0.02271,-0.60651,1.07111,-0.36524,0.01757,0.01438
191,-0.10941,-0.34865,1.05328,-0.6081,0.0846,0.06947,-0.01089,-0.61884,1.06831,-0.35002,0.00843,0.00689
192,-0.09709,-0.36541,1.06043,-0.59786,0.07508,0.06161,0.00145,-0.63088,1.06541,-0.33505,-0.00112,-0.00092
193,-0.0839,-0.38207,1.06644,-0.58662,0.06489,0.05321,0.01463,-0.6426,1.06121,-0.31919,-0.01133,-0.00928
194,-0.06996,-0.39854,1.07112,-0.5743,0.05412,0.04435,0.02856,-0.65389,1.05549,-0.30233,-0.02211,-0.0181
195,-0.05562,-0.4145,1.07428,-0.56106,0.04303,0.03525,0.04288,-0.66447,1.04816,-0.28467,-0.03318,-0.02717
196,-0.04106,-0.42985,1.07585,-0.54694,0.03177,0.02601,0.05739,-0.67424,1.03915,-0.26624,-0.04441,-0.03638
197,-0.02653,-0.44449,1.07584,-0.53205,0.02052,0.0168,0.07187,-0.68309,1.02845,-0.24715,-0.0556,-0.04558
198,-0.01226,-0.45832,1.07429,-0.51654,0.00949,0.00776,0.08607,-0.69095,1.01615,-0.22754,-0.06657,-0.0546
199,0.00149,-0.47128,1.07135,-0.50059,-0.00116,-0.00095,0.09974,-0.69779,1.00241,-0.20757,-0.07713,-0.06331
200,0.01448,-0.48336,1.06721,-0.48443,-0.01121,-0.00917,0.11264,-0.70364,0.98744,-0.18744,-0.08709,-0.07153
201,0.02646,-0.49455,1.06215,-0.4683,-0.02048,-0.01677,0.12453,-0.70855,0.97157,-0.16736,-0.09627,-0.07913
202,0.0372,-0.50492,1.05649,-0.45243,-0.02879,-0.02357,0.13517,-0.71262,0.95517,-0.14756,-0.10448,-0.08594
203,0.04652,-0.51488,1.05343,-0.43961,-0.03599,-0.02948,0.14521,-0.72989,0.97185,-0.14766,-0.11222,-0.09237
204,0.05448,-0.52546,1.05968,-0.43547,-0.04216,-0.03453,0.15677,-0.7856,1.08683,-0.20781,-0.12112,-0.09979
205,0.06111,-0.53644,1.07184,-0.43685,-0.04728,-0.03874,0.16909,-0.84965,1.24066,-0.29858,-0.1306,-0.10772
206,0.06636,-0.54696,1.08568,-0.44033,-0.05134,-0.04207,0.18064,-0.89633,1.38457,-0.39681,-0.13949,-0.11517
207,0.07014,-0.55568,1.09665,-0.44269,-0.05426,-0.04447,0.18918,-0.90727,1.48436,-0.48645,-0.14605,-0.12069
208,0.07239,-0.56143,1.10095,-0.44134,-0.056,-0.0459,0.19258,-0.87363,1.51846,-0.55451,-0.14866,-0.12289
209,0.0731,-0.56678,1.10497,-0.44002,-0.05655,-0.04635,0.19351,-0.82575,1.53565,-0.61967,-0.14937,-0.12349
210,0.07268,-0.5726,1.10989,-0.43912,-0.05622,-0.04608,0.1932,-0.77255,1.54688,-0.68407,-0.14913,-0.12329
211,0.07097,-0.57903,1.11541,-0.43814,-0.05491,-0.045,0.19146,-0.71662,1.55147,-0.74442,-0.1478,-0.12217
212,0.06798,-0.58617,1.12108,-0.43657,-0.05259,-0.0431,0.18828,-0.66115,1.54985,-0.79797,-0.14535,-0.12011
213,0.06361,-0.5918,1.12065,-0.43036,-0.04921,-0.04032,0.18144,-0.59581,1.50768,-0.82051,-0.1401,-0.11569
214,0.05783,-0.59434,1.10959,-0.4166,-0.04474,-0.03665,0.17005,-0.51574,1.40142,-0.79333,-0.13134,-0.10834
215,0.05067,-0.59603,1.0929,-0.39802,-0.03921,-0.03211,0.15667,-0.43477,1.26238,-0.73417,-0.12104,-0.09973
216,0.04215,-0.59936,1.07618,-0.37778,-0.03261,-0.02671,0.1432,-0.36782,1.128,-0.66574,-0.11067,-0.09108
217,0.03227,-0.60675,1.06562,-0.35965,-0.02497,-0.02045,0.13086,-0.33678,1.04972,-0.61767,-0.10116,-0.08318
218,0.02118,-0.61864,1.0635,-0.3455,-0.01639,-0.01342,0.11965,-0.35029,1.0521,-0.60585,-0.0925,-0.07601
219,0.00902,-0.63078,1.06105,-0.33081,-0.00698,-0.00571,0.10751,-0.36712,1.05965,-0.59589,-0.08313,-0.06826
220,-0.004,-0.64265,1.05736,-0.31525,0.00309,0.00253,0.0945,-0.38386,1.06611,-0.58496,-0.07308,-0.05997
221,-0.01766,-0.65403,1.05225,-0.29883,0.01366,0.01118,0.08084,-0.40033,1.07127,-0.57306,-0.06253,-0.05128
222,-0.03171,-0.66476,1.0456,-0.28161,0.02453,0.02009,0.06677,-0.41634,1.07498,-0.56025,-0.05166,-0.04234
223,-0.04592,-0.67469,1.03733,-0.26368,0.03553,0.0291,0.05253,-0.43175,1.07716,-0.54661,-0.04065,-0.0333
224,-0.06056,-0.68404,1.02708,-0.24447,0.04685,0.03839,0.03784,-0.44696,1.0778,-0.53172,-0.02929,-0.02398
225,-0.07459,-0.69217,1.01549,-0.22521,0.0577,0.04729,0.02376,-0.46098,1.0769,-0.51657,-0.01839,-0.01506
226,-0.08809,-0.6993,1.00248,-0.20561,0.06813,0.05588,0.0102,-0.47414,1.07461,-0.50101,-0.00789,-0.00646
227,-0.10082,-0.70543,0.98827,-0.18585,0.07796,0.06398,-0.00261,-0.48642,1.07113,-0.48523,0.00202,0.00165
228,-0.11254,-0.71063,0.97314,-0.16615,0.08702,0.07146,-0.01442,-0.49781,1.0667,-0.46946,0.01116,0.00913
229,-0.12303,-0.71498,0.95745,-0.14672,0.09511,0.07816,-0.025,-0.50836,1.06164,-0.45395,0.01934,0.01583
230,-0.13286,-0.73249,0.97472,-0.1471,0.10269,0.08445,-0.03415,-0.5185,1.05912,-0.44143,0.02642,0.02163
231,-0.14399,-0.78834,1.09001,-0.2073,0.11127,0.09158,-0.04195,-0.52921,1.0658,-0.43755,0.03246,0.02657
232,-0.15573,-0.85249,1.24401,-0.29801,0.12032,0.09912,-0.04841,-0.54028,1.07831,-0.43912,0.03745,0.03067
233,-0.1667,-0.89926,1.38809,-0.39621,0.12876,0.10617,-0.0535,-0.55086,1.09241,-0.44277,0.04139,0.0339
234,-0.1748,-0.91025,1.4881,-0.48591,0.13499,0.11139,-0.05714,-0.55963,1.10358,-0.44527,0.0442,0.03621
235,-0.17803,-0.8766,1.52244,-0.55418,0.13747,0.11348,-0.05929,-0.56539,1.10806,-0.44404,0.04586,0.03757
236,-0.17907,-0.82865,1.53973,-0.61952,0.13827,0.11415,-0.06009,-0.57074,1.11205,-0.44272,0.04649,0.03808
237,-0.17869,-0.77534,1.55109,-0.68415,0.13798,0.1139,-0.05961,-0.57652,1.11699,-0.44186,0.04611,0.03777
238,-0.17687,-0.71926,1.55571,-0.7447,0.13658,0.11273,-0.05784,-0.58289,1.12245,-0.4409,0.04474,0.03665
239,-0.17311,-0.66359,1.55419,-0.79852,0.13369,0.11031,-0.05433,-0.58999,1.12824,-0.4395,0.04203,0.03443
240,-0.16635,-0.59807,1.51193,-0.8212,0.12848,0.10594,-0.04989,-0.59551,1.12763,-0.43325,0.03859,0.03161
241,-0.15531,-0.51786,1.40557,-0.79418,0.11999,0.09885,-0.04409,-0.5979,1.11634,-0.41943,0.03411,0.02793
242,-0.14239,-0.4368,1.26642,-0.73514,0.11004,0.09055,-0.03693,-0.59943,1.09934,-0.40076,0.02858,0.02339
243,-0.12932,-0.36976,1.13187,-0.66675,0.09996,0.08218,-0.02841,-0.60255,1.08222,-0.38039,0.02198,0.01799
244,-0.11717,-0.33854,1.05319,-0.61855,0.09058,0.07441,-0.01851,-0.60967,1.07112,-0.36206,0.01432,0.01172
245,-0.10591,-0.35175,1.05488,-0.60641,0.0819,0.06723,-0.00738,-0.62124,1.06835,-0.34764,0.00571,0.00467
246,-0.09372,-0.36825,1.06167,-0.5961,0.07248,0.05947,0.00481,-0.63302,1.06517,-0.33268,-0.00373,-0.00306
247,-0.08067,-0.38464,1.06732,-0.5848,0.0624,0.05116,0.01787,-0.64449,1.06071,-0.31682,-0.01383,-0.01132
248,-0.06697,-0.40074,1.07165,-0.57253,0.05181,0.04246,0.03155,-0.65546,1.05478,-0.30009,-0.02441,-0.01999
249,-0.05287,-0.41637,1.0745,-0.55934,0.04091,0.03351,0.04562,-0.66575,1.04728,-0.28256,-0.0353,-0.02891
250,-0.03861,-0.43139,1.07583,-0.54533,0.02987,0.02446,0.05984,-0.67523,1.03816,-0.26432,-0.0463,-0.03794
251,-0.02441,-0.44567,1.07562,-0.53062,0.01889,0.01546,0.07398,-0.68381,1.02744,-0.24549,-0.05723,-0.04691
252,-0.01054,-0.45914,1.07396,-0.51537,0.00816,0.00668,0.08778,-0.69141,1.01522,-0.22622,-0.06789,-0.05569
253,0.00276,-0.47176,1.071,-0.49977,-0.00214,-0.00175,0.101,-0.69803,1.00168,-0.20668,-0.07811,-0.06411
254,0.01652,-0.48449,1.06647,-0.48257,-0.01279,-0.01047,0.11467,-0.70414,0.98565,-0.18526,-0.08866,-0.07283
255,0.02833,-0.49553,1.06132,-0.46651,-0.02192,-0.01795,0.12638,-0.70891,0.96974,-0.16528,-0.0977,-0.08031
256,0.0389,-0.50574,1.0556,-0.45075,-0.0301,-0.02465,0.13686,-0.71286,0.95334,-0.14561,-0.10578,-0.08701
257,0.04806,-0.51558,1.05251,-0.43802,-0.03719,-0.03046,0.14676,-0.73007,0.9701,-0.14585,-0.1134,-0.09336
258,0.0559,-0.52606,1.05876,-0.43399,-0.04325,-0.03543,0.15821,-0.78583,1.08533,-0.20619,-0.12223,-0.10072
259,0.06241,-0.53695,1.07095,-0.43548,-0.04828,-0.03956,0.17044,-0.84996,1.23941,-0.29713,-0.13164,-0.10859
260,0.06755,-0.54741,1.08482,-0.43906,-0.05226,-0.04282,0.18193,-0.89672,1.38354,-0.39551,-0.14047,-0.116
261,0.07123,-0.55608,1.09583,-0.44152,-0.0551,-0.04516,0.19038,-0.90771,1.48351,-0.48527,-0.14697,-0.12147
262,0.07338,-0.56178,1.10019,-0.44026,-0.05677,-0.04653,0.19368,-0.8741,1.51777,-0.55345,-0.1495,-0.1236
263,0.07419,-0.56708,1.10413,-0.43892,-0.05739,-0.04705,0.19472,-0.82625,1.53502,-0.61865,-0.1503,-0.12428
264,0.07372,-0.57287,1.1091,-0.43809,-0.05703,-0.04674,0.19435,-0.77308,1.54639,-0.68316,-0.15002,-0.12404
265,0.07196,-0.57927,1.11466,-0.43718,-0.05567,-0.04563,0.19255,-0.71716,1.55109,-0.7436,-0.14864,-0.12287
266,0.06891,-0.5864,1.12038,-0.43567,-0.05331,-0.04369,0.18931,-0.6617,1.54957,-0.79725,-0.14615,-0.12078
267,0.0645,-0.59201,1.11999,-0.42953,-0.0499,-0.04089,0.18242,-0.59634,1.50748,-0.81987,-0.14085,-0.11632
268,0.05868,-0.59453,1.10897,-0.41581,-0.0454,-0.0372,0.17096,-0.51623,1.40129,-0.79279,-0.13204,-0.10893
269,0.05069,-0.59635,1.09276,-0.39756,-0.03922,-0.03213,0.15669,-0.43525,1.26253,-0.73385,-0.12105,-0.09974
270,0.04214,-0.59965,1.07605,-0.37737,-0.03261,-0.0267,0.1432,-0.36826,1.12817,-0.66548,-0.11066,-0.09108
271,0.03227,-0.60701,1.06549,-0.35926,-0.02497,-0.02044,0.13086,-0.33717,1.04988,-0.61744,-0.10115,-0.08318
272,0.0212,-0.61887,1.06336,-0.34512,-0.01641,-0.01343,0.11967,-0.35065,1.05223,-0.60562,-0.09252,-0.07602
273,0.00908,-0.63098,1.06089,-0.33046,-0.00703,-0.00575,0.10757,-0.36744,1.05975,-0.59567,-0.08318,-0.0683
274,-0.0039,-0.64282,1.0572,-0.31491,0.00301,0.00247,0.0946,-0.38416,1.06619,-0.58475,-0.07316,-0.06003
275,-0.01751,-0.65418,1.05208,-0.2985,0.01355,0.01109,0.08099,-0.4006,1.07133,-0.57286,-0.06265,-0.05137
276,-0.03152,-0.66489,1.04543,-0.2813,0.02439,0.01997,0.06696,-0.41659,1.07504,-0.56007,-0.0518,-0.04245
277,-0.04571,-0.67481,1.03717,-0.2634,0.03536,0.02896,0.05275,-0.43198,1.07722,-0.54644,-0.04081,-0.03343
278,-0.05981,-0.68383,1.02733,-0.2449,0.04627,0.03791,0.03859,-0.44664,1.07787,-0.53211,-0.02987,-0.02446
279,-0.0736,-0.69189,1.01599,-0.22596,0.05694,0.04667,0.02475,-0.4605,1.07706,-0.51723,-0.01915,-0.01568
280,-0.08683,-0.69895,1.0033,-0.20673,0.06716,0.05508,0.01145,-0.47349,1.07491,-0.50198,-0.00887,-0.00726
281,-0.09926,-0.70505,0.9895,-0.1874,0.07676,0.06299,-0.00105,-0.48558,1.07162,-0.48656,0.00081,0.00066
282,-0.11066,-0.71022,0.97488,-0.16819,0.08556,0.07026,-0.01252,-0.49681,1.06746,-0.47121,0.00969,0.00793
283,-0.12079,-0.71458,0.95978,-0.14931,0.09338,0.07673,-0.02273,-0.5072,1.06272,-0.45617,0.01759,0.01439
284,-0.13022,-0.73207,0.97763,-0.15025,0.10066,0.08276,-0.03151,-0.51717,1.06057,-0.44416,0.02438,0.01995
285,-0.14087,-0.78768,1.09321,-0.21093,0.10886,0.08958,-0.03889,-0.52772,1.06765,-0.44081,0.03009,0.02463
286,-0.15206,-0.85144,1.24734,-0.30213,0.11748,0.09676,-0.04491,-0.53863,1.08057,-0.44296,0.03474,0.02845
287,-0.16241,-0.89769,1.39151,-0.40085,0.12545,0.10341,-0.04952,-0.54904,1.09511,-0.4472,0.03831,0.03138
288,-0.16986,-0.90807,1.49154,-0.49111,0.13119,0.10821,-0.05267,-0.55762,1.10674,-0.45032,0.04075,0.03337
289,-0.1725,-0.87378,1.52583,-0.55991,0.13322,0.10991,-0.05429,-0.56319,1.11169,-0.44975,0.042,0.0344
290,-0.17292,-0.82511,1.54292,-0.62571,0.13355,0.11018,-0.05454,-0.56832,1.11617,-0.44911,0.04219,0.03456
291,-0.17187,-0.77096,1.55393,-0.69077,0.13273,0.1095,-0.05345,-0.57385,1.1216,-0.44896,0.04135,0.03387
292,-0.16933,-0.71396,1.55805,-0.75169,0.13078,0.10786,-0.05103,-0.57993,1.12754,-0.44876,0.03947,0.03233
293,-0.16527,-0.65731,1.55576,-0.80571,0.12765,0.10525,-0.04725,-0.58666,1.13356,-0.44797,0.03656,0.02993
294,-0.15776,-0.59087,1.51279,-0.82857,0.12188,0.10042,-0.04207,-0.59181,1.13343,-0.44257,0.03255,0.02665
295,-0.14608,-0.50993,1.40568,-0.80153,0.11288,0.09292,-0.03545,-0.59383,1.12265,-0.42965,0.02743,0.02245
296,-0.13252,-0.42818,1.26576,-0.74243,0.10243,0.08423,-0.02742,-0.59495,1.1062,-0.41195,0.02121,0.01736
297,-0.11874,-0.36035,1.13041,-0.67405,0.0918,0.07542,-0.01793,-0.59762,1.08967,-0.39264,0.01387,0.01135
298,-0.10573,-0.32821,1.05105,-0.62611,0.08175,0.06711,-0.00701,-0.60424,1.07916,-0.37545,0.00542,0.00443
299,-0.09348,-0.34045,1.05234,-0.61456,0.07229,0.05931,0.00513,-0.61528,1.07689,-0.36213,-0.00397,-0.00326
300,-0.08038,-0.35606,1.05871,-0.60476,0.06218,0.05098,0.01822,-0.62657,1.07407,-0.3481,-0.0141,-0.01155
301,-0.06659,-0.37173,1.06394,-0.59383,0.05152,0.04222,0.032,-0.63763,1.06979,-0.33293,-0.02476,-0.02028
302,-0.05236,-0.38731,1.06785,-0.58174,0.04051,0.03318,0.0462,-0.64829,1.06384,-0.3166,-0.03575,-0.02928
303,-0.03794,-0.40267,1.07032,-0.56853,0.02936,0.02404,0.06058,-0.65841,1.05612,-0.29913,-0.04687,-0.0384
304,-0.02357,-0.41768,1.07131,-0.55429,0.01824,0.01493,0.07489,-0.66786,1.04658,-0.28062,-0.05793,-0.04749
305,-0.0095,-0.43223,1.07083,-0.53915,0.00735,0.00601,0.08889,-0.67655,1.03527,-0.26118,-0.06875,-0.0564
306,0.00408,-0.44621,1.06896,-0.52328,-0.00316,-0.00258,0.10238,-0.6844,1.0223,-0.241,-0.07917,-0.06499
307,0.01693,-0.45954,1.06585,-0.5069,-0.0131,-0.01073,0.11514,-0.69138,1.00788,-0.22028,-0.08902,-0.07313
308,0.02888,-0.47218,1.0617,-0.49025,-0.02235,-0.0183,0.12699,-0.69748,0.99226,-0.19926,-0.09817,-0.0807
309,0.03974,-0.48406,1.05676,-0.47361,-0.03075,-0.02518,0.13775,-0.70274,0.97578,-0.17823,-0.10646,-0.08758
310,0.04934,-0.49518,1.05132,-0.45726,-0.03818,-0.03127,0.14726,-0.70721,0.95885,-0.1575,-0.11379,-0.09368
311,0.05761,-0.5059,1.04856,-0.444,-0.04457,-0.03651,0.1563,-0.72477,0.97496,-0.15673,-0.12076,-0.09949
312,0.06464,-0.51719,1.05515,-0.43951,-0.05001,-0.04098,0.16714,-0.78041,1.08911,-0.21611,-0.1291,-0.10646
313,0.07043,-0.52884,1.06768,-0.44059,-0.05449,-0.04466,0.17889,-0.84428,1.24213,-0.30627,-0.13814,-0.11404
314,0.07488,-0.53999,1.08192,-0.44383,-0.05792,-0.04748,0.18988,-0.89078,1.38536,-0.40401,-0.14658,-0.12114
315,0.07794,-0.54929,1.09324,-0.44596,-0.06029,-0.04943,0.19782,-0.90164,1.48452,-0.49307,-0.15268,-0.12629
316,0.07954,-0.55557,1.09786,-0.44437,-0.06152,-0.05044,0.20053,-0.86811,1.51801,-0.56036,-0.15476,-0.12804
317,0.07985,-0.56141,1.10205,-0.44273,-0.06176,-0.05064,0.20101,-0.8204,1.53458,-0.62468,-0.15513,-0.12836
318,0.07892,-0.56767,1.10725,-0.44163,-0.06105,-0.05005,0.20014,-0.76741,1.54537,-0.68838,-0.15446,-0.12779
319,0.07676,-0.57452,1.11305,-0.4405,-0.05938,-0.04868,0.1979,-0.7117,1.54961,-0.7481,-0.15274,-0.12634
320,0.07335,-0.58204,1.119,-0.4388,-0.05674,-0.04651,0.19426,-0.65648,1.54776,-0.80112,-0.14995,-0.12398
321,0.06862,-0.58802,1.11882,-0.43248,-0.05308,-0.0435,0.18696,-0.59145,1.50543,-0.82314,-0.14434,-0.11926
322,0.06251,-0.59087,1.10802,-0.41863,-0.04836,-0.03962,0.17507,-0.51172,1.3991,-0.79546,-0.1352,-0.11157
323,0.05506,-0.59287,1.09158,-0.39998,-0.0426,-0.0349,0.16123,-0.43107,1.26003,-0.73588,-0.12455,-0.10266
324,0.04629,-0.59648,1.07514,-0.3797,-0.03582,-0.02933,0.14739,-0.36439,1.12569,-0.66717,-0.1139,-0.09377
325,0.03621,-0.60414,1.06487,-0.36158,-0.02802,-0.02294,0.13479,-0.33359,1.0476,-0.619,-0.10418,-0.08569
326,0.02494,-0.61629,1.06307,-0.34745,-0.0193,-0.0158,0.12339,-0.34737,1.05037,-0.60726,-0.09539,-0.0784
327,0.01261,-0.62868,1.06093,-0.33281,-0.00976,-0.00799,0.11109,-0.36445,1.05829,-0.59739,-0.0859,-0.07054
328,-0.00057,-0.64079,1.05754,-0.31727,0.00044,0.00036,0.09792,-0.38144,1.0651,-0.58654,-0.07573,-0.06215
329,-0.0145,-0.65249,1.05267,-0.30075,0.01122,0.00918,0.084,-0.39827,1.07063,-0.57462,-0.06497,-0.05328
330,-0.02881,-0.66351,1.04621,-0.28343,0.02229,0.01825,0.06967,-0.4146,1.07466,-0.56177,-0.0539,-0.04418
331,-0.04333,-0.67373,1.03809,-0.26535,0.03352,0.02745,0.05513,-0.43034,1.07712,-0.54804,-0.04265,-0.03494
332,-0.05782,-0.68303,1.02829,-0.2466,0.04473,0.03664,0.0406,-0.44537,1.07797,-0.53353,-0.03142,-0.02573
333,-0.07203,-0.69136,1.01687,-0.22731,0.05572,0.04567,0.02633,-0.45958,1.07728,-0.51839,-0.02038,-0.01669
334,-0.08572,-0.69866,1.004,-0.20766,0.0663,0.05437,0.01257,-0.47293,1.07517,-0.5028,-0.00973,-0.00797
335,-0.09864,-0.70496,0.98988,-0.18783,0.07628,0.0626,-0.00042,-0.48538,1.07183,-0.48696,0.00032,0.00026
336,-0.11055,-0.71029,0.9748,-0.16804,0.08548,0.07019,-0.01242,-0.49694,1.0675,-0.47112,0.00961,0.00786
337,-0.12122,-0.71476,0.95913,-0.14851,0.09371,0.077,-0.02317,-0.50763,1.06251,-0.45553,0.01792,0.01467
338,-0.1312,-0.73233,0.97634,-0.14876,0.10141,0.08339,-0.03249,-0.51788,1.06002,-0.44292,0.02513,0.02057
339,-0.14244,-0.78814,1.0914,-0.20879,0.11007,0.09058,-0.04043,-0.52869,1.06671,-0.43894,0.03128,0.02561
340,-0.15427,-0.85222,1.24517,-0.29934,0.11919,0.09818,-0.04702,-0.53984,1.07919,-0.44042,0.03637,0.02979
341,-0.16532,-0.89892,1.38906,-0.3974,0.1277,0.10528,-0.05222,-0.55048,1.09326,-0.44397,0.0404,0.03309
342,-0.1735,-0.90986,1.4889,-0.48699,0.13399,0.11056,-0.05597,-0.5593,1.10439,-0.44638,0.0433,0.03546
343,-0.17685,-0.87619,1.5231,-0.55515,0.13656,0.11271,-0.05821,-0.56511,1.10882,-0.44507,0.04503,0.03689
344,-0.17778,-0.8282,1.54034,-0.62046,0.13728,0.11331,-0.05892,-0.57049,1.11288,-0.44376,0.04558,0.03734
345,-0.17746,-0.77487,1.55157,-0.685,0.13703,0.11311,-0.0585,-0.5763,1.11778,-0.44284,0.04526,0.03707
346,-0.17572,-0.71877,1.55609,-0.74546,0.13569,0.11198,-0.0568,-0.58269,1.12319,-0.44182,0.04394,0.03599
347,-0.17252,-0.66312,1.55434,-0.79908,0.13323,0.10992,-0.05379,-0.58975,1.12868,-0.44016,0.04161,0.03408
348,-0.16584,-0.59762,1.512,-0.82168,0.12809,0.10562,-0.04943,-0.59528,1.12802,-0.43385,0.03824,0.03131
349,-0.15487,-0.51745,1.4056,-0.79458,0.11965,0.09856,-0.04367,-0.5977,1.11669,-0.41998,0.03379,0.02767
350,-0.142,-0.43643,1.26641,-0.73547,0.10974,0.09031,-0.03656,-0.59925,1.09966,-0.40126,0.02829,0.02316
351,-0.12897,-0.36943,1.13184,-0.66703,0.09969,0.08196,-0.02806,-0.60238,1.08251,-0.38085,0.02171,0.01777
352,-0.11685,-0.33823,1.05315,-0.6188,0.09034,0.07421,-0.0182,-0.60951,1.0714,-0.36248,0.01408,0.01152
353,-0.10563,-0.35147,1.05485,-0.60664,0.08167,0.06705,-0.00709,-0.62109,1.0686,-0.34804,0.00549,0.00449
354,-0.09346,-0.36799,1.06163,-0.59632,0.07228,0.0593,0.00508,-0.63289,1.0654,-0.33304,-0.00394,-0.00323
355,-0.08042,-0.3844,1.06729,-0.585,0.06221,0.051,0.01811,-0.64437,1.06092,-0.31715,-0.01402,-0.01148
356,-0.06675,-0.40052,1.07162,-0.57272,0.05163,0.04231,0.03177,-0.65535,1.05498,-0.3004,-0.02459,-0.02014
357,-0.05266,-0.41616,1.07447,-0.55952,0.04074,0.03337,0.04583,-0.66565,1.04746,-0.28285,-0.03546,-0.02905
358,-0.03841,-0.43119,1.0758,-0.54549,0.02972,0.02434,0.06004,-0.67514,1.03832,-0.26459,-0.04645,-0.03806
359,-0.02372,-0.44601,1.07556,-0.53021,0.01836,0.01503,0.07467,-0.68402,1.02716,-0.24503,-0.05776,-0.04735
360,-0.00965,-0.45965,1.07381,-0.51471,0.00746,0.00611,0.08867,-0.6917,1.01469,-0.22545,-0.06859,-0.05626
361,0.00391,-0.47243,1.0707,-0.4988,-0.00303,-0.00248,0.10215,-0.69837,1.00082,-0.20553,-0.079,-0.06484
362,0.01671,-0.48433,1.06643,-0.48269,-0.01293,-0.01059,0.11486,-0.70406,0.98577,-0.18547,-0.08881,-0.07295
363,0.02851,-0.49537,1.06128,-0.46663,-0.02206,-0.01806,0.12656,-0.70884,0.96986,-0.16548,-0.09783,-0.08042
364,0.03906,-0.5056,1.05556,-0.45086,-0.03023,-0.02475,0.13702,-0.71279,0.95344,-0.14579,-0.1059,-0.08712
365,0.04821,-0.51545,1.05248,-0.43812,-0.0373,-0.03055,0.1469,-0.73001,0.9702,-0.14602,-0.11352,-0.09346
366,0.05603,-0.52594,1.05873,-0.43408,-0.04335,-0.03551,0.15835,-0.78577,1.08541,-0.20634,-0.12233,-0.10081
367,0.06253,-0.53685,1.07092,-0.43556,-0.04838,-0.03964,0.17058,-0.8499,1.23947,-0.29727,-0.13174,-0.10868
368,0.06766,-0.54731,1.0848,-0.43914,-0.05235,-0.0429,0.18205,-0.89664,1.38358,-0.39564,-0.14057,-0.11608
369,0.07133,-0.55599,1.09582,-0.44159,-0.05518,-0.04523,0.1905,-0.90763,1.48354,-0.48539,-0.14706,-0.12155
370,0.07348,-0.5617,1.10017,-0.44033,-0.05684,-0.04659,0.19379,-0.87403,1.51779,-0.55356,-0.14959,-0.12367
371,0.07428,-0.56701,1.10412,-0.43899,-0.05746,-0.0471,0.19482,-0.82618,1.53503,-0.61875,-0.15038,-0.12435
372,0.0738,-0.5728,1.10909,-0.43815,-0.05709,-0.04679,0.19444,-0.77301,1.54639,-0.68324,-0.15009,-0.1241
373,0.07203,-0.57922,1.11466,-0.43724,-0.05572,-0.04567,0.19264,-0.71709,1.55108,-0.74368,-0.1487,-0.12293
374,0.06853,-0.58641,1.12066,-0.43593,-0.05302,-0.04345,0.1889,-0.66161,1.54972,-0.79743,-0.14583,-0.12051
375,0.06408,-0.59203,1.12029,-0.42979,-0.04958,-0.04062,0.18197,-0.59626,1.50762,-0.82005,-0.1405,-0.11603
376,0.05825,-0.59455,1.10927,-0.41608,-0.04507,-0.03692,0.1705,-0.51615,1.40142,-0.79296,-0.13169,-0.10863
377,0.05106,-0.59623,1.09261,-0.39755,-0.03951,-0.03236,0.15707,-0.43515,1.26242,-0.73387,-0.12135,-0.09998
378,0.0425,-0.59954,1.07592,-0.37735,-0.03289,-0.02693,0.14356,-0.36817,1.12806,-0.66549,-0.11094,-0.09131
379,0.0326,-0.60692,1.06539,-0.35926,-0.02523,-0.02065,0.13119,-0.3371,1.0498,-0.61745,-0.10141,-0.08339
380,0.02148,-0.6188,1.06329,-0.34513,-0.01663,-0.01361,0.11995,-0.35058,1.05218,-0.60565,-0.09273,-0.0762
381,0.0093,-0.63093,1.06087,-0.33048,-0.0072,-0.00589,0.10778,-0.36739,1.05973,-0.59571,-0.08335,-0.06843
382,-0.00374,-0.64279,1.0572,-0.31494,0.0029,0.00237,0.09475,-0.38412,1.06619,-0.58479,-0.07328,-0.06013
383,-0.01742,-0.65416,1.05211,-0.29854,0.01348,0.01103,0.08108,-0.40057,1.07135,-0.57291,-0.06272,-0.05143
384,-0.03149,-0.66489,1.04547,-0.28135,0.02437,0.01995,0.06699,-0.41657,1.07506,-0.56011,-0.05183,-0.04248
385,-0.04572,-0.67481,1.03722,-0.26345,0.03537,0.02897,0.05273,-0.43196,1.07724,-0.54648,-0.0408,-0.03342
386,-0.05987,-0.68384,1.02738,-0.24495,0.04631,0.03794,0.03854,-0.44663,1.07789,-0.53214,-0.02983,-0.02443
387,-0.07368,-0.69189,1.01603,-0.226,0.057,0.04672,0.02467,-0.46048,1.07707,-0.51725,-0.01909,-0.01563
388,-0.08693,-0.69896,1.00334,-0.20677,0.06723,0.05514,0.01136,-0.47347,1.07491,-0.50199,-0.00879,-0.0072
389,-0.10062,-0.70554,0.9882,-0.18567,0.07781,0.06386,-0.00242,-0.4866,1.07122,-0.48514,0.00187,0.00153
390,-0.11236,-0.71073,0.97309,-0.16598,0.08687,0.07135,-0.01424,-0.49799,1.0668,-0.46938,0.01101,0.00901
391,-0.12287,-0.71507,0.9574,-0.14657,0.09498,0.07806,-0.02483,-0.50853,1.06174,-0.45388,0.01921,0.01572
392,-0.13324,-0.73467,0.97854,-0.14876,0.10298,0.08469,-0.03442,-0.51917,1.05935,-0.44099,0.02663,0.0218
393,-0.14501,-0.79497,1.10462,-0.21535,0.11206,0.09223,-0.04252,-0.53045,1.06695,-0.43746,0.0329,0.02693
394,-0.15734,-0.86123,1.26718,-0.31258,0.12155,0.10015,-0.04914,-0.54206,1.08051,-0.43957,0.03801,0.03113
395,-0.16851,-0.90492,1.4126,-0.41521,0.13015,0.10734,-0.05423,-0.55293,1.09511,-0.44342,0.04195,0.03436
396,-0.17596,-0.90581,1.50265,-0.50501,0.13588,0.11214,-0.05771,-0.56146,1.10541,-0.44529,0.04464,0.03657
397,-0.17839,-0.863,1.52818,-0.57356,0.13775,0.11371,-0.05957,-0.56707,1.1092,-0.44353,0.04608,0.03775
398,-0.179,-0.81058,1.54449,-0.64234,0.13822,0.1141,-0.05998,-0.5728,1.11376,-0.44237,0.0464,0.03801
399,-0.17805,-0.75316,1.55379,-0.70898,0.13748,0.11349,-0.05897,-0.57908,1.1192,-0.44149,0.04562,0.03737
400,-0.17551,-0.69404,1.55573,-0.76981,0.13553,0.11185,-0.05655,-0.58605,1.12502,-0.44027,0.04375,0.03583
401,-0.17087,-0.63379,1.54291,-0.81685,0.13196,0.10886,-0.05268,-0.59329,1.12935,-0.43726,0.04076,0.03338
402,-0.16111,-0.55494,1.45935,-0.81133,0.12445,0.10257,-0.04729,-0.5971,1.12223,-0.4262,0.03659,0.02996
403,-0.14812,-0.4686,1.32382,-0.76115,0.11445,0.09423,-0.0404,-0.5988,1.10627,-0.4084,0.03125,0.02559
404,-0.13207,-0.39063,1.17604,-0.69022,0.10208,0.08394,-0.02982,-0.60149,1.08863,-0.38788,0.02307,0.01888
405,-0.11901,-0.34269,1.0677,-0.62902,0.092,0.07559,-0.01996,-0.6073,1.07413,-0.36745,0.01544,0.01264
406,-0.10728,-0.34776,1.05334,-0.60893,0.08295,0.06811,-0.00875,-0.61853,1.06952,-0.35153,0.00677,0.00553
407,-0.09489,-0.36504,1.06059,-0.59829,0.07338,0.06021,0.00366,-0.63088,1.06633,-0.33597,-0.00283,-0.00232
408,-0.08151,-0.38225,1.06667,-0.58657,0.06304,0.05169,0.01703,-0.64295,1.06177,-0.31941,-0.01318,-0.0108
409,-0.06739,-0.39918,1.07132,-0.57378,0.05213,0.04272,0.03114,-0.65449,1.05564,-0.3019,-0.0241,-0.01973
410,-0.05278,-0.41562,1.07439,-0.55998,0.04084,0.03345,0.04571,-0.66532,1.0478,-0.28351,-0.03537,-0.02897
411,-0.03796,-0.43139,1.07579,-0.54527,0.02937,0.02405,0.06048,-0.67528,1.03821,-0.26435,-0.0468,-0.03834
412,-0.02321,-0.44637,1.07552,-0.52981,0.01796,0.0147,0.07518,-0.68424,1.02687,-0.24454,-0.05816,-0.04768
413,-0.00879,-0.46044,1.07366,-0.51376,0.0068,0.00557,0.08952,-0.69213,1.01391,-0.22426,-0.06924,-0.0568
414,0.005,-0.47357,1.0704,-0.49736,-0.00387,-0.00317,0.10323,-0.69895,0.99952,-0.20371,-0.07983,-0.06553
415,0.01789,-0.48574,1.06598,-0.48084,-0.01384,-0.01133,0.11602,-0.70472,0.984,-0.18311,-0.08971,-0.07369
416,0.0296,-0.49697,1.06071,-0.46448,-0.0229,-0.01875,0.12764,-0.70952,0.9677,-0.1627,-0.09867,-0.08111
417,0.03986,-0.50733,1.05499,-0.44857,-0.03084,-0.02525,0.13781,-0.7135,0.95107,-0.14276,-0.10651,-0.08762
418,0.04856,-0.51771,1.05537,-0.43876,-0.03757,-0.03077,0.1482,-0.74615,1.00526,-0.16504,-0.11452,-0.09429
419,0.05578,-0.5288,1.06523,-0.43771,-0.04315,-0.03535,0.16011,-0.81134,1.14894,-0.24444,-0.12369,-0.10194
420,0.0615,-0.54004,1.07982,-0.44123,-0.04758,-0.03898,0.17221,-0.87312,1.3113,-0.34601,-0.133,-0.10973
421,0.06563,-0.55016,1.09407,-0.44549,-0.05078,-0.04161,0.1824,-0.90579,1.44458,-0.44751,-0.14083,-0.1163
422,0.06808,-0.55742,1.10247,-0.44671,-0.05267,-0.04316,0.18776,-0.8909,1.51221,-0.53053,-0.14496,-0.11977
423,0.06891,-0.56266,1.10659,-0.44562,-0.05331,-0.04369,0.18883,-0.84298,1.53226,-0.59861,-0.14578,-0.12046
424,0.06827,-0.56831,1.11202,-0.44537,-0.05282,-0.04328,0.18828,-0.78816,1.5464,-0.66751,-0.14535,-0.12011
425,0.06616,-0.57456,1.11827,-0.4453,-0.05119,-0.04194,0.1861,-0.72913,1.55318,-0.73312,-0.14368,-0.1187
426,0.06258,-0.58153,1.12484,-0.44479,-0.04841,-0.03967,0.18228,-0.6694,1.55268,-0.792,-0.14074,-0.11623
427,0.05745,-0.58785,1.12752,-0.441,-0.04445,-0.03641,0.17541,-0.60417,1.52353,-0.82747,-0.13546,-0.1118
428,0.05072,-0.59055,1.11817,-0.42877,-0.03924,-0.03214,0.16329,-0.52092,1.4209,-0.80707,-0.12614,-0.10399
429,0.04241,-0.59191,1.10178,-0.41083,-0.03282,-0.02687,0.14864,-0.43459,1.27675,-0.74812,-0.11486,-0.09457
430,0.0325,-0.59476,1.08476,-0.39079,-0.02515,-0.02059,0.13366,-0.36179,1.13314,-0.67626,-0.10331,-0.08497
431,0.02104,-0.60189,1.07418,-0.37292,-0.01628,-0.01333,0.11971,-0.32709,1.04838,-0.62533,-0.09255,-0.07605
432,0.00826,-0.61387,1.07258,-0.35925,-0.0064,-0.00523,0.10682,-0.34043,1.0508,-0.61369,-0.0826,-0.06782
433,-0.00555,-0.62611,1.07035,-0.34478,0.0043,0.00352,0.09301,-0.35718,1.05826,-0.60373,-0.07194,-0.05902
434,-0.0201,-0.6381,1.06653,-0.32905,0.01555,0.01273,0.07847,-0.374,1.06447,-0.59251,-0.0607,-0.04977
435,-0.03508,-0.64965,1.06087,-0.31205,0.02714,0.02222,0.06347,-0.39071,1.06922,-0.58002,-0.04911,-0.04024
436,-0.05019,-0.66058,1.05325,-0.29381,0.03883,0.0318,0.04832,-0.40716,1.07238,-0.56631,-0.03739,-0.03063
437,-0.06517,-0.67076,1.04363,-0.27443,0.05041,0.04131,0.0333,-0.42319,1.07388,-0.55148,-0.02577,-0.0211
438,-0.07974,-0.68007,1.03207,-0.25409,0.06168,0.05057,0.01866,-0.43868,1.07376,-0.53569,-0.01444,-0.01183
439,-0.09366,-0.68843,1.01873,-0.23298,0.07243,0.05942,0.00466,-0.4535,1.07214,-0.51916,-0.00361,-0.00296
440,-0.10669,-0.69581,1.00385,-0.21136,0.0825,0.06773,-0.00846,-0.46757,1.06917,-0.50214,0.00655,0.00535
441,-0.11863,-0.70221,0.98777,-0.18954,0.09171,0.07535,-0.0205,-0.48082,1.06512,-0.48493,0.01586,0.01298
442,-0.12928,-0.70768,0.9709,-0.16785,0.09993,0.08215,-0.03124,-0.49321,1.06029,-0.46784,0.02417,0.01978
443,-0.13861,-0.71494,0.96,-0.15031,0.10712,0.08813,-0.04051,-0.50478,1.05555,-0.4517,0.03134,0.02566
444,-0.14907,-0.76127,1.04677,-0.1915,0.11518,0.09484,-0.04835,-0.51663,1.05947,-0.44393,0.03741,0.03063
445,-0.16078,-0.8288,1.20046,-0.27855,0.1242,0.10236,-0.05482,-0.52898,1.07137,-0.44365,0.04241,0.03473
446,-0.17224,-0.88471,1.35738,-0.38051,0.13302,0.10974,-0.05986,-0.54106,1.08646,-0.4468,0.04631,0.03794
447,-0.1811,-0.90587,1.47454,-0.47729,0.13983,0.11546,-0.06337,-0.5515,1.09959,-0.4496,0.04902,0.04016
448,-0.18472,-0.87747,1.52007,-0.55155,0.14261,0.1178,-0.0653,-0.55862,1.10559,-0.44853,0.05051,0.04139
449,-0.18541,-0.82811,1.53814,-0.61905,0.14314,0.11824,-0.06579,-0.56473,1.10985,-0.44671,0.05089,0.0417
450,-0.18459,-0.77265,1.54995,-0.68624,0.14251,0.11771,-0.06491,-0.57125,1.1152,-0.4455,0.05021,0.04114
451,-0.18225,-0.71402,1.5545,-0.7492,0.14072,0.1162,-0.06266,-0.57836,1.12114,-0.44426,0.04847,0.03971
452,-0.17838,-0.65591,1.55226,-0.80473,0.13774,0.1137,-0.05904,-0.58619,1.12716,-0.44235,0.04567,0.03741
453,-0.17046,-0.58583,1.50173,-0.82359,0.13165,0.10859,-0.05396,-0.59205,1.12575,-0.43494,0.04175,0.03419
454,-0.15805,-0.50121,1.38392,-0.78939,0.1221,0.10061,-0.0474,-0.59467,1.11307,-0.41947,0.03667,0.03003
455,-0.14393,-0.41784,1.23562,-0.72341,0.11122,0.09154,-0.03938,-0.59672,1.09501,-0.39919,0.03047,0.02494
456,-0.13001,-0.35401,1.10256,-0.65323,0.10049,0.08262,-0.02988,-0.60104,1.07816,-0.37786,0.02311,0.01892
457,-0.11745,-0.33701,1.0478,-0.61471,0.0908,0.07459,-0.01894,-0.61039,1.06973,-0.35995,0.01465,0.01199
458,-0.10524,-0.35457,1.05597,-0.60465,0.08137,0.0668,-0.00671,-0.62312,1.06748,-0.34488,0.00519,0.00424
459,-0.09192,-0.37215,1.06306,-0.5935,0.07109,0.05832,0.00661,-0.63566,1.06395,-0.32882,-0.00512,-0.00419
460,-0.07776,-0.38953,1.06878,-0.58126,0.06015,0.04931,0.02077,-0.64776,1.0589,-0.31176,-0.01608,-0.01316
461,-0.0628,-0.40665,1.07296,-0.56781,0.04859,0.03981,0.03571,-0.65933,1.05209,-0.29359,-0.02763,-0.02263
462,-0.04758,-0.42309,1.07541,-0.5534,0.03681,0.03015,0.05089,-0.67001,1.04346,-0.27461,-0.03938,-0.03226
463,-0.03227,-0.4388,1.0761,-0.53808,0.02497,0.02044,0.06615,-0.67972,1.03297,-0.25484,-0.05118,-0.04194
464,-0.01716,-0.45364,1.07506,-0.52202,0.01328,0.01087,0.0812,-0.68837,1.02067,-0.23444,-0.06281,-0.0515
465,-0.00252,-0.46755,1.07242,-0.5054,0.00195,0.00159,0.09576,-0.6959,1.0067,-0.21358,-0.07406,-0.06077
466,0.01136,-0.48048,1.0684,-0.48848,-0.00879,-0.0072,0.10954,-0.70232,0.99131,-0.19246,-0.08471,-0.06956
467,0.0242,-0.49244,1.06327,-0.47151,-0.01873,-0.01533,0.12228,-0.70769,0.97484,-0.17135,-0.09454,-0.07769
468,0.03571,-0.50346,1.05741,-0.45479,-0.02764,-0.02263,0.1337,-0.7121,0.95768,-0.15049,-0.10334,-0.08499
469,0.04567,-0.51391,1.05334,-0.44047,-0.03534,-0.02894,0.14417,-0.72609,0.96503,-0.14458,-0.11141,-0.0917
470,0.05414,-0.52496,1.05924,-0.43552,-0.04189,-0.03431,0.15619,-0.7824,1.0797,-0.20383,-0.12067,-0.09942
471,0.06113,-0.53648,1.0719,-0.43686,-0.0473,-0.03875,0.16911,-0.84969,1.24069,-0.29857,-0.13062,-0.10773
472,0.0666,-0.54749,1.08639,-0.44052,-0.05153,-0.04222,0.18118,-0.89789,1.39089,-0.40162,-0.1399,-0.11552
473,0.07044,-0.55644,1.09745,-0.44276,-0.0545,-0.04466,0.18978,-0.90587,1.49078,-0.49432,-0.14651,-0.12108
474,0.07261,-0.56225,1.10151,-0.44109,-0.05617,-0.04604,0.19285,-0.86691,1.52137,-0.56417,-0.14887,-0.12307
475,0.07317,-0.56797,1.1059,-0.43976,-0.0566,-0.04639,0.19362,-0.81555,1.53842,-0.63265,-0.14946,-0.12357
476,0.07241,-0.57422,1.11125,-0.43885,-0.05602,-0.04591,0.19294,-0.7588,1.54868,-0.6996,-0.14894,-0.12313
477,0.07025,-0.58117,1.11714,-0.4377,-0.05434,-0.04454,0.1907,-0.69987,1.55161,-0.76125,-0.14721,-0.12168
478,0.06665,-0.58869,1.12244,-0.43536,-0.05156,-0.04225,0.18662,-0.64108,1.54433,-0.81237,-0.14408,-0.11903
479,0.06149,-0.59314,1.11726,-0.42557,-0.04757,-0.03898,0.17731,-0.56481,1.4712,-0.81467,-0.13692,-0.11302
480,0.05481,-0.59513,1.10248,-0.40861,-0.04241,-0.03474,0.16417,-0.47872,1.34098,-0.76942,-0.12682,-0.10455
481,0.04661,-0.59741,1.08419,-0.38784,-0.03607,-0.02954,0.14989,-0.39848,1.19185,-0.69943,-0.11582,-0.09537
482,0.0369,-0.60285,1.06923,-0.36724,-0.02855,-0.02338,0.13624,-0.34467,1.07419,-0.63461,-0.1053,-0.08662
483,0.02578,-0.61383,1.06421,-0.35107,-0.01995,-0.01633,0.12424,-0.34368,1.04892,-0.60956,-0.09605,-0.07894
484,0.01341,-0.62663,1.06206,-0.336,-0.01038,-0.0085,0.11189,-0.36132,1.0572,-0.59948,-0.08652,-0.07105
485,1e-05,-0.6392,1.05864,-0.31996,-1e-05,-1e-05,0.0985,-0.37896,1.06438,-0.58833,-0.07618,-0.06252
486,-0.01417,-0.65131,1.0537,-0.30296,0.01096,0.00898,0.08433,-0.39635,1.07019,-0.57611,-0.06523,-0.05349
487,-0.02886,-0.66275,1.04708,-0.28506,0.02233,0.01828,0.06963,-0.41328,1.07444,-0.56286,-0.05387,-0.04415
488,-0.04377,-0.67333,1.0387,-0.26636,0.03386,0.02773,0.05469,-0.42958,1.07701,-0.54869,-0.04232,-0.03467
489,-0.05863,-0.68293,1.02855,-0.24699,0.04536,0.03716,0.03979,-0.44509,1.07789,-0.53371,-0.03079,-0.02521
490,-0.07401,-0.69186,1.01612,-0.22613,0.05725,0.04692,0.02435,-0.46039,1.07703,-0.5173,-0.01884,-0.01543
491,-0.0882,-0.69936,1.00248,-0.20556,0.06821,0.05595,0.01009,-0.47423,1.07465,-0.50097,-0.00781,-0.0064
492,-0.10153,-0.70577,0.98753,-0.18481,0.07852,0.06444,-0.00333,-0.48708,1.07096,-0.4844,0.00258,0.0021
493,-0.11375,-0.71115,0.97159,-0.16414,0.08794,0.07223,-0.01563,-0.49897,1.06625,-0.46786,0.01209,0.0099
494,-0.12457,-0.71561,0.95507,-0.1438,0.0963,0.07915,-0.02655,-0.50994,1.06087,-0.45163,0.02054,0.01681
495,-0.13507,-0.74149,0.99162,-0.15515,0.10439,0.08586,-0.03589,-0.52065,1.05983,-0.44002,0.02777,0.02273
496,-0.14698,-0.8048,1.12714,-0.22818,0.11357,0.09349,-0.04376,-0.53202,1.06857,-0.43754,0.03385,0.02772
497,-0.15925,-0.86934,1.29001,-0.32744,0.12302,0.10138,-0.05014,-0.54361,1.0826,-0.44013,0.03879,0.03177
498,-0.17004,-0.90801,1.42968,-0.42932,0.13133,0.10833,-0.05499,-0.55426,1.09693,-0.44393,0.04254,0.03484
499,-0.1767,-0.90146,1.50893,-0.51569,0.13645,0.11262,-0.05821,-0.56231,1.10615,-0.44519,0.04503,0.03689
