YechanE/asmr2025-Humanoid-Lowlevel/joints_timeseries_right.csv
Frame_Index,leg_left_ankle_roll_joint,leg_left_ankle_pitch_joint,leg_left_knee_pitch_joint,leg_left_hip_pitch_joint,leg_left_hip_yaw_joint,leg_left_hip_roll_joint,leg_right_ankle_roll_joint,leg_right_ankle_pitch_joint,leg_right_knee_pitch_joint,leg_right_hip_pitch_joint,leg_right_hip_yaw_joint,leg_right_hip_roll_joint
0,-0.04242,-0.56152,1.0873,-0.42674,0.03282,0.02688,0.05604,-0.562,1.08841,-0.4277,-0.04336,-0.03553
1,-0.04297,-0.56155,1.08736,-0.42679,0.03324,0.02722,0.0555,-0.56199,1.08838,-0.42767,-0.04294,-0.03518
2,-0.04383,-0.56159,1.08745,-0.42686,0.03391,0.02777,0.05464,-0.56197,1.08833,-0.42762,-0.04228,-0.03463
3,-0.04499,-0.56164,1.08757,-0.42695,0.03481,0.0285,0.05348,-0.56194,1.08826,-0.42755,-0.04138,-0.0339
4,-0.04643,-0.5617,1.08771,-0.42706,0.03592,0.02942,0.05203,-0.5619,1.08817,-0.42745,-0.04026,-0.03298
5,-0.04815,-0.56177,1.08786,-0.42719,0.03725,0.03051,0.05031,-0.56184,1.08804,-0.42734,-0.03893,-0.03189
6,-0.05014,-0.56184,1.08802,-0.42733,0.03879,0.03177,0.04833,-0.56177,1.08788,-0.4272,-0.0374,-0.03063
7,-0.05239,-0.56191,1.08819,-0.42748,0.04053,0.0332,0.04608,-0.56169,1.08768,-0.42703,-0.03566,-0.0292
8,-0.05491,-0.56198,1.08835,-0.42763,0.04248,0.0348,0.04356,-0.56157,1.08743,-0.42684,-0.03371,-0.02761
9,-0.0577,-0.56204,1.08849,-0.4278,0.04464,0.03657,0.04076,-0.56144,1.08711,-0.42661,-0.03154,-0.02583
10,-0.06078,-0.56208,1.08861,-0.42796,0.04702,0.03853,0.03768,-0.56127,1.08673,-0.42633,-0.02916,-0.02388
11,-0.06434,-0.56211,1.0887,-0.42813,0.04977,0.04078,0.03412,-0.56104,1.08624,-0.426,-0.0264,-0.02162
12,-0.06805,-0.56212,1.08873,-0.42828,0.05264,0.04314,0.0304,-0.56079,1.08567,-0.42563,-0.02353,-0.01927
13,-0.07211,-0.56209,1.0887,-0.42841,0.05578,0.04572,0.02634,-0.56047,1.08498,-0.42519,-0.02039,-0.01669
14,-0.07653,-0.56202,1.08859,-0.42853,0.05919,0.04853,0.02191,-0.56009,1.08414,-0.42469,-0.01696,-0.01389
15,-0.08134,-0.5619,1.08837,-0.42862,0.06292,0.05159,0.01708,-0.55963,1.08314,-0.4241,-0.01322,-0.01083
16,-0.08659,-0.56172,1.08802,-0.42867,0.06697,0.05493,0.01182,-0.55908,1.08193,-0.4234,-0.00915,-0.00749
17,-0.09231,-0.56146,1.08751,-0.42867,0.07139,0.05857,0.00609,-0.55841,1.08047,-0.42259,-0.00472,-0.00386
18,-0.09853,-0.5611,1.08679,-0.4286,0.0762,0.06253,-0.00016,-0.5576,1.07873,-0.42164,0.00012,9e-05
19,-0.10528,-0.56062,1.08582,-0.42845,0.08141,0.06683,-0.00693,-0.55664,1.07664,-0.42054,0.00536,0.00438
20,-0.11235,-0.56001,1.08459,-0.4282,0.08686,0.07134,-0.01403,-0.55552,1.07424,-0.41928,0.01085,0.00888
21,-0.11898,-0.56478,1.09477,-0.434,0.09199,0.07558,-0.0204,-0.55487,1.07322,-0.41897,0.01578,0.01292
22,-0.12647,-0.60632,1.18322,-0.48136,0.09776,0.08036,-0.02539,-0.55758,1.08205,-0.42514,0.01964,0.01607
23,-0.13479,-0.67078,1.32071,-0.55492,0.10418,0.08569,-0.02907,-0.56313,1.09843,-0.43602,0.02249,0.01841
24,-0.14188,-0.7298,1.44695,-0.62263,0.10964,0.09022,-0.03107,-0.56912,1.11517,-0.4468,0.02404,0.01968
25,-0.14635,-0.7708,1.53492,-0.66992,0.11309,0.09309,-0.03156,-0.5738,1.12779,-0.45475,0.02442,0.01999
26,-0.14628,-0.78184,1.55861,-0.68257,0.11303,0.09304,-0.03049,-0.57532,1.13171,-0.45714,0.02359,0.01931
27,-0.14336,-0.78212,1.55914,-0.68261,0.11079,0.09118,-0.02788,-0.57582,1.13275,-0.45764,0.02157,0.01766
28,-0.13874,-0.78253,1.55992,-0.68265,0.10722,0.08821,-0.02373,-0.57657,1.13434,-0.45843,0.01836,0.01503
29,-0.13234,-0.78306,1.56091,-0.68269,0.10229,0.08411,-0.01801,-0.57755,1.13642,-0.45947,0.01393,0.0114
30,-0.12411,-0.78365,1.56202,-0.68268,0.09594,0.07885,-0.01064,-0.57871,1.13889,-0.46073,0.00823,0.00673
31,-0.11309,-0.77362,1.54027,-0.67032,0.08743,0.07181,-0.00157,-0.57872,1.13825,-0.46005,0.00121,0.00098
32,-0.09821,-0.73341,1.45386,-0.62334,0.07595,0.06233,0.00927,-0.57538,1.12849,-0.45365,-0.00718,-0.00588
33,-0.08135,-0.67479,1.32839,-0.55575,0.06292,0.05159,0.02191,-0.5704,1.11391,-0.44414,-0.01695,-0.01388
34,-0.06373,-0.61294,1.19645,-0.48502,0.0493,0.04039,0.0364,-0.56561,1.09936,-0.43459,-0.02817,-0.02307
35,-0.04591,-0.56871,1.10218,-0.43452,0.03552,0.02909,0.05272,-0.56264,1.08984,-0.42841,-0.04079,-0.03342
36,-0.0282,-0.56085,1.08523,-0.4251,0.02182,0.01786,0.07025,-0.56233,1.08866,-0.42806,-0.05435,-0.04455
37,-0.01024,-0.55924,1.08143,-0.42274,0.00792,0.00649,0.08817,-0.56199,1.08779,-0.42823,-0.06819,-0.05594
38,0.00745,-0.55709,1.0763,-0.41975,-0.00577,-0.00472,0.1058,-0.56111,1.08557,-0.42773,-0.08182,-0.06717
39,0.02437,-0.55453,1.07007,-0.41622,-0.01886,-0.01544,0.12264,-0.55977,1.08216,-0.4266,-0.09481,-0.07792
40,0.04011,-0.55173,1.06309,-0.41228,-0.03104,-0.02542,0.13828,-0.55813,1.07782,-0.42492,-0.10688,-0.08793
41,0.05437,-0.54889,1.05574,-0.4081,-0.04206,-0.03446,0.15244,-0.55635,1.0729,-0.42279,-0.11778,-0.09701
42,0.06696,-0.54618,1.0484,-0.40384,-0.0518,-0.04245,0.16493,-0.5546,1.06773,-0.42036,-0.1274,-0.10504
43,0.07778,-0.54378,1.04141,-0.39964,-0.06017,-0.04933,0.17565,-0.55303,1.06264,-0.41774,-0.13565,-0.11195
44,0.08683,-0.54179,1.03504,-0.39562,-0.06716,-0.05508,0.18462,-0.55176,1.05788,-0.41505,-0.14254,-0.11774
45,0.09418,-0.54031,1.02946,-0.39186,-0.07284,-0.05976,0.19189,-0.55087,1.05363,-0.41237,-0.14813,-0.12244
46,0.09996,-0.53935,1.02477,-0.3884,-0.0773,-0.06344,0.1976,-0.5504,1.05,-0.40977,-0.15252,-0.12615
47,0.10437,-0.53891,1.02094,-0.38523,-0.08071,-0.06625,0.20197,-0.55033,1.047,-0.40727,-0.15586,-0.12898
48,0.10788,-0.53958,1.01981,-0.38362,-0.08346,-0.06844,0.2061,-0.55833,1.06193,-0.4146,-0.15883,-0.13191
49,0.11075,-0.54432,1.03048,-0.38972,-0.08595,-0.06993,0.21335,-0.60467,1.16555,-0.47243,-0.16293,-0.13839
50,0.11293,-0.55185,1.0483,-0.40017,-0.08817,-0.07068,0.22247,-0.66544,1.30819,-0.55488,-0.16727,-0.14754
51,0.11427,-0.55999,1.06681,-0.41067,-0.08996,-0.0706,0.231,-0.7165,1.43862,-0.63463,-0.17019,-0.15747
52,0.11457,-0.56636,1.07981,-0.41739,-0.09116,-0.06961,0.23568,-0.74123,1.51983,-0.6909,-0.16944,-0.16577
53,0.11368,-0.56934,1.08334,-0.41796,-0.09163,-0.06763,0.234,-0.73255,1.53252,-0.71126,-0.16333,-0.17052
54,0.11178,-0.57224,1.08596,-0.41766,-0.09149,-0.06481,0.23011,-0.71807,1.53444,-0.72637,-0.15527,-0.17414
55,0.10888,-0.57574,1.08926,-0.41739,-0.09071,-0.06117,0.22485,-0.70349,1.53638,-0.74147,-0.14613,-0.17692
56,0.10489,-0.57985,1.09314,-0.41701,-0.08922,-0.0567,0.21823,-0.68961,1.53833,-0.75581,-0.13616,-0.17857
57,0.09975,-0.58445,1.09706,-0.41615,-0.08693,-0.05137,0.2101,-0.67614,1.53767,-0.76714,-0.12548,-0.17874
58,0.09314,-0.58599,1.09187,-0.40914,-0.08358,-0.04502,0.19691,-0.6403,1.47771,-0.74134,-0.11156,-0.17485
59,0.08503,-0.58495,1.07841,-0.39637,-0.07913,-0.03764,0.18014,-0.58348,1.36061,-0.67947,-0.09578,-0.16759
60,0.07546,-0.58394,1.06286,-0.38143,-0.07358,-0.02931,0.16293,-0.52026,1.22169,-0.60251,-0.08079,-0.15869
61,0.0645,-0.58546,1.05179,-0.3684,-0.06695,-0.02008,0.14725,-0.47079,1.10728,-0.53679,-0.06837,-0.14908
62,0.0523,-0.59162,1.05157,-0.36155,-0.05935,-0.01009,0.1342,-0.46157,1.07597,-0.51436,-0.05956,-0.13922
63,0.03892,-0.5996,1.05538,-0.35692,-0.0508,0.0006,0.12127,-0.46959,1.08,-0.51015,-0.05133,-0.12885
64,0.02451,-0.60753,1.0585,-0.35168,-0.04139,0.01186,0.10733,-0.47778,1.08335,-0.50511,-0.04225,-0.11791
65,0.00915,-0.61523,1.06072,-0.34582,-0.03115,0.02361,0.09246,-0.48599,1.08579,-0.49918,-0.03238,-0.10649
66,-0.00678,-0.62252,1.0618,-0.33931,-0.02036,0.0356,0.07704,-0.49401,1.08712,-0.49238,-0.02198,-0.09484
67,-0.02308,-0.62926,1.06162,-0.33217,-0.00917,0.04765,0.06126,-0.50173,1.08722,-0.48472,-0.01117,-0.08312
68,-0.03947,-0.63536,1.06011,-0.32446,0.00225,0.05958,0.04539,-0.50902,1.08603,-0.47627,-0.00014,-0.07153
69,-0.05566,-0.64074,1.05729,-0.31627,0.01369,0.07117,0.02971,-0.51581,1.08357,-0.46715,0.0109,-0.06027
70,-0.07136,-0.64538,1.05324,-0.3077,0.02494,0.08222,0.01451,-0.52206,1.07994,-0.45748,0.02177,-0.04954
71,-0.08627,-0.6493,1.04815,-0.29892,0.03579,0.0925,8e-05,-0.52776,1.07534,-0.44745,0.03225,-0.03956
72,-0.10008,-0.65256,1.04226,-0.29008,0.04603,0.10181,-0.01326,-0.53294,1.07001,-0.43727,0.04212,-0.03055
73,-0.11249,-0.65527,1.0359,-0.28139,0.05544,0.10991,-0.02523,-0.53768,1.06428,-0.42717,0.05119,-0.02273
74,-0.12434,-0.67594,1.071,-0.29639,0.06557,0.11625,-0.03554,-0.54302,1.06298,-0.42089,0.05898,-0.01596
75,-0.13752,-0.7334,1.19335,-0.36232,0.07942,0.12017,-0.04407,-0.55038,1.07233,-0.42323,0.06487,-0.00967
76,-0.15135,-0.79688,1.3403,-0.44728,0.09603,0.12176,-0.05079,-0.55861,1.08708,-0.43003,0.06886,-0.00393
77,-0.16439,-0.8425,1.4646,-0.52779,0.11382,0.12069,-0.05563,-0.56605,1.10161,-0.43735,0.07095,0.00117
78,-0.1743,-0.85265,1.53068,-0.58558,0.1305,0.11605,-0.05854,-0.57069,1.11026,-0.44148,0.07114,0.00553
79,-0.18033,-0.82995,1.53917,-0.61843,0.14505,0.1079,-0.05959,-0.57231,1.11218,-0.44182,0.06954,0.00915
80,-0.18536,-0.80411,1.54483,-0.6515,0.15923,0.09867,-0.05887,-0.57395,1.11499,-0.44292,0.06625,0.01203
81,-0.18969,-0.77724,1.54896,-0.68395,0.17277,0.0891,-0.05667,-0.57581,1.11862,-0.44456,0.06154,0.0143
82,-0.19296,-0.75073,1.55152,-0.71422,0.18494,0.07953,-0.05292,-0.57802,1.12288,-0.44643,0.05541,0.01586
83,-0.19392,-0.72057,1.54019,-0.73382,0.19429,0.06972,-0.04761,-0.57992,1.12561,-0.44702,0.0479,0.01665
84,-0.18863,-0.66431,1.459,-0.70869,0.19737,0.05763,-0.04072,-0.57833,1.11797,-0.44073,0.03902,0.01662
85,-0.1788,-0.59315,1.33006,-0.64992,0.19496,0.04498,-0.03235,-0.57493,1.10366,-0.42957,0.02891,0.01575
86,-0.16659,-0.52385,1.19132,-0.57906,0.18824,0.03377,-0.02251,-0.57225,1.08867,-0.41707,0.01761,0.01402
87,-0.15344,-0.4795,1.09422,-0.52474,0.17784,0.02557,-0.01115,-0.57272,1.07946,-0.40726,0.00513,0.01132
88,-0.14008,-0.48015,1.08365,-0.51197,0.16436,0.02082,0.00167,-0.57758,1.08033,-0.40324,-0.00844,0.00766
89,-0.12567,-0.48806,1.08732,-0.5062,0.14971,0.01583,0.01574,-0.58307,1.08239,-0.39993,-0.02289,0.00309
90,-0.11027,-0.49551,1.09011,-0.50009,0.13443,0.01009,0.03078,-0.58836,1.08368,-0.39622,-0.03794,-0.00225
91,-0.09418,-0.50237,1.09184,-0.49364,0.11876,0.00373,0.04648,-0.59332,1.084,-0.39206,-0.05334,-0.00824
92,-0.07768,-0.50853,1.09238,-0.48685,0.103,-0.00312,0.06257,-0.59784,1.08321,-0.3874,-0.06881,-0.01477
93,-0.06109,-0.51393,1.09167,-0.47976,0.08742,-0.01032,0.07872,-0.60187,1.08123,-0.38224,-0.08405,-0.02168
94,-0.04402,-0.51881,1.08963,-0.472,0.07177,-0.01818,0.09529,-0.60567,1.07786,-0.3761,-0.09929,-0.02926
95,-0.0279,-0.52272,1.08649,-0.46434,0.0572,-0.02585,0.1109,-0.60873,1.0735,-0.3698,-0.11343,-0.0367
96,-0.01257,-0.52589,1.08239,-0.45662,0.04364,-0.03349,0.12571,-0.61134,1.06818,-0.36309,-0.12654,-0.04414
97,0.00166,-0.52842,1.07758,-0.449,0.03137,-0.04098,0.13941,-0.61356,1.06214,-0.35605,-0.13834,-0.05144
98,0.0145,-0.53041,1.07238,-0.44163,0.02066,-0.04817,0.15172,-0.61552,1.05567,-0.34879,-0.14857,-0.05846
99,0.02566,-0.53201,1.0672,-0.43475,0.01179,-0.05494,0.16239,-0.61762,1.04969,-0.34177,-0.15698,-0.0651
100,0.03519,-0.53573,1.06996,-0.43376,0.00408,-0.06057,0.17356,-0.65013,1.11333,-0.37394,-0.16381,-0.07449
101,0.04337,-0.54231,1.08191,-0.43918,-0.00311,-0.0647,0.18608,-0.71048,1.24554,-0.44679,-0.16904,-0.08793
102,0.05028,-0.55015,1.09719,-0.44675,-0.00979,-0.06744,0.1982,-0.76954,1.38673,-0.52962,-0.17182,-0.10371
103,0.05589,-0.55729,1.11006,-0.45263,-0.01591,-0.06882,0.20729,-0.80652,1.4946,-0.60059,-0.17062,-0.11951
104,0.0601,-0.56158,1.11478,-0.45326,-0.02133,-0.06884,0.20999,-0.80595,1.53538,-0.64103,-0.16335,-0.13258
105,0.06291,-0.56439,1.11511,-0.45099,-0.02601,-0.06756,0.20777,-0.785,1.53966,-0.66464,-0.1516,-0.1433
106,0.06435,-0.56777,1.11625,-0.44897,-0.02994,-0.06504,0.2032,-0.76276,1.54374,-0.68897,-0.13782,-0.15281
107,0.06441,-0.57176,1.11809,-0.44702,-0.03305,-0.06133,0.19643,-0.74037,1.54725,-0.71271,-0.12258,-0.16065
108,0.06298,-0.57641,1.12052,-0.44496,-0.03523,-0.05642,0.18765,-0.71904,1.55008,-0.73468,-0.10649,-0.16639
109,0.06002,-0.58,1.11878,-0.43975,-0.03639,-0.05032,0.17561,-0.68758,1.52311,-0.73704,-0.08904,-0.16867
110,0.05532,-0.58025,1.10669,-0.42746,-0.03632,-0.04298,0.15917,-0.63043,1.42611,-0.69526,-0.0698,-0.1662
111,0.04887,-0.57944,1.08975,-0.41132,-0.03499,-0.03442,0.14176,-0.56187,1.29107,-0.62737,-0.05191,-0.16059
112,0.0407,-0.58007,1.07419,-0.39507,-0.03235,-0.02473,0.12583,-0.49927,1.1584,-0.55657,-0.03773,-0.15277
113,0.03091,-0.58447,1.06668,-0.38305,-0.02846,-0.01404,0.11283,-0.46756,1.08402,-0.5138,-0.02887,-0.14306
114,0.01974,-0.59259,1.06807,-0.37616,-0.02345,-0.00253,0.10194,-0.47287,1.08397,-0.50875,-0.02394,-0.13185
115,0.00734,-0.60082,1.06926,-0.36895,-0.01738,0.00964,0.08996,-0.47968,1.08596,-0.50422,-0.01815,-0.11999
116,-0.00604,-0.60884,1.06971,-0.3612,-0.0104,0.02224,0.07703,-0.4866,1.08724,-0.49884,-0.01148,-0.10769
117,-0.02014,-0.6165,1.06923,-0.35291,-0.00268,0.03507,0.0634,-0.49349,1.08762,-0.49259,-0.00409,-0.09519
118,-0.0347,-0.62364,1.06768,-0.34412,0.00564,0.04791,0.04933,-0.5002,1.08699,-0.48551,0.00387,-0.08269
119,-0.04944,-0.63015,1.065,-0.33488,0.01437,0.06051,0.0351,-0.50666,1.08529,-0.47763,0.01223,-0.07041
120,-0.06408,-0.63595,1.06122,-0.32531,0.02336,0.07266,0.02096,-0.51278,1.08253,-0.46904,0.02082,-0.05859
121,-0.07835,-0.64102,1.05642,-0.31554,0.03241,0.08411,0.00721,-0.51853,1.07879,-0.45988,0.02949,-0.04746
122,-0.09195,-0.64536,1.05077,-0.30573,0.04137,0.09465,-0.0059,-0.52391,1.07424,-0.45029,0.03807,-0.03723
123,-0.10605,-0.64898,1.04414,-0.29578,0.05118,0.10495,-0.01952,-0.52903,1.06851,-0.43985,0.04749,-0.02723
124,-0.11795,-0.65195,1.03736,-0.28639,0.05977,0.11325,-0.03096,-0.53373,1.06273,-0.42976,0.05573,-0.01923
125,-0.12869,-0.65873,1.04031,-0.283,0.06818,0.11994,-0.041,-0.53842,1.0579,-0.42062,0.06335,-0.01266
126,-0.14063,-0.70419,1.1327,-0.33081,0.07995,0.12444,-0.04943,-0.54505,1.06329,-0.41974,0.06938,-0.00672
127,-0.15378,-0.76866,1.27595,-0.41096,0.09512,0.12671,-0.05616,-0.55317,1.07657,-0.42521,0.07358,-0.00122
128,-0.16693,-0.82453,1.41471,-0.49561,0.11227,0.12658,-0.06111,-0.56129,1.0921,-0.43285,0.07595,0.00372
129,-0.17801,-0.85202,1.50983,-0.56519,0.12934,0.12331,-0.06422,-0.56751,1.10422,-0.43889,0.07646,0.00801
130,-0.18465,-0.83906,1.5346,-0.60466,0.14405,0.11595,-0.06545,-0.57011,1.10814,-0.44025,0.07514,0.01156
131,-0.18955,-0.81427,1.54076,-0.63723,0.15801,0.10676,-0.06502,-0.57181,1.11069,-0.44106,0.07221,0.01447
132,-0.19375,-0.78793,1.54561,-0.66995,0.17154,0.097,-0.06305,-0.57368,1.11422,-0.44257,0.06779,0.01675
133,-0.19705,-0.76132,1.54891,-0.70118,0.18403,0.08711,-0.05956,-0.57586,1.11849,-0.44447,0.06195,0.01836
134,-0.19909,-0.73571,1.55038,-0.72927,0.19471,0.0774,-0.05456,-0.57842,1.12321,-0.44638,0.05475,0.01926
135,-0.19609,-0.69088,1.50016,-0.72406,0.20024,0.06596,-0.04801,-0.57847,1.1204,-0.44323,0.04619,0.01936
136,-0.18746,-0.62432,1.38758,-0.67729,0.19967,0.05299,-0.03997,-0.57566,1.10847,-0.43384,0.03637,0.01867
137,-0.17554,-0.55195,1.24787,-0.60859,0.1943,0.0406,-0.0304,-0.5725,1.09328,-0.42156,0.0253,0.01708
138,-0.16233,-0.49356,1.1256,-0.54312,0.18519,0.03072,-0.01945,-0.57146,1.08101,-0.41014,0.01313,0.01466
139,-0.14888,-0.47668,1.08096,-0.51374,0.17267,0.02464,-0.00704,-0.57478,1.07823,-0.40394,-0.00014,0.01128
140,-0.13481,-0.48483,1.08514,-0.50819,0.15826,0.0199,0.0067,-0.58043,1.08077,-0.40086,-0.01438,0.00698
141,-0.11965,-0.49257,1.08854,-0.50231,0.1431,0.01436,0.02152,-0.58594,1.08263,-0.3974,-0.02933,0.00185
142,-0.10367,-0.49977,1.09093,-0.49609,0.12746,0.00815,0.03713,-0.59115,1.08359,-0.39352,-0.04474,-0.00398
143,-0.08717,-0.5063,1.09217,-0.48951,0.11159,0.00139,0.05324,-0.59596,1.08346,-0.38914,-0.06033,-0.01038
144,-0.07043,-0.51209,1.09215,-0.48261,0.09579,-0.00577,0.06955,-0.60028,1.08216,-0.38426,-0.07582,-0.01724
145,-0.05377,-0.51709,1.09088,-0.47543,0.08032,-0.01322,0.08576,-0.60408,1.07966,-0.37888,-0.09093,-0.02441
146,-0.0375,-0.52128,1.08843,-0.46807,0.06548,-0.0208,0.10156,-0.60734,1.07602,-0.37303,-0.10537,-0.03175
147,-0.02192,-0.52472,1.08495,-0.46062,0.05155,-0.02839,0.11664,-0.61011,1.07137,-0.36677,-0.11887,-0.03913
148,-0.00735,-0.52745,1.08067,-0.45324,0.03882,-0.03586,0.1307,-0.61244,1.06593,-0.36017,-0.13116,-0.04641
149,0.00591,-0.5296,1.07588,-0.44607,0.02758,-0.04306,0.14346,-0.61446,1.05996,-0.35335,-0.14195,-0.05344
150,0.01758,-0.53127,1.07093,-0.43929,0.01808,-0.04987,0.15463,-0.6163,1.05378,-0.34643,-0.15101,-0.0601
151,0.02747,-0.53357,1.06921,-0.4352,0.01027,-0.05594,0.16486,-0.63047,1.07583,-0.35528,-0.15823,-0.0675
152,0.03588,-0.53903,1.07829,-0.43881,0.00312,-0.06048,0.17657,-0.68273,1.18719,-0.41535,-0.16391,-0.07911
153,0.04296,-0.54647,1.09321,-0.44636,-0.0035,-0.06358,0.18861,-0.74509,1.33072,-0.49732,-0.16749,-0.0938
154,0.04873,-0.55409,1.10817,-0.45383,-0.00956,-0.06528,0.19879,-0.79339,1.45739,-0.57602,-0.16778,-0.10953
155,0.05311,-0.55979,1.11745,-0.45758,-0.01495,-0.06561,0.20404,-0.81032,1.53095,-0.63215,-0.1629,-0.12372
156,0.05602,-0.5626,1.1186,-0.45611,-0.01957,-0.06456,0.20266,-0.79273,1.54077,-0.65813,-0.15204,-0.1347
157,0.05753,-0.56563,1.11982,-0.45449,-0.02342,-0.06223,0.19844,-0.77073,1.54506,-0.68257,-0.13857,-0.1444
158,0.0576,-0.56923,1.12178,-0.45303,-0.02643,-0.05865,0.19188,-0.74807,1.54886,-0.70694,-0.12332,-0.15257
159,0.05619,-0.57345,1.12436,-0.45155,-0.02854,-0.05385,0.18316,-0.72593,1.55193,-0.72998,-0.1069,-0.15879
160,0.05322,-0.57791,1.12635,-0.44919,-0.02963,-0.04784,0.1722,-0.70266,1.54752,-0.74673,-0.08972,-0.16243
161,0.04849,-0.57916,1.11853,-0.44018,-0.02949,-0.04053,0.15647,-0.65482,1.47713,-0.72219,-0.07028,-0.16135
162,0.04195,-0.57829,1.10332,-0.42586,-0.02806,-0.03196,0.13846,-0.58926,1.35397,-0.66304,-0.05095,-0.15653
163,0.03358,-0.57773,1.08674,-0.40979,-0.02526,-0.02216,0.121,-0.52149,1.21439,-0.5903,-0.03442,-0.14918
164,0.02343,-0.5799,1.07523,-0.39603,-0.0211,-0.01122,0.10578,-0.47271,1.10694,-0.53133,-0.02246,-0.13975
165,0.01179,-0.58652,1.07424,-0.3883,-0.01575,0.00062,0.0935,-0.46683,1.08504,-0.51556,-0.01586,-0.1284
166,-0.00106,-0.59428,1.07558,-0.38175,-0.00938,0.01313,0.08101,-0.47299,1.08676,-0.51145,-0.00972,-0.11616
167,-0.01484,-0.60191,1.07606,-0.37448,-0.00216,0.02607,0.06764,-0.47932,1.08769,-0.50638,-0.00278,-0.10351
168,-0.02924,-0.60926,1.07547,-0.36646,0.0057,0.03919,0.05369,-0.48572,1.08769,-0.50031,0.00477,-0.09069
169,-0.04397,-0.61619,1.0737,-0.3577,0.01405,0.05226,0.03943,-0.49206,1.08664,-0.49325,0.01277,-0.07794
170,-0.05876,-0.62261,1.07068,-0.34828,0.02269,0.06505,0.02514,-0.49828,1.08452,-0.48526,0.02105,-0.06548
171,-0.07333,-0.62845,1.06647,-0.3383,0.03148,0.07733,0.01108,-0.5043,1.08135,-0.47645,0.02945,-0.05352
172,-0.08744,-0.63367,1.06117,-0.32792,0.04026,0.0889,-0.00252,-0.51009,1.07724,-0.46694,0.03782,-0.04228
173,-0.10085,-0.63827,1.05496,-0.31733,0.04888,0.09954,-0.01541,-0.51564,1.07234,-0.4569,0.04605,-0.03197
174,-0.11334,-0.64225,1.04809,-0.30676,0.05723,0.10906,-0.02739,-0.52093,1.06685,-0.44654,0.054,-0.02276
175,-0.12471,-0.64566,1.04085,-0.29645,0.06519,0.1173,-0.03826,-0.52599,1.06102,-0.43606,0.06158,-0.01483
176,-0.13477,-0.64855,1.03356,-0.28667,0.07267,0.12407,-0.04786,-0.53087,1.05511,-0.42568,0.06869,-0.00836
177,-0.1451,-0.67582,1.08266,-0.30919,0.08199,0.12901,-0.056,-0.53685,1.05552,-0.42047,0.07473,-0.00287
178,-0.15724,-0.73622,1.2118,-0.37914,0.09537,0.13187,-0.06259,-0.54485,1.0663,-0.42358,0.07904,0.00228
179,-0.17011,-0.79873,1.35774,-0.46424,0.11151,0.13254,-0.06753,-0.55355,1.08181,-0.43063,0.08159,0.00698
180,-0.18191,-0.84068,1.47555,-0.54207,0.12853,0.13046,-0.07072,-0.56118,1.09636,-0.4377,0.08234,0.0111
181,-0.18999,-0.84507,1.53033,-0.59436,0.14394,0.12451,-0.07209,-0.5657,1.10419,-0.44105,0.08129,0.01455
182,-0.19455,-0.82176,1.53682,-0.62583,0.15744,0.11535,-0.07175,-0.56768,1.10653,-0.44137,0.07856,0.01735
183,-0.19849,-0.7963,1.54217,-0.65821,0.17077,0.10543,-0.06991,-0.56975,1.10993,-0.44255,0.07436,0.01956
184,-0.2017,-0.76998,1.54608,-0.68985,0.1834,0.09522,-0.06658,-0.57206,1.11418,-0.44427,0.06876,0.02115
185,-0.20389,-0.74418,1.54852,-0.71924,0.19461,0.08512,-0.0618,-0.57472,1.11904,-0.4462,0.0618,0.02209
186,-0.20325,-0.71164,1.52971,-0.73357,0.20255,0.0745,-0.05554,-0.57662,1.12116,-0.44612,0.05353,0.0223
187,-0.19623,-0.65271,1.43979,-0.70212,0.20404,0.06158,-0.04779,-0.57496,1.1127,-0.439,0.04397,0.02172
188,-0.18505,-0.58102,1.30707,-0.6399,0.20028,0.04842,-0.03863,-0.57184,1.09838,-0.4275,0.03324,0.02037
189,-0.17189,-0.5139,1.17091,-0.56927,0.19246,0.03706,-0.02807,-0.56977,1.08428,-0.41521,0.02138,0.01818
190,-0.15816,-0.47571,1.08528,-0.52013,0.18116,0.02903,-0.01606,-0.57117,1.07691,-0.40628,0.00841,0.01508
191,-0.14435,-0.48031,1.08247,-0.51107,0.16713,0.02422,-0.00268,-0.57666,1.07905,-0.40286,-0.00558,0.01105
192,-0.1302,-0.48802,1.08632,-0.50568,0.15286,0.01916,0.01116,-0.58214,1.08138,-0.39979,-0.01967,0.0064
193,-0.11519,-0.49529,1.08935,-0.49998,0.13805,0.01345,0.02584,-0.58741,1.08297,-0.39635,-0.03428,0.00108
194,-0.09945,-0.50207,1.09138,-0.49388,0.12283,0.00711,0.04122,-0.59244,1.08362,-0.39239,-0.04927,-0.0049
195,-0.08336,-0.50818,1.09227,-0.48747,0.10752,0.00034,0.05693,-0.59703,1.08322,-0.38799,-0.06431,-0.01135
196,-0.06712,-0.5136,1.09198,-0.48074,0.09233,-0.00679,0.07275,-0.60116,1.0817,-0.38309,-0.07919,-0.01818
197,-0.05099,-0.51829,1.09052,-0.47374,0.07749,-0.01416,0.08844,-0.60481,1.07904,-0.3777,-0.09368,-0.02529
198,-0.03524,-0.52226,1.08795,-0.46654,0.06325,-0.02165,0.10372,-0.60798,1.0753,-0.37184,-0.10752,-0.03255
199,-0.02014,-0.52552,1.08442,-0.45924,0.04986,-0.02914,0.11832,-0.61069,1.07061,-0.36556,-0.12049,-0.03984
200,-0.00597,-0.52816,1.08014,-0.45197,0.03758,-0.03653,0.132,-0.61301,1.06515,-0.35895,-0.13232,-0.04704
201,0.00702,-0.53025,1.07536,-0.44487,0.02666,-0.04367,0.14448,-0.61503,1.05917,-0.35209,-0.1428,-0.05402
202,0.01854,-0.53192,1.07038,-0.43809,0.01732,-0.05047,0.15551,-0.61688,1.05296,-0.3451,-0.15169,-0.06066
203,0.02847,-0.53421,1.06859,-0.43392,0.00949,-0.05657,0.16578,-0.63108,1.07493,-0.35386,-0.15894,-0.0681
204,0.03707,-0.53942,1.0767,-0.43683,0.00223,-0.06129,0.17748,-0.68055,1.17947,-0.40992,-0.16482,-0.07945
205,0.04448,-0.54649,1.09033,-0.44346,-0.00455,-0.06469,0.18962,-0.74043,1.31564,-0.48707,-0.16889,-0.0937
206,0.05071,-0.55389,1.10448,-0.45034,-0.01084,-0.06684,0.20037,-0.7893,1.44004,-0.56306,-0.17016,-0.10915
207,0.05571,-0.55983,1.11419,-0.45428,-0.01655,-0.06776,0.20712,-0.81168,1.52062,-0.62101,-0.16704,-0.12358
208,0.0594,-0.56288,1.11579,-0.45302,-0.02159,-0.06743,0.20756,-0.79942,1.53755,-0.64905,-0.15819,-0.13499
209,0.06164,-0.56573,1.11639,-0.45096,-0.0258,-0.06581,0.2047,-0.779,1.54162,-0.67186,-0.14631,-0.14487
210,0.0628,-0.56906,1.11759,-0.44904,-0.02944,-0.06319,0.19991,-0.75768,1.54531,-0.69496,-0.13286,-0.15364
211,0.06268,-0.57296,1.1194,-0.44712,-0.03232,-0.05949,0.19316,-0.73648,1.54844,-0.71724,-0.11822,-0.1608
212,0.06124,-0.57747,1.12168,-0.44505,-0.03436,-0.05472,0.18469,-0.71645,1.55093,-0.73771,-0.10296,-0.16602
213,0.05833,-0.58045,1.11871,-0.4392,-0.03541,-0.04884,0.17273,-0.68332,1.51688,-0.73479,-0.08611,-0.16769
214,0.05383,-0.58049,1.10658,-0.42708,-0.03534,-0.04182,0.15703,-0.62759,1.42065,-0.69249,-0.06788,-0.16516
215,0.04773,-0.5797,1.09031,-0.41161,-0.03411,-0.0337,0.14058,-0.56214,1.2914,-0.6274,-0.051,-0.15984
216,0.04006,-0.5802,1.0753,-0.39604,-0.03168,-0.02454,0.12546,-0.50203,1.1642,-0.55959,-0.03746,-0.15251
217,0.0309,-0.58402,1.0673,-0.3841,-0.02811,-0.01446,0.11292,-0.46865,1.08701,-0.51567,-0.02867,-0.14343
218,0.02047,-0.59157,1.06822,-0.37733,-0.0235,-0.00361,0.10262,-0.47212,1.08382,-0.5093,-0.02396,-0.1329
219,0.00889,-0.5994,1.06938,-0.37052,-0.01791,0.00785,0.09143,-0.47854,1.08576,-0.50509,-0.01863,-0.12172
220,-0.00363,-0.60707,1.06992,-0.36322,-0.01148,0.01975,0.07933,-0.4851,1.08709,-0.50012,-0.01248,-0.11011
221,-0.01686,-0.61444,1.06965,-0.35543,-0.00433,0.03191,0.06655,-0.49165,1.08764,-0.49437,-0.00564,-0.09826
222,-0.03058,-0.62138,1.06844,-0.34717,0.0034,0.04412,0.0533,-0.49808,1.0873,-0.48785,0.00175,-0.08636
223,-0.04454,-0.62778,1.06622,-0.33849,0.01156,0.0562,0.03981,-0.5043,1.086,-0.48059,0.00956,-0.0746
224,-0.05906,-0.63361,1.06297,-0.32941,0.02043,0.06829,0.02578,-0.51033,1.08365,-0.47249,0.01806,-0.06282
225,-0.07302,-0.63873,1.05873,-0.32011,0.02919,0.07965,0.0123,-0.51596,1.08037,-0.4639,0.02645,-0.05178
226,-0.08656,-0.64317,1.05361,-0.31069,0.03797,0.0903,-0.00076,-0.52124,1.07625,-0.45482,0.03486,-0.04143
227,-0.09943,-0.64694,1.04778,-0.30131,0.04663,0.10004,-0.01316,-0.52618,1.07142,-0.44541,0.04315,-0.03197
228,-0.11138,-0.6501,1.04147,-0.29214,0.05501,0.1087,-0.02467,-0.53081,1.06609,-0.43583,0.05119,-0.0236
229,-0.1222,-0.65272,1.03494,-0.28335,0.06298,0.11606,-0.03507,-0.53518,1.06052,-0.42624,0.05882,-0.01651
230,-0.13247,-0.66773,1.05736,-0.29127,0.07155,0.1218,-0.04412,-0.54003,1.05806,-0.4193,0.06567,-0.01058
231,-0.14419,-0.71892,1.16448,-0.34816,0.08369,0.1255,-0.05167,-0.54683,1.06571,-0.42048,0.07092,-0.00505
232,-0.15681,-0.78058,1.30396,-0.42738,0.09865,0.12718,-0.05768,-0.55471,1.0793,-0.42648,0.07452,5e-05
233,-0.16913,-0.83053,1.43165,-0.50686,0.11511,0.12661,-0.06207,-0.56228,1.09396,-0.43377,0.07644,0.00463
234,-0.17926,-0.85251,1.51527,-0.57035,0.13118,0.12306,-0.06478,-0.56787,1.10479,-0.43913,0.07669,0.00861
235,-0.18527,-0.83789,1.53481,-0.60615,0.145,0.11576,-0.06579,-0.57014,1.10806,-0.44016,0.07529,0.01192
236,-0.18988,-0.81425,1.54066,-0.63719,0.15826,0.10698,-0.06532,-0.57176,1.11054,-0.44096,0.07244,0.01466
237,-0.19386,-0.78918,1.54533,-0.66837,0.17114,0.09766,-0.06344,-0.57355,1.1139,-0.4424,0.06824,0.01682
238,-0.19705,-0.76382,1.54858,-0.69827,0.18311,0.08822,-0.06019,-0.5756,1.11794,-0.4442,0.06275,0.01839
239,-0.19864,-0.73938,1.55069,-0.72576,0.19314,0.0786,-0.05512,-0.57808,1.12271,-0.44625,0.05567,0.01902
240,-0.19685,-0.70157,1.51568,-0.7289,0.19945,0.06812,-0.04907,-0.5788,1.12198,-0.44454,0.04769,0.01921
241,-0.18953,-0.64128,1.41838,-0.69133,0.2,0.05586,-0.04168,-0.5765,1.11202,-0.4366,0.03856,0.01869
242,-0.17886,-0.57218,1.28835,-0.62924,0.19603,0.04377,-0.033,-0.57332,1.09775,-0.42527,0.02836,0.01744
243,-0.16654,-0.50988,1.16108,-0.56279,0.18842,0.03348,-0.023,-0.57144,1.0845,-0.4137,0.01711,0.0154
244,-0.1537,-0.47631,1.08491,-0.51864,0.17761,0.02627,-0.01165,-0.57289,1.07792,-0.40554,0.00482,0.0125
245,-0.14069,-0.48133,1.08352,-0.51071,0.16431,0.02184,0.00097,-0.57803,1.07987,-0.40233,-0.00841,0.00874
246,-0.12668,-0.48889,1.08711,-0.50526,0.15015,0.01689,0.01466,-0.58334,1.08196,-0.39922,-0.02238,0.00418
247,-0.1118,-0.49601,1.08988,-0.4995,0.13545,0.01127,0.0292,-0.58845,1.08331,-0.39573,-0.03688,-0.00105
248,-0.09631,-0.50258,1.09166,-0.49341,0.12041,0.0051,0.04433,-0.59324,1.08375,-0.39181,-0.05167,-0.00687
249,-0.08047,-0.50851,1.09234,-0.48701,0.10529,-0.00151,0.05979,-0.59763,1.08316,-0.38745,-0.06652,-0.01317
250,-0.06452,-0.51375,1.09187,-0.48033,0.09032,-0.00844,0.07532,-0.60156,1.08149,-0.38262,-0.08117,-0.01982
251,-0.04874,-0.51826,1.09028,-0.47342,0.07575,-0.01558,0.09066,-0.60501,1.07875,-0.37734,-0.09539,-0.02671
252,-0.0334,-0.52206,1.08765,-0.46636,0.06183,-0.02281,0.10554,-0.60798,1.07499,-0.37165,-0.10893,-0.03371
253,-0.01876,-0.52518,1.08414,-0.45926,0.0488,-0.03002,0.1197,-0.61052,1.07037,-0.3656,-0.12155,-0.04072
254,-0.00382,-0.52817,1.07946,-0.45123,0.03592,-0.03789,0.13409,-0.61318,1.06434,-0.35814,-0.13394,-0.04839
255,0.00898,-0.53021,1.07462,-0.44415,0.02514,-0.04492,0.14638,-0.61514,1.05832,-0.35131,-0.14427,-0.05525
256,0.02033,-0.53183,1.06962,-0.43739,0.01594,-0.05161,0.15725,-0.61693,1.05208,-0.34435,-0.15303,-0.06179
257,0.0301,-0.5341,1.06782,-0.43326,0.00822,-0.05761,0.16737,-0.63109,1.07407,-0.35316,-0.16016,-0.06913
258,0.03857,-0.53929,1.07595,-0.43621,0.00108,-0.06223,0.17896,-0.68057,1.1787,-0.40929,-0.16596,-0.08041
259,0.04584,-0.54635,1.08961,-0.44288,-0.0056,-0.06556,0.19102,-0.74044,1.31496,-0.48653,-0.16996,-0.09461
260,0.05196,-0.55375,1.10379,-0.4498,-0.0118,-0.06763,0.2017,-0.78932,1.43944,-0.56259,-0.17117,-0.11001
261,0.05686,-0.55969,1.11355,-0.45379,-0.01744,-0.06848,0.20837,-0.81169,1.52009,-0.62061,-0.168,-0.12439
262,0.06045,-0.56274,1.11518,-0.45256,-0.0224,-0.06809,0.20871,-0.79941,1.53709,-0.64871,-0.15907,-0.13573
263,0.06279,-0.56556,1.11572,-0.45048,-0.0267,-0.06654,0.20597,-0.77895,1.54113,-0.67154,-0.14729,-0.14569
264,0.06389,-0.5689,1.11696,-0.44859,-0.03029,-0.06388,0.20111,-0.75762,1.54486,-0.69468,-0.13379,-0.15442
265,0.06372,-0.57281,1.1188,-0.4467,-0.03312,-0.06014,0.19431,-0.7364,1.54805,-0.71701,-0.1191,-0.16154
266,0.06222,-0.57732,1.12112,-0.44466,-0.03512,-0.05534,0.18578,-0.71636,1.55059,-0.73753,-0.1038,-0.16672
267,0.05927,-0.58031,1.11819,-0.43884,-0.03614,-0.04944,0.17376,-0.68323,1.51658,-0.73463,-0.08691,-0.16835
268,0.05473,-0.58037,1.1061,-0.42674,-0.03604,-0.04239,0.15799,-0.62749,1.42038,-0.69237,-0.06863,-0.16578
269,0.04776,-0.57979,1.09027,-0.41148,-0.03413,-0.03372,0.14061,-0.56226,1.2914,-0.62729,-0.05102,-0.15986
270,0.04006,-0.58028,1.07528,-0.39593,-0.03168,-0.02454,0.12546,-0.50214,1.1642,-0.55949,-0.03747,-0.15251
271,0.0309,-0.5841,1.06727,-0.384,-0.02811,-0.01446,0.11293,-0.46874,1.08701,-0.51558,-0.02868,-0.14344
272,0.0205,-0.59164,1.06818,-0.37723,-0.02352,-0.00363,0.10265,-0.4722,1.08383,-0.50923,-0.02398,-0.13292
273,0.00896,-0.59945,1.06934,-0.37042,-0.01796,0.00781,0.0915,-0.4786,1.08576,-0.50503,-0.01868,-0.12177
274,-0.00352,-0.60711,1.06987,-0.36313,-0.01157,0.01968,0.07945,-0.48514,1.08708,-0.50007,-0.01257,-0.11019
275,-0.0167,-0.61447,1.0696,-0.35535,-0.00445,0.03181,0.06671,-0.49168,1.08764,-0.49434,-0.00577,-0.09836
276,-0.03038,-0.6214,1.06839,-0.3471,0.00325,0.044,0.05349,-0.4981,1.08731,-0.48784,0.00159,-0.08649
277,-0.04431,-0.6278,1.06619,-0.33843,0.01138,0.05606,0.04004,-0.50432,1.08603,-0.4806,0.00938,-0.07474
278,-0.05826,-0.63359,1.06298,-0.32943,0.01981,0.06779,0.02658,-0.51026,1.08378,-0.47269,0.01744,-0.06333
279,-0.07198,-0.63872,1.05881,-0.32018,0.02838,0.07898,0.01334,-0.51588,1.08062,-0.4642,0.02564,-0.05243
280,-0.08523,-0.64319,1.0538,-0.31083,0.03694,0.08945,0.00056,-0.52117,1.07664,-0.45526,0.03384,-0.04226
281,-0.09778,-0.64701,1.04811,-0.30153,0.04535,0.099,-0.01153,-0.52612,1.072,-0.44601,0.04189,-0.03301
282,-0.10939,-0.65023,1.04198,-0.29245,0.05346,0.10743,-0.02269,-0.53079,1.06691,-0.4366,0.04965,-0.02486
283,-0.11983,-0.65294,1.03567,-0.28377,0.06114,0.11455,-0.03271,-0.53522,1.06161,-0.42721,0.05699,-0.01801
284,-0.12968,-0.66802,1.05831,-0.29181,0.06939,0.12002,-0.04135,-0.54013,1.05946,-0.42049,0.06353,-0.01234
285,-0.14089,-0.71925,1.16562,-0.3488,0.08114,0.1234,-0.04848,-0.54699,1.06742,-0.42189,0.06845,-0.00709
286,-0.15292,-0.78091,1.30528,-0.42813,0.09565,0.1247,-0.05403,-0.55493,1.08134,-0.42812,0.07169,-0.00227
287,-0.1646,-0.83082,1.43316,-0.50775,0.11161,0.1237,-0.05793,-0.56256,1.09633,-0.43566,0.07324,0.002
288,-0.17407,-0.85272,1.51701,-0.57145,0.12719,0.11971,-0.06012,-0.56821,1.1075,-0.44128,0.07309,0.00565
289,-0.17946,-0.83798,1.53681,-0.60752,0.14054,0.11201,-0.06059,-0.57053,1.11113,-0.44259,0.07127,0.00861
290,-0.18345,-0.81416,1.54291,-0.63889,0.15333,0.1028,-0.05953,-0.57219,1.11395,-0.44368,0.06796,0.01098
291,-0.18676,-0.78886,1.54783,-0.67042,0.1657,0.09304,-0.05702,-0.57401,1.11765,-0.44543,0.06327,0.01274
292,-0.18923,-0.76319,1.55131,-0.7007,0.17712,0.0831,-0.05308,-0.57608,1.12203,-0.44754,0.05725,0.01387
293,-0.19054,-0.73839,1.55344,-0.72848,0.18694,0.07329,-0.04771,-0.57847,1.12685,-0.44974,0.04994,0.01431
294,-0.18803,-0.70023,1.5186,-0.73203,0.19271,0.06233,-0.04089,-0.57915,1.12637,-0.44834,0.04136,0.01402
295,-0.18009,-0.63965,1.42149,-0.69486,0.19277,0.04966,-0.03264,-0.57679,1.11664,-0.44074,0.03157,0.01296
296,-0.1688,-0.57032,1.29167,-0.63316,0.18832,0.03718,-0.02303,-0.5735,1.10256,-0.42974,0.02065,0.01113
297,-0.15577,-0.5078,1.16458,-0.56709,0.18016,0.02646,-0.01203,-0.57144,1.08938,-0.41849,0.00862,0.00845
298,-0.14206,-0.4739,1.08842,-0.52325,0.16867,0.0187,0.00039,-0.57264,1.08273,-0.4106,-0.0045,0.00487
299,-0.12802,-0.47843,1.0867,-0.51548,0.15456,0.01364,0.01406,-0.57742,1.08441,-0.40759,-0.01854,0.00044
300,-0.11307,-0.48546,1.08976,-0.51007,0.13967,0.00812,0.02868,-0.58231,1.08601,-0.40455,-0.03323,-0.0047
301,-0.09742,-0.49204,1.09184,-0.50423,0.12436,0.00204,0.04397,-0.58696,1.08669,-0.401,-0.04831,-0.01042
302,-0.08137,-0.4981,1.09279,-0.49793,0.10888,-0.00446,0.05963,-0.59129,1.08631,-0.39688,-0.06351,-0.0166
303,-0.06518,-0.50359,1.09256,-0.49118,0.09348,-0.01126,0.0754,-0.59523,1.08477,-0.39218,-0.07858,-0.0231
304,-0.04912,-0.50848,1.09115,-0.48404,0.07842,-0.01824,0.09099,-0.59876,1.08209,-0.38688,-0.09328,-0.02981
305,-0.03345,-0.51276,1.08862,-0.47659,0.06392,-0.0253,0.10617,-0.60189,1.07831,-0.38104,-0.10736,-0.03663
306,-0.01841,-0.51645,1.08513,-0.46891,0.05022,-0.03233,0.1207,-0.60463,1.07357,-0.37469,-0.12062,-0.04344
307,-0.00422,-0.51959,1.08084,-0.46115,0.03754,-0.03923,0.13435,-0.60704,1.06804,-0.36794,-0.13283,-0.05014
308,0.00888,-0.52223,1.07599,-0.45345,0.02609,-0.04593,0.14691,-0.60919,1.06194,-0.36087,-0.1438,-0.05666
309,0.02071,-0.52446,1.07085,-0.44597,0.01605,-0.05234,0.15821,-0.61116,1.05551,-0.35361,-0.15336,-0.0629
310,0.03108,-0.52635,1.0657,-0.43888,0.00762,-0.0584,0.16806,-0.61305,1.04904,-0.34628,-0.16133,-0.0688
311,0.03992,-0.52892,1.06389,-0.43447,0.00062,-0.06382,0.17729,-0.62736,1.07098,-0.35485,-0.16777,-0.07557
312,0.04756,-0.53443,1.0721,-0.43724,-0.00589,-0.06792,0.18822,-0.67697,1.17581,-0.41102,-0.17306,-0.08644
313,0.0541,-0.54181,1.08592,-0.44378,-0.012,-0.07078,0.19976,-0.73693,1.31233,-0.48839,-0.17666,-0.10032
314,0.0595,-0.54953,1.10034,-0.45063,-0.01764,-0.07241,0.20991,-0.78583,1.43704,-0.5646,-0.17747,-0.11537
315,0.06376,-0.55579,1.11033,-0.45456,-0.02278,-0.07285,0.21603,-0.80824,1.51787,-0.62269,-0.17387,-0.12938
316,0.06678,-0.55914,1.1122,-0.45328,-0.0273,-0.0721,0.21574,-0.79605,1.53501,-0.65072,-0.16447,-0.14031
317,0.06861,-0.56224,1.11296,-0.45116,-0.03119,-0.07022,0.21241,-0.7757,1.53919,-0.67348,-0.15223,-0.14986
318,0.06924,-0.56584,1.11445,-0.44924,-0.03443,-0.06727,0.20702,-0.75447,1.54307,-0.69656,-0.13833,-0.15823
319,0.06865,-0.57001,1.11654,-0.44735,-0.03694,-0.06327,0.19974,-0.73337,1.54641,-0.71883,-0.12329,-0.16503
320,0.06678,-0.57476,1.1191,-0.44531,-0.03865,-0.05823,0.19079,-0.71345,1.5491,-0.7393,-0.10767,-0.16992
321,0.06349,-0.57796,1.1164,-0.4395,-0.0394,-0.05212,0.17834,-0.68047,1.51524,-0.73631,-0.09045,-0.17126
322,0.05865,-0.57822,1.10452,-0.42741,-0.03907,-0.04488,0.16212,-0.62493,1.41916,-0.6939,-0.07183,-0.16839
323,0.05225,-0.57762,1.0885,-0.41197,-0.0376,-0.03657,0.1452,-0.55969,1.29007,-0.62867,-0.05457,-0.16276
324,0.04432,-0.57831,1.07374,-0.39645,-0.03498,-0.02725,0.12969,-0.49978,1.16301,-0.56077,-0.04074,-0.15518
325,0.03495,-0.58232,1.06599,-0.38457,-0.03124,-0.01702,0.11687,-0.46658,1.08601,-0.51682,-0.03174,-0.14593
326,0.02433,-0.59005,1.06718,-0.37788,-0.02648,-0.00606,0.10638,-0.47024,1.08307,-0.51049,-0.02688,-0.13528
327,0.01258,-0.59805,1.06861,-0.37114,-0.02077,0.00551,0.09503,-0.47684,1.08525,-0.50633,-0.02142,-0.12399
328,-0.0001,-0.60589,1.0694,-0.36391,-0.01421,0.01752,0.08277,-0.48357,1.08681,-0.50141,-0.01515,-0.11229
329,-0.01362,-0.61344,1.06939,-0.35619,-0.00684,0.02985,0.06971,-0.49031,1.08759,-0.49568,-0.0081,-0.10026
330,-0.0276,-0.62055,1.06842,-0.34798,0.0011,0.04224,0.0562,-0.49693,1.08745,-0.48916,-0.0005,-0.08819
331,-0.04188,-0.6271,1.06641,-0.33933,0.0095,0.05452,0.0424,-0.50332,1.08632,-0.48188,0.00755,-0.07623
332,-0.05623,-0.63303,1.06334,-0.33032,0.01824,0.0665,0.02855,-0.50943,1.08417,-0.47389,0.01591,-0.06457
333,-0.07039,-0.63828,1.05926,-0.32104,0.02715,0.07798,0.01488,-0.5152,1.08104,-0.46529,0.02445,-0.05341
334,-0.08412,-0.64283,1.05426,-0.31163,0.03608,0.08875,0.00163,-0.52061,1.07703,-0.45619,0.03301,-0.04294
335,-0.09718,-0.64671,1.04853,-0.30223,0.04489,0.09862,-0.01097,-0.52566,1.07228,-0.44674,0.04145,-0.03336
336,-0.10933,-0.64995,1.04228,-0.29303,0.05342,0.10739,-0.02266,-0.53039,1.06701,-0.43709,0.04963,-0.02488
337,-0.12033,-0.65264,1.03579,-0.28421,0.06153,0.11487,-0.03324,-0.53486,1.06146,-0.42744,0.0574,-0.01767
338,-0.13076,-0.66768,1.0582,-0.29209,0.07023,0.12071,-0.04245,-0.53977,1.059,-0.42043,0.06438,-0.01164
339,-0.14259,-0.71885,1.16525,-0.34891,0.08245,0.12448,-0.05015,-0.54662,1.06663,-0.42154,0.06974,-0.00602
340,-0.1553,-0.78048,1.30465,-0.42808,0.09749,0.12622,-0.05628,-0.55454,1.08018,-0.42746,0.07344,-0.00084
341,-0.16772,-0.83039,1.43227,-0.50752,0.11402,0.1257,-0.06079,-0.56214,1.09479,-0.43468,0.07545,0.00382
342,-0.17794,-0.85234,1.51584,-0.57098,0.13017,0.12221,-0.0636,-0.56775,1.10557,-0.43997,0.07578,0.00786
343,-0.18406,-0.83769,1.53533,-0.60676,0.14407,0.11499,-0.06471,-0.57003,1.10878,-0.44093,0.07445,0.01124
344,-0.18858,-0.81403,1.5412,-0.63782,0.15726,0.10613,-0.06414,-0.57168,1.11131,-0.44176,0.07153,0.01391
345,-0.19263,-0.78894,1.54582,-0.66898,0.1702,0.09686,-0.06233,-0.57348,1.11462,-0.44315,0.06738,0.01612
346,-0.19589,-0.76355,1.54904,-0.69885,0.18222,0.08746,-0.05914,-0.57554,1.11862,-0.4449,0.06194,0.01772
347,-0.19806,-0.7391,1.55092,-0.72619,0.19269,0.07821,-0.05457,-0.57796,1.12309,-0.44673,0.05525,0.01867
348,-0.19636,-0.7013,1.51587,-0.72929,0.19908,0.06779,-0.04861,-0.57868,1.1223,-0.44496,0.04733,0.01892
349,-0.18911,-0.64103,1.41853,-0.69168,0.19968,0.05558,-0.04127,-0.57639,1.1123,-0.43699,0.03824,0.01843
350,-0.17849,-0.57195,1.28849,-0.62955,0.19575,0.04353,-0.03262,-0.57321,1.098,-0.42562,0.02807,0.0172
351,-0.16621,-0.50968,1.1612,-0.56307,0.18817,0.03327,-0.02266,-0.57133,1.08472,-0.41402,0.01684,0.01518
352,-0.15341,-0.47612,1.08501,-0.5189,0.17739,0.02607,-0.01134,-0.57279,1.0781,-0.40583,0.00458,0.0123
353,-0.14042,-0.48115,1.08361,-0.51095,0.16411,0.02167,0.00126,-0.57792,1.08003,-0.4026,-0.00863,0.00855
354,-0.12643,-0.48872,1.08718,-0.50547,0.14996,0.01673,0.01493,-0.58324,1.08209,-0.39946,-0.02259,0.00402
355,-0.11157,-0.49585,1.08993,-0.49969,0.13527,0.01112,0.02945,-0.58835,1.08342,-0.39595,-0.03707,-0.00121
356,-0.0961,-0.50243,1.0917,-0.49359,0.12025,0.00497,0.04455,-0.59314,1.08384,-0.39201,-0.05185,-0.00702
357,-0.08027,-0.50836,1.09237,-0.48717,0.10514,-0.00163,0.06,-0.59753,1.08324,-0.38763,-0.06668,-0.0133
358,-0.06434,-0.51361,1.09189,-0.48047,0.09018,-0.00856,0.07551,-0.60147,1.08155,-0.38278,-0.08132,-0.01994
359,-0.04806,-0.51841,1.0902,-0.47315,0.07522,-0.01602,0.09132,-0.6052,1.07859,-0.37704,-0.0959,-0.02713
360,-0.03251,-0.52228,1.08747,-0.46592,0.06113,-0.02338,0.1064,-0.60825,1.0747,-0.37115,-0.10959,-0.03427
361,-0.01761,-0.52548,1.08381,-0.4586,0.0479,-0.03075,0.12081,-0.61086,1.06989,-0.36485,-0.1224,-0.04143
362,-0.00363,-0.52805,1.07943,-0.45132,0.03578,-0.038,0.13428,-0.6131,1.06434,-0.35824,-0.13408,-0.04851
363,0.00915,-0.5301,1.07459,-0.44422,0.025,-0.04503,0.14656,-0.61506,1.05831,-0.35139,-0.14441,-0.05537
364,0.02049,-0.53173,1.06958,-0.43746,0.01582,-0.05171,0.15741,-0.61685,1.05207,-0.34443,-0.15315,-0.06189
365,0.03025,-0.53401,1.06779,-0.43332,0.00811,-0.0577,0.16752,-0.63102,1.07406,-0.35323,-0.16027,-0.06923
366,0.0387,-0.5392,1.07591,-0.43626,0.00098,-0.06232,0.1791,-0.6805,1.17868,-0.40936,-0.16606,-0.0805
367,0.04596,-0.54627,1.08957,-0.44293,-0.0057,-0.06563,0.19115,-0.74038,1.31495,-0.48659,-0.17006,-0.0947
368,0.05207,-0.55367,1.10375,-0.44984,-0.01189,-0.06771,0.20182,-0.78925,1.43942,-0.56265,-0.17127,-0.11009
369,0.05696,-0.55962,1.11352,-0.45383,-0.01752,-0.06855,0.20848,-0.81162,1.52007,-0.62067,-0.16809,-0.12446
370,0.06054,-0.56268,1.11515,-0.4526,-0.02247,-0.06815,0.20881,-0.79934,1.53707,-0.64876,-0.15915,-0.1358
371,0.06288,-0.5655,1.11569,-0.45052,-0.02676,-0.0666,0.20606,-0.77889,1.54111,-0.67159,-0.14736,-0.14575
372,0.06397,-0.56885,1.11694,-0.44862,-0.03035,-0.06393,0.2012,-0.75756,1.54485,-0.69473,-0.13386,-0.15447
373,0.06379,-0.57276,1.11878,-0.44673,-0.03318,-0.06019,0.19439,-0.73635,1.54803,-0.71706,-0.11916,-0.16159
374,0.06183,-0.5774,1.12136,-0.44481,-0.03481,-0.05509,0.18534,-0.71641,1.55074,-0.7376,-0.10346,-0.16643
375,0.05883,-0.58039,1.11844,-0.439,-0.0358,-0.04916,0.17328,-0.6833,1.51673,-0.73469,-0.08654,-0.16804
376,0.05427,-0.58045,1.10635,-0.4269,-0.03568,-0.0421,0.15751,-0.62756,1.42052,-0.69242,-0.06826,-0.16547
377,0.04814,-0.57966,1.09011,-0.41145,-0.03442,-0.03396,0.14101,-0.56211,1.2913,-0.62734,-0.05133,-0.16011
378,0.04043,-0.58017,1.07513,-0.39591,-0.03197,-0.02478,0.12584,-0.50201,1.16411,-0.55955,-0.03776,-0.15275
379,0.03124,-0.584,1.06715,-0.38399,-0.02837,-0.01467,0.11326,-0.46862,1.08694,-0.51564,-0.02894,-0.14365
380,0.02078,-0.59156,1.0681,-0.37723,-0.02374,-0.00381,0.10293,-0.4721,1.08378,-0.50928,-0.0242,-0.1331
381,0.00918,-0.59939,1.06929,-0.37043,-0.01814,0.00766,0.09172,-0.47853,1.08574,-0.50508,-0.01886,-0.12191
382,-0.00336,-0.60707,1.06985,-0.36315,-0.01169,0.01958,0.0796,-0.48509,1.08708,-0.50012,-0.01269,-0.11029
383,-0.01661,-0.61445,1.0696,-0.35537,-0.00452,0.03175,0.0668,-0.49165,1.08765,-0.49438,-0.00584,-0.09842
384,-0.03035,-0.62139,1.06841,-0.34712,0.00322,0.04398,0.05353,-0.49809,1.08733,-0.48787,0.00157,-0.08651
385,-0.04433,-0.6278,1.06621,-0.33845,0.0114,0.05607,0.04003,-0.50432,1.08604,-0.48061,0.00939,-0.07473
386,-0.05831,-0.63359,1.063,-0.32944,0.01985,0.06782,0.02652,-0.51026,1.08379,-0.47269,0.01748,-0.06329
387,-0.07206,-0.63872,1.05882,-0.32019,0.02845,0.07904,0.01326,-0.51589,1.08061,-0.4642,0.02571,-0.05238
388,-0.08533,-0.64319,1.0538,-0.31084,0.03702,0.08952,0.00046,-0.52117,1.07662,-0.45524,0.03391,-0.0422
389,-0.09922,-0.647,1.04781,-0.30128,0.04647,0.09992,-0.01296,-0.52623,1.0715,-0.44544,0.04299,-0.0321
390,-0.11119,-0.65016,1.0415,-0.29211,0.05486,0.10857,-0.02448,-0.53086,1.06618,-0.43585,0.05104,-0.02372
391,-0.12203,-0.65278,1.03498,-0.28332,0.06284,0.11595,-0.03489,-0.53524,1.0606,-0.42627,0.05868,-0.01662
392,-0.13286,-0.66966,1.06111,-0.29312,0.07195,0.12193,-0.04437,-0.54038,1.05831,-0.41921,0.06585,-0.0104
393,-0.14527,-0.72509,1.17787,-0.3555,0.08496,0.12566,-0.0522,-0.54764,1.06697,-0.42095,0.07124,-0.00462
394,-0.15857,-0.78932,1.32478,-0.4397,0.10095,0.12716,-0.05831,-0.55595,1.08164,-0.4276,0.07481,0.00069
395,-0.17128,-0.83766,1.45287,-0.52131,0.11832,0.12608,-0.06263,-0.56366,1.09667,-0.43512,0.07653,0.0054
396,-0.18104,-0.85209,1.52594,-0.58186,0.13478,0.12149,-0.06507,-0.56879,1.10639,-0.43982,0.0764,0.00943
397,-0.1866,-0.83104,1.5367,-0.61535,0.1489,0.11314,-0.06569,-0.57066,1.10877,-0.44034,0.0745,0.01274
398,-0.19125,-0.80562,1.54249,-0.64816,0.16276,0.10369,-0.06473,-0.5724,1.11169,-0.44143,0.07104,0.01542
399,-0.19515,-0.77904,1.54684,-0.68056,0.176,0.09382,-0.06222,-0.57437,1.1155,-0.44312,0.06613,0.01747
400,-0.19806,-0.75265,1.54964,-0.71097,0.18796,0.08394,-0.0582,-0.57667,1.11998,-0.44507,0.05981,0.01883
401,-0.19901,-0.72423,1.54263,-0.7332,0.19743,0.07399,-0.05267,-0.57891,1.12358,-0.44618,0.05214,0.01946
402,-0.19382,-0.67035,1.46788,-0.71217,0.20074,0.06177,-0.0456,-0.57774,1.11712,-0.4406,0.04313,0.01929
403,-0.18387,-0.60003,1.3421,-0.6557,0.19845,0.04877,-0.03707,-0.57453,1.10344,-0.42986,0.03291,0.01831
404,-0.16919,-0.52963,1.20323,-0.58551,0.1901,0.03563,-0.02488,-0.57205,1.08947,-0.4181,0.01979,0.01509
405,-0.1559,-0.4817,1.09955,-0.52816,0.1799,0.02696,-0.0135,-0.57219,1.07954,-0.40788,0.0073,0.01239
406,-0.14252,-0.47928,1.08298,-0.51243,0.16657,0.02198,-0.00074,-0.57682,1.07981,-0.40348,-0.00623,0.00877
407,-0.1282,-0.48728,1.08678,-0.50669,0.15199,0.01706,0.01323,-0.58238,1.082,-0.40021,-0.02061,0.00428
408,-0.1129,-0.49484,1.08974,-0.50063,0.13677,0.0114,0.02817,-0.58774,1.08344,-0.39654,-0.03561,-0.00099
409,-0.0969,-0.50181,1.09165,-0.49421,0.12116,0.00511,0.0438,-0.59279,1.08392,-0.39242,-0.05096,-0.00691
410,-0.08045,-0.5081,1.09238,-0.48746,0.10542,-0.00169,0.05983,-0.59741,1.0833,-0.38781,-0.06641,-0.01336
411,-0.06387,-0.51363,1.09187,-0.48041,0.08982,-0.00886,0.07598,-0.60154,1.08152,-0.38271,-0.08168,-0.02023
412,-0.04745,-0.51837,1.09014,-0.47311,0.07464,-0.01627,0.09193,-0.60514,1.07857,-0.37712,-0.09648,-0.02738
413,-0.0315,-0.52231,1.08729,-0.46568,0.06017,-0.02379,0.1074,-0.60822,1.07453,-0.37109,-0.11055,-0.03468
414,-0.01633,-0.52552,1.08349,-0.45821,0.04669,-0.03129,0.12206,-0.61083,1.06956,-0.36468,-0.12359,-0.04197
415,-0.00224,-0.52806,1.079,-0.45086,0.03449,-0.03863,0.13564,-0.61305,1.06389,-0.35798,-0.13534,-0.04913
416,0.01045,-0.53004,1.07411,-0.44379,0.02385,-0.04567,0.14783,-0.61499,1.05781,-0.35109,-0.14553,-0.05601
417,0.02146,-0.53161,1.06918,-0.43717,0.01504,-0.05229,0.15836,-0.6168,1.05164,-0.34414,-0.1539,-0.06248
418,0.03078,-0.53494,1.07111,-0.43572,0.00755,-0.05785,0.16898,-0.64482,1.10545,-0.37092,-0.16059,-0.07116
419,0.03869,-0.54126,1.0828,-0.44111,0.00061,-0.06187,0.18095,-0.70369,1.23418,-0.44171,-0.16562,-0.08396
420,0.0453,-0.54899,1.09838,-0.44905,-0.00579,-0.06447,0.19263,-0.76363,1.37669,-0.52496,-0.16825,-0.09923
421,0.05058,-0.55623,1.11211,-0.45568,-0.01161,-0.06569,0.20151,-0.80318,1.4894,-0.5982,-0.16702,-0.11474
422,0.05443,-0.5608,1.11821,-0.45739,-0.01672,-0.06553,0.20431,-0.80642,1.5378,-0.64252,-0.15992,-0.12776
423,0.05683,-0.56349,1.11887,-0.45555,-0.02106,-0.06402,0.20169,-0.78549,1.5422,-0.66624,-0.14791,-0.13818
424,0.05783,-0.56672,1.12037,-0.454,-0.02461,-0.06125,0.19664,-0.76316,1.54638,-0.6908,-0.13375,-0.1474
425,0.05738,-0.57054,1.12257,-0.45256,-0.02731,-0.05724,0.1893,-0.74055,1.54996,-0.71485,-0.11801,-0.15494
426,0.05543,-0.57499,1.12534,-0.45102,-0.02906,-0.05202,0.17988,-0.71887,1.55279,-0.73719,-0.10134,-0.1604
427,0.05187,-0.57872,1.12494,-0.447,-0.02974,-0.04556,0.16745,-0.68959,1.53198,-0.74357,-0.08344,-0.16261
428,0.0465,-0.57901,1.11403,-0.43584,-0.02915,-0.03781,0.15054,-0.63424,1.44031,-0.70537,-0.06366,-0.16007
429,0.03932,-0.57798,1.09768,-0.42052,-0.02724,-0.02879,0.13243,-0.56607,1.30725,-0.63913,-0.04499,-0.1543
430,0.03031,-0.57808,1.08206,-0.40474,-0.02397,-0.01858,0.11554,-0.50186,1.17214,-0.5675,-0.0298,-0.14622
431,0.01959,-0.58166,1.07373,-0.39273,-0.01936,-0.00729,0.10129,-0.46563,1.08916,-0.52066,-0.01965,-0.1361
432,0.00749,-0.58917,1.07482,-0.38619,-0.01362,0.00482,0.08932,-0.46893,1.08573,-0.51426,-0.01381,-0.1243
433,-0.00573,-0.59691,1.0759,-0.37939,-0.00693,0.01751,0.07648,-0.47517,1.0872,-0.50983,-0.00736,-0.11188
434,-0.01977,-0.60447,1.07603,-0.37187,0.00054,0.03055,0.06286,-0.48154,1.08783,-0.50441,-0.00018,-0.09913
435,-0.03433,-0.61168,1.07504,-0.36359,0.0086,0.0437,0.04876,-0.48792,1.08747,-0.49799,0.00755,-0.0863
436,-0.04912,-0.61845,1.07284,-0.35459,0.01707,0.0567,0.03445,-0.49423,1.08605,-0.49061,0.01567,-0.07361
437,-0.06387,-0.62468,1.06941,-0.34496,0.02578,0.06935,0.0202,-0.50038,1.08356,-0.48232,0.02401,-0.06129
438,-0.07831,-0.63031,1.0648,-0.33482,0.03458,0.08141,0.00627,-0.50633,1.08005,-0.47325,0.03241,-0.04955
439,-0.09221,-0.63531,1.05916,-0.32434,0.04332,0.09269,-0.0071,-0.51203,1.07564,-0.46355,0.04075,-0.03861
440,-0.10532,-0.63969,1.0527,-0.31373,0.05186,0.10297,-0.0197,-0.51748,1.07052,-0.45338,0.04888,-0.02864
441,-0.11744,-0.64347,1.04566,-0.30322,0.06008,0.11208,-0.03132,-0.52268,1.06488,-0.44296,0.05671,-0.01985
442,-0.12838,-0.64669,1.03836,-0.29306,0.06787,0.11983,-0.04177,-0.52767,1.05899,-0.43249,0.06413,-0.0124
443,-0.13811,-0.65189,1.03665,-0.2866,0.07537,0.12605,-0.05089,-0.53261,1.05371,-0.42266,0.07101,-0.0064
444,-0.14913,-0.69397,1.12026,-0.32898,0.08616,0.13028,-0.05851,-0.53938,1.05818,-0.42073,0.07647,-0.00103
445,-0.16165,-0.75812,1.2611,-0.40706,0.10062,0.13243,-0.06455,-0.54777,1.07117,-0.42562,0.08019,0.00398
446,-0.1744,-0.81593,1.40191,-0.49186,0.11729,0.13228,-0.06891,-0.55633,1.087,-0.43311,0.08213,0.00849
447,-0.18526,-0.8471,1.50244,-0.56322,0.13405,0.12904,-0.07146,-0.56317,1.09997,-0.43935,0.08225,0.01238
448,-0.19166,-0.83768,1.53263,-0.60462,0.14849,0.12163,-0.07222,-0.5664,1.10482,-0.44099,0.0806,0.01559
449,-0.19601,-0.81349,1.53873,-0.63655,0.16198,0.11215,-0.07136,-0.56838,1.10753,-0.44163,0.07737,0.01819
450,-0.19972,-0.7876,1.54363,-0.66887,0.17514,0.10208,-0.06902,-0.57052,1.11125,-0.44303,0.07269,0.02019
451,-0.20262,-0.76129,1.54705,-0.69993,0.18737,0.09186,-0.0652,-0.57294,1.11573,-0.44486,0.06662,0.02157
452,-0.20437,-0.73599,1.54905,-0.72827,0.19793,0.08186,-0.05993,-0.57573,1.12074,-0.4468,0.05923,0.02227
453,-0.20157,-0.69441,1.5066,-0.72765,0.20376,0.07039,-0.05316,-0.57642,1.11934,-0.4444,0.05051,0.02222
454,-0.19288,-0.6295,1.39857,-0.68378,0.20332,0.05713,-0.04492,-0.57399,1.10828,-0.43545,0.04055,0.02138
455,-0.18083,-0.55716,1.25979,-0.61597,0.19811,0.04437,-0.0353,-0.57094,1.09334,-0.42327,0.02943,0.01976
456,-0.16735,-0.49653,1.1336,-0.54876,0.18908,0.03396,-0.02425,-0.56978,1.08075,-0.41161,0.0172,0.01727
457,-0.15366,-0.47476,1.07941,-0.51466,0.17669,0.02732,-0.01177,-0.5728,1.0771,-0.4048,0.00387,0.01385
458,-0.13953,-0.48309,1.08392,-0.5092,0.16222,0.02254,0.00203,-0.57863,1.07994,-0.4018,-0.01043,0.00952
459,-0.1243,-0.49103,1.08767,-0.50342,0.147,0.01696,0.01693,-0.58432,1.08213,-0.39844,-0.02546,0.00436
460,-0.10823,-0.49842,1.09041,-0.49729,0.13128,0.0107,0.03264,-0.58972,1.08341,-0.39464,-0.04096,-0.00151
461,-0.0914,-0.50525,1.092,-0.4907,0.11515,0.00375,0.04907,-0.59483,1.08358,-0.39023,-0.05682,-0.00809
462,-0.07438,-0.51129,1.09229,-0.48378,0.0991,-0.00358,0.06568,-0.5994,1.08254,-0.38533,-0.07257,-0.0151
463,-0.05735,-0.51654,1.09126,-0.47655,0.08332,-0.01122,0.08225,-0.60345,1.08025,-0.37989,-0.08799,-0.02246
464,-0.04063,-0.52098,1.08898,-0.46905,0.0681,-0.01906,0.09849,-0.60696,1.07673,-0.37391,-0.10281,-0.03003
465,-0.02453,-0.52464,1.08558,-0.46142,0.05373,-0.02694,0.11408,-0.60995,1.07211,-0.36746,-0.11675,-0.03769
466,-0.00936,-0.52758,1.08128,-0.45376,0.0405,-0.03473,0.12873,-0.61249,1.06658,-0.36061,-0.12952,-0.04529
467,0.00457,-0.5299,1.07635,-0.44625,0.02869,-0.0423,0.14213,-0.61467,1.0604,-0.35346,-0.14086,-0.05268
468,0.01696,-0.53171,1.07114,-0.43907,0.01858,-0.04951,0.154,-0.61664,1.0539,-0.34614,-0.1505,-0.05972
469,0.02758,-0.53387,1.06829,-0.43397,0.01021,-0.05605,0.16472,-0.62777,1.06836,-0.35051,-0.1583,-0.0672
470,0.0367,-0.53912,1.07613,-0.43656,0.00256,-0.06111,0.1769,-0.67764,1.17307,-0.40638,-0.16459,-0.07882
471,0.0445,-0.54651,1.09034,-0.44346,-0.00457,-0.06471,0.18964,-0.74045,1.31565,-0.48706,-0.16891,-0.09372
472,0.05101,-0.55425,1.10512,-0.45062,-0.01115,-0.06693,0.20085,-0.79118,1.44535,-0.56651,-0.17014,-0.10993
473,0.05616,-0.56028,1.11474,-0.45439,-0.0171,-0.06779,0.20748,-0.81198,1.52517,-0.62519,-0.16643,-0.12488
474,0.05986,-0.56329,1.11583,-0.45268,-0.0223,-0.06728,0.20732,-0.79646,1.53817,-0.65239,-0.15657,-0.13656
475,0.06203,-0.56637,1.11656,-0.45054,-0.02664,-0.06541,0.20397,-0.7748,1.54238,-0.67647,-0.14379,-0.14678
476,0.06294,-0.57001,1.11799,-0.44854,-0.03027,-0.06239,0.19845,-0.75236,1.54615,-0.70062,-0.12933,-0.15563
477,0.06243,-0.57427,1.12004,-0.4465,-0.03306,-0.0582,0.19084,-0.73032,1.54926,-0.72359,-0.11371,-0.16262
478,0.06045,-0.57899,1.12197,-0.44386,-0.03489,-0.05282,0.18118,-0.7083,1.54786,-0.74209,-0.09744,-0.16721
479,0.05676,-0.58072,1.11468,-0.43493,-0.03555,-0.04619,0.16675,-0.66304,1.48427,-0.7217,-0.07885,-0.16712
480,0.05132,-0.58013,1.09946,-0.42033,-0.03496,-0.03832,0.14961,-0.59857,1.36471,-0.66493,-0.06001,-0.16308
481,0.04413,-0.57968,1.0823,-0.4036,-0.03307,-0.02927,0.1328,-0.53029,1.22492,-0.59234,-0.04374,-0.15643
482,0.03522,-0.58179,1.06966,-0.38875,-0.02988,-0.01912,0.11821,-0.47874,1.11193,-0.53049,-0.03199,-0.14775
483,0.02482,-0.58847,1.06763,-0.37991,-0.02549,-0.00805,0.10682,-0.46964,1.08294,-0.51078,-0.02586,-0.13724
484,0.01309,-0.59669,1.06904,-0.37294,-0.01999,0.00376,0.09549,-0.4763,1.08517,-0.50665,-0.02062,-0.12571
485,0.00024,-0.60482,1.06985,-0.36544,-0.01351,0.01613,0.08307,-0.48315,1.08679,-0.50169,-0.01443,-0.11365
486,-0.01347,-0.61266,1.06981,-0.35741,-0.0062,0.02884,0.06983,-0.49005,1.08761,-0.49588,-0.00743,-0.10126
487,-0.02778,-0.62006,1.06877,-0.34884,0.00179,0.04167,0.056,-0.49684,1.08747,-0.48921,0.00021,-0.08875
488,-0.04241,-0.62688,1.06664,-0.3398,0.01029,0.05439,0.04187,-0.50342,1.08629,-0.48173,0.00834,-0.07636
489,-0.05709,-0.63304,1.06338,-0.33037,0.01913,0.06678,0.02769,-0.50969,1.08404,-0.47349,0.0168,-0.06431
490,-0.07244,-0.63851,1.05898,-0.32057,0.02883,0.07916,0.01286,-0.51572,1.08056,-0.46431,0.0261,-0.05225
491,-0.08667,-0.64319,1.05362,-0.31069,0.03806,0.09036,-0.00087,-0.52127,1.07624,-0.4548,0.03494,-0.04136
492,-0.10015,-0.64713,1.04748,-0.30084,0.04713,0.10057,-0.01386,-0.52644,1.07115,-0.44491,0.04364,-0.03146
493,-0.11261,-0.6504,1.04082,-0.29123,0.0559,0.10955,-0.02586,-0.53127,1.06553,-0.43484,0.05204,-0.02277
494,-0.1238,-0.65308,1.03397,-0.28207,0.06419,0.11709,-0.0366,-0.53584,1.05966,-0.42479,0.05999,-0.01552
495,-0.13477,-0.67581,1.0735,-0.29949,0.07376,0.12275,-0.04582,-0.54126,1.05887,-0.41895,0.06691,-0.0094
496,-0.14736,-0.73436,1.19832,-0.36688,0.08725,0.12615,-0.05338,-0.54876,1.06873,-0.42166,0.07202,-0.0037
497,-0.16066,-0.79763,1.34512,-0.45199,0.10355,0.12731,-0.05922,-0.5571,1.08381,-0.42867,0.07531,0.00152
498,-0.1731,-0.84213,1.46742,-0.53167,0.12093,0.12579,-0.06325,-0.56457,1.09844,-0.43602,0.07675,0.00613
499,-0.18218,-0.85046,1.52988,-0.5877,0.13702,0.12058,-0.06541,-0.56916,1.10693,-0.44001,0.07635,0.01004
