YechanE/asmr2025-Humanoid-Lowlevel/joints_timeseries_fast2.csv
Frame_Index,leg_left_ankle_roll_joint,leg_left_ankle_pitch_joint,leg_left_knee_pitch_joint,leg_left_hip_pitch_joint,leg_left_hip_yaw_joint,leg_left_hip_roll_joint,leg_right_ankle_roll_joint,leg_right_ankle_pitch_joint,leg_right_knee_pitch_joint,leg_right_hip_pitch_joint,leg_right_hip_yaw_joint,leg_right_hip_roll_joint
0,-0.04242,-0.56152,1.0873,-0.42674,0.03282,0.02688,0.05604,-0.562,1.08841,-0.4277,-0.04336,-0.03553
1,-0.04297,-0.56155,1.08736,-0.42679,0.03324,0.02722,0.0555,-0.56199,1.08838,-0.42767,-0.04294,-0.03518
2,-0.04383,-0.56159,1.08745,-0.42686,0.03391,0.02777,0.05464,-0.56197,1.08833,-0.42762,-0.04228,-0.03463
3,-0.04499,-0.56164,1.08757,-0.42695,0.03481,0.0285,0.05348,-0.56194,1.08826,-0.42755,-0.04138,-0.0339
4,-0.04643,-0.5617,1.08771,-0.42706,0.03592,0.02942,0.05203,-0.5619,1.08817,-0.42745,-0.04026,-0.03298
5,-0.04815,-0.56177,1.08786,-0.42719,0.03725,0.03051,0.05031,-0.56184,1.08804,-0.42734,-0.03893,-0.03189
6,-0.05014,-0.56184,1.08802,-0.42733,0.03879,0.03177,0.04833,-0.56177,1.08788,-0.4272,-0.0374,-0.03063
7,-0.05239,-0.56191,1.08819,-0.42748,0.04053,0.0332,0.04608,-0.56169,1.08768,-0.42703,-0.03566,-0.0292
8,-0.05491,-0.56198,1.08835,-0.42763,0.04248,0.0348,0.04356,-0.56157,1.08743,-0.42684,-0.03371,-0.02761
9,-0.0577,-0.56204,1.08849,-0.4278,0.04464,0.03657,0.04076,-0.56144,1.08711,-0.42661,-0.03154,-0.02583
10,-0.06078,-0.56208,1.08861,-0.42796,0.04702,0.03853,0.03768,-0.56127,1.08673,-0.42633,-0.02916,-0.02388
11,-0.06434,-0.56211,1.0887,-0.42813,0.04977,0.04078,0.03412,-0.56104,1.08624,-0.426,-0.0264,-0.02162
12,-0.06805,-0.56212,1.08873,-0.42828,0.05264,0.04314,0.0304,-0.56079,1.08567,-0.42563,-0.02353,-0.01927
13,-0.07211,-0.56209,1.0887,-0.42841,0.05578,0.04572,0.02634,-0.56047,1.08498,-0.42519,-0.02039,-0.01669
14,-0.07653,-0.56202,1.08859,-0.42853,0.05919,0.04853,0.02191,-0.56009,1.08414,-0.42469,-0.01696,-0.01389
15,-0.08134,-0.5619,1.08837,-0.42862,0.06292,0.05159,0.01708,-0.55963,1.08314,-0.4241,-0.01322,-0.01083
16,-0.08659,-0.56172,1.08802,-0.42867,0.06697,0.05493,0.01182,-0.55908,1.08193,-0.4234,-0.00915,-0.00749
17,-0.09231,-0.56146,1.08751,-0.42867,0.07139,0.05857,0.00609,-0.55841,1.08047,-0.42259,-0.00472,-0.00386
18,-0.09853,-0.5611,1.08679,-0.4286,0.0762,0.06253,-0.00016,-0.5576,1.07873,-0.42164,0.00012,9e-05
19,-0.10528,-0.56062,1.08582,-0.42845,0.08141,0.06683,-0.00693,-0.55664,1.07664,-0.42054,0.00536,0.00438
20,-0.11235,-0.56001,1.08459,-0.4282,0.08686,0.07134,-0.01403,-0.55552,1.07424,-0.41928,0.01085,0.00888
21,-0.11898,-0.56478,1.09477,-0.434,0.09199,0.07558,-0.0204,-0.55487,1.07322,-0.41897,0.01578,0.01292
22,-0.12647,-0.60632,1.18321,-0.48135,0.09776,0.08036,-0.02539,-0.55759,1.08205,-0.42514,0.01964,0.01607
23,-0.13479,-0.67079,1.32071,-0.55491,0.10418,0.08569,-0.02907,-0.56314,1.09843,-0.43601,0.02249,0.01841
24,-0.14187,-0.72982,1.44694,-0.6226,0.10964,0.09022,-0.03107,-0.56914,1.11516,-0.44678,0.02404,0.01968
25,-0.14635,-0.77084,1.53491,-0.66987,0.11309,0.09309,-0.03156,-0.57383,1.12778,-0.45471,0.02442,0.01999
26,-0.14627,-0.7819,1.5586,-0.6825,0.11303,0.09304,-0.03049,-0.57537,1.1317,-0.45707,0.02359,0.01931
27,-0.14336,-0.78221,1.55912,-0.6825,0.11078,0.09117,-0.02788,-0.57589,1.13273,-0.45755,0.02157,0.01765
28,-0.13873,-0.78265,1.5599,-0.68251,0.10721,0.08821,-0.02373,-0.57666,1.13431,-0.4583,0.01836,0.01502
29,-0.13233,-0.78321,1.56088,-0.6825,0.10228,0.08411,-0.018,-0.57767,1.13638,-0.45931,0.01393,0.01139
30,-0.1241,-0.78385,1.56198,-0.68244,0.09593,0.07884,-0.01063,-0.57887,1.13884,-0.46052,0.00822,0.00673
31,-0.11307,-0.77386,1.54022,-0.67003,0.08742,0.0718,-0.00155,-0.57892,1.1382,-0.4598,0.0012,0.00098
32,-0.0982,-0.73369,1.4538,-0.623,0.07594,0.06232,0.00929,-0.57561,1.12842,-0.45334,-0.00719,-0.00589
33,-0.08133,-0.67509,1.32832,-0.55537,0.06291,0.05158,0.02192,-0.57068,1.11383,-0.44379,-0.01697,-0.01389
34,-0.0637,-0.61328,1.19635,-0.48459,0.04928,0.04038,0.03642,-0.56594,1.09926,-0.43417,-0.02818,-0.02308
35,-0.04588,-0.5691,1.10206,-0.434,0.0355,0.02907,0.05274,-0.56303,1.08973,-0.4279,-0.04081,-0.03343
36,-0.02817,-0.56137,1.08506,-0.42441,0.02179,0.01784,0.07028,-0.56286,1.0885,-0.42737,-0.05437,-0.04457
37,-0.01019,-0.56002,1.08117,-0.4217,0.00789,0.00646,0.08821,-0.56278,1.08755,-0.42719,-0.06823,-0.05597
38,0.00753,-0.5583,1.07589,-0.41813,-0.00583,-0.00477,0.10587,-0.56233,1.08518,-0.42612,-0.08187,-0.06721
39,0.02449,-0.55638,1.06943,-0.41373,-0.01895,-0.01551,0.12275,-0.56164,1.08154,-0.42413,-0.09489,-0.07799
40,0.04027,-0.55444,1.06213,-0.40861,-0.03116,-0.02552,0.13844,-0.56087,1.0769,-0.42126,-0.10699,-0.08803
41,0.0546,-0.5527,1.05433,-0.40289,-0.04224,-0.0346,0.15265,-0.56021,1.07155,-0.4176,-0.11795,-0.09715
42,0.06727,-0.55134,1.04643,-0.39672,-0.05204,-0.04264,0.16522,-0.55984,1.06585,-0.41327,-0.12762,-0.10522
43,0.07819,-0.55051,1.03873,-0.39024,-0.06048,-0.04958,0.17603,-0.55988,1.06009,-0.40838,-0.13594,-0.1122
44,0.08735,-0.55033,1.0315,-0.38357,-0.06756,-0.05541,0.1851,-0.56046,1.05453,-0.40305,-0.14291,-0.11805
45,0.09481,-0.55085,1.02492,-0.3768,-0.07333,-0.06016,0.19248,-0.56162,1.04933,-0.39738,-0.14858,-0.12283
46,0.10073,-0.55209,1.01906,-0.36999,-0.0779,-0.06393,0.19832,-0.56339,1.04459,-0.39144,-0.15307,-0.12661
47,0.10529,-0.55399,1.0139,-0.36316,-0.08142,-0.06684,0.20282,-0.56572,1.04032,-0.38529,-0.15652,-0.12953
48,0.10893,-0.55719,1.01135,-0.3576,-0.08423,-0.06916,0.20712,-0.57568,1.05425,-0.38971,-0.15982,-0.13232
49,0.11177,-0.56422,1.02141,-0.36078,-0.08642,-0.07097,0.21462,-0.61941,1.15936,-0.45187,-0.16557,-0.1372
50,0.11374,-0.57395,1.0396,-0.36936,-0.08794,-0.07223,0.22412,-0.67168,1.30478,-0.54607,-0.17284,-0.14339
51,0.11468,-0.58436,1.05944,-0.37884,-0.08866,-0.07283,0.23319,-0.70744,1.43772,-0.64428,-0.17979,-0.14932
52,0.11443,-0.59311,1.07445,-0.38508,-0.08848,-0.07267,0.23861,-0.71036,1.51987,-0.72416,-0.18394,-0.15287
53,0.11291,-0.59847,1.08011,-0.3853,-0.0873,-0.0717,0.23785,-0.67567,1.53089,-0.76977,-0.18335,-0.15237
54,0.11033,-0.60393,1.0848,-0.38438,-0.08531,-0.07005,0.23511,-0.63226,1.52783,-0.8098,-0.18126,-0.15058
55,0.10671,-0.61028,1.08988,-0.38292,-0.08251,-0.06774,0.23122,-0.5871,1.52138,-0.84805,-0.17828,-0.14803
56,0.10201,-0.61759,1.09499,-0.38048,-0.07889,-0.06475,0.22613,-0.54268,1.51207,-0.88258,-0.17438,-0.1447
57,0.09619,-0.62575,1.09934,-0.37638,-0.07439,-0.06104,0.21959,-0.50079,1.49852,-0.91019,-0.16938,-0.14044
58,0.08907,-0.63069,1.09267,-0.36445,-0.06889,-0.05651,0.20772,-0.44496,1.42557,-0.8918,-0.16028,-0.13271
59,0.08066,-0.63284,1.07546,-0.34474,-0.06239,-0.05115,0.19183,-0.37787,1.29661,-0.82835,-0.14808,-0.12241
60,0.07096,-0.63522,1.05414,-0.32068,-0.0549,-0.04499,0.17505,-0.31204,1.14817,-0.74421,-0.13519,-0.11157
61,0.05998,-0.64089,1.03577,-0.29629,-0.04641,-0.03802,0.15943,-0.26677,1.02971,-0.66972,-0.12316,-0.1015
62,0.0478,-0.65254,1.02766,-0.2762,-0.03699,-0.03029,0.1461,-0.26956,1.00512,-0.64133,-0.1129,-0.09294
63,0.03447,-0.66652,1.02258,-0.25688,-0.02668,-0.02184,0.13282,-0.29252,1.01967,-0.632,-0.10266,-0.08443
64,0.02016,-0.68028,1.01534,-0.23569,-0.0156,-0.01277,0.11854,-0.31598,1.03301,-0.621,-0.09165,-0.0753
65,0.00495,-0.69357,1.00557,-0.21253,-0.00383,-0.00313,0.10335,-0.33974,1.04479,-0.60819,-0.07992,-0.06561
66,-0.01079,-0.70594,0.99307,-0.18769,0.00835,0.00683,0.08762,-0.36328,1.05457,-0.59369,-0.06777,-0.05559
67,-0.02684,-0.71714,0.97767,-0.16124,0.02077,0.017,0.07156,-0.38635,1.06214,-0.57757,-0.05536,-0.04538
68,-0.04294,-0.72693,0.9593,-0.13335,0.03322,0.0272,0.05543,-0.40868,1.06737,-0.55996,-0.04289,-0.03514
69,-0.05879,-0.73512,0.93798,-0.10423,0.04548,0.03726,0.03953,-0.43007,1.07024,-0.54107,-0.03059,-0.02505
70,-0.07412,-0.7416,0.91387,-0.07414,0.05733,0.047,0.02414,-0.45032,1.07084,-0.52118,-0.01868,-0.0153
71,-0.08861,-0.74633,0.88723,-0.04335,0.06853,0.05621,0.00957,-0.46932,1.06938,-0.5006,-0.00741,-0.00607
72,-0.10197,-0.74933,0.85845,-0.0122,0.07886,0.06472,-0.00388,-0.48699,1.06616,-0.4797,0.003,0.00245
73,-0.11391,-0.75072,0.82806,0.01895,0.08807,0.07233,-0.01589,-0.50331,1.0616,-0.45886,0.0123,0.01006
74,-0.12522,-0.77539,0.85614,0.01487,0.09679,0.07956,-0.02627,-0.51816,1.05978,-0.44231,0.02032,0.01663
75,-0.1377,-0.84704,1.00911,-0.06726,0.10642,0.08755,-0.03506,-0.53176,1.06658,-0.43564,0.02713,0.02221
76,-0.15049,-0.92052,1.19847,-0.18406,0.11627,0.09575,-0.0423,-0.54473,1.07886,-0.43509,0.03272,0.02679
77,-0.16189,-0.96352,1.36601,-0.30947,0.12506,0.10308,-0.04791,-0.55657,1.09244,-0.43695,0.03707,0.03036
78,-0.16938,-0.95392,1.47241,-0.42609,0.13082,0.1079,-0.05183,-0.56599,1.10233,-0.43752,0.0401,0.03284
79,-0.17214,-0.89528,1.51454,-0.5271,0.13294,0.10968,-0.05405,-0.57298,1.10728,-0.43554,0.04182,0.03425
80,-0.17301,-0.82226,1.54282,-0.62847,0.13361,0.11024,-0.05464,-0.58051,1.1138,-0.43454,0.04227,0.03462
81,-0.17237,-0.7396,1.55581,-0.72406,0.13312,0.10983,-0.05385,-0.58891,1.1212,-0.43352,0.04166,0.03412
82,-0.1701,-0.65286,1.55337,-0.80817,0.13138,0.10837,-0.05162,-0.59828,1.12861,-0.4315,0.03993,0.0327
83,-0.16548,-0.56413,1.52576,-0.86891,0.12781,0.10538,-0.0479,-0.6078,1.13308,-0.42636,0.03706,0.03035
84,-0.15572,-0.46157,1.42169,-0.86662,0.1203,0.09911,-0.04266,-0.61365,1.12444,-0.41176,0.03301,0.02702
85,-0.14298,-0.35953,1.26814,-0.81416,0.11049,0.09093,-0.03591,-0.61752,1.10612,-0.38944,0.02778,0.02275
86,-0.12952,-0.2741,1.10822,-0.73877,0.10011,0.08231,-0.02763,-0.6224,1.08455,-0.36285,0.02138,0.0175
87,-0.11674,-0.22922,1.0018,-0.67645,0.09025,0.07414,-0.01779,-0.63143,1.06703,-0.3362,0.01376,0.01126
88,-0.1051,-0.24553,1.0007,-0.65841,0.08127,0.06671,-0.00651,-0.64628,1.05883,-0.31308,0.00503,0.00412
89,-0.09259,-0.27188,1.01601,-0.64676,0.0716,0.05874,0.006,-0.66176,1.05048,-0.28925,-0.00464,-0.0038
90,-0.07909,-0.29815,1.0295,-0.63341,0.06117,0.05015,0.01948,-0.67659,1.0398,-0.26382,-0.01508,-0.01234
91,-0.06487,-0.32404,1.04085,-0.61837,0.05018,0.04112,0.03367,-0.69046,1.02655,-0.23689,-0.02606,-0.02134
92,-0.05019,-0.34926,1.04986,-0.60174,0.03883,0.0318,0.0483,-0.70309,1.01057,-0.20858,-0.03738,-0.03062
93,-0.03534,-0.37358,1.0564,-0.58366,0.02734,0.02239,0.0631,-0.71425,0.99179,-0.17904,-0.04882,-0.04
94,-0.01992,-0.39762,1.06057,-0.56357,0.01541,0.01262,0.07844,-0.7241,0.9694,-0.14732,-0.06067,-0.04975
95,-0.00532,-0.41983,1.06221,-0.54291,0.00412,0.00337,0.09295,-0.73192,0.94475,-0.11547,-0.07189,-0.05898
96,0.00864,-0.44069,1.06163,-0.52149,-0.00669,-0.00548,0.10681,-0.73792,0.91757,-0.08297,-0.0826,-0.06782
97,0.0217,-0.46013,1.05913,-0.49964,-0.01679,-0.01374,0.11976,-0.74212,0.88818,-0.0501,-0.09259,-0.07608
98,0.03357,-0.47815,1.05507,-0.47772,-0.02597,-0.02127,0.13153,-0.74461,0.85703,-0.01719,-0.10167,-0.0836
99,0.04399,-0.49477,1.04995,-0.45618,-0.03404,-0.02787,0.14187,-0.7459,0.82547,0.01495,-0.10964,-0.09022
100,0.05291,-0.50983,1.05059,-0.44197,-0.04094,-0.03353,0.15283,-0.78734,0.89464,-0.01357,-0.11809,-0.09726
101,0.06041,-0.52389,1.05931,-0.43684,-0.04674,-0.03829,0.16532,-0.86297,1.06395,-0.10824,-0.1277,-0.10529
102,0.06644,-0.53727,1.0725,-0.43684,-0.0514,-0.04212,0.17793,-0.92977,1.25006,-0.22862,-0.1374,-0.11342
103,0.07089,-0.54919,1.08571,-0.43828,-0.05484,-0.04495,0.18842,-0.95919,1.40244,-0.35253,-0.14546,-0.1202
104,0.07365,-0.55821,1.09368,-0.43733,-0.05697,-0.0467,0.19378,-0.93143,1.48354,-0.46191,-0.14958,-0.12367
105,0.07482,-0.56581,1.09913,-0.43521,-0.05788,-0.04744,0.19528,-0.86774,1.51966,-0.56186,-0.15073,-0.12464
106,0.07456,-0.57412,1.10618,-0.43395,-0.05768,-0.04728,0.19522,-0.79174,1.54277,-0.66097,-0.15069,-0.12461
107,0.0729,-0.58333,1.11398,-0.43248,-0.05639,-0.04622,0.19361,-0.70768,1.55053,-0.75263,-0.14945,-0.12356
108,0.06977,-0.5935,1.12165,-0.42987,-0.05398,-0.04424,0.19035,-0.62146,1.54367,-0.83168,-0.14695,-0.12145
109,0.06523,-0.60272,1.12344,-0.42229,-0.05046,-0.04135,0.18375,-0.52948,1.49664,-0.87602,-0.14187,-0.11718
110,0.05917,-0.60823,1.11191,-0.40507,-0.04578,-0.0375,0.17191,-0.426,1.37442,-0.85622,-0.13277,-0.10954
111,0.05163,-0.61259,1.09254,-0.38112,-0.03995,-0.03272,0.15777,-0.32733,1.21417,-0.7935,-0.12189,-0.10043
112,0.04259,-0.61891,1.07202,-0.35409,-0.03296,-0.02699,0.14354,-0.25084,1.06261,-0.71736,-0.11093,-0.0913
113,0.03207,-0.63026,1.05795,-0.32846,-0.02482,-0.02032,0.13064,-0.22407,0.98609,-0.66674,-0.10098,-0.08303
114,0.02023,-0.64648,1.05174,-0.30589,-0.01565,-0.01281,0.11874,-0.24928,1.0007,-0.6554,-0.0918,-0.07543
115,0.00724,-0.66247,1.0438,-0.28186,-0.0056,-0.00458,0.10576,-0.27632,1.01683,-0.64378,-0.08178,-0.06714
116,-0.00665,-0.67774,1.03348,-0.25628,0.00514,0.00421,0.09187,-0.30317,1.03102,-0.63044,-0.07106,-0.0583
117,-0.02117,-0.69197,1.02056,-0.22923,0.01638,0.01341,0.07734,-0.32954,1.04297,-0.61542,-0.05983,-0.04905
118,-0.03604,-0.7049,1.00489,-0.20084,0.02789,0.02283,0.06243,-0.35516,1.05249,-0.59881,-0.0483,-0.03958
119,-0.051,-0.7163,0.98642,-0.17128,0.03946,0.03232,0.04743,-0.3798,1.0595,-0.58077,-0.0367,-0.03006
120,-0.06576,-0.72603,0.9652,-0.14075,0.05087,0.04169,0.03261,-0.40326,1.06401,-0.56153,-0.02524,-0.02066
121,-0.08004,-0.73399,0.94139,-0.1095,0.06191,0.05076,0.01826,-0.4254,1.06615,-0.54135,-0.01413,-0.01157
122,-0.09355,-0.74015,0.91526,-0.07778,0.07235,0.05936,0.00466,-0.44612,1.06613,-0.52054,-0.00361,-0.00296
123,-0.10738,-0.74489,0.88423,-0.0427,0.08303,0.06817,-0.00926,-0.4672,1.06396,-0.4973,0.00716,0.00586
124,-0.11895,-0.74751,0.85362,-0.01011,0.09196,0.07555,-0.02093,-0.48528,1.06032,-0.47567,0.01619,0.01325
125,-0.12927,-0.75428,0.83553,0.01412,0.09992,0.08215,-0.03109,-0.50188,1.05642,-0.45529,0.02405,0.01969
126,-0.14063,-0.81066,0.94351,-0.03824,0.10868,0.08942,-0.03974,-0.5169,1.0602,-0.44421,0.03074,0.02517
127,-0.15294,-0.8873,1.12391,-0.1429,0.11817,0.09732,-0.04691,-0.53103,1.07095,-0.44097,0.03629,0.02972
128,-0.16476,-0.94576,1.30422,-0.26568,0.12726,0.10492,-0.05258,-0.54429,1.08485,-0.44176,0.04068,0.03331
129,-0.1738,-0.96044,1.43973,-0.38727,0.13422,0.11075,-0.05664,-0.55568,1.09727,-0.4429,0.04381,0.03589
130,-0.17759,-0.91719,1.50016,-0.49128,0.13713,0.11319,-0.05901,-0.56396,1.1036,-0.44101,0.04565,0.03739
131,-0.17875,-0.84948,1.53291,-0.59184,0.13802,0.11394,-0.05987,-0.57178,1.10958,-0.43919,0.04631,0.03794
132,-0.17834,-0.77042,1.55163,-0.68959,0.13771,0.11368,-0.05929,-0.58033,1.11684,-0.43789,0.04587,0.03757
133,-0.17635,-0.68484,1.55483,-0.77819,0.13618,0.11239,-0.0573,-0.58977,1.12451,-0.43606,0.04433,0.03631
134,-0.17273,-0.59887,1.5437,-0.85271,0.1334,0.11006,-0.05389,-0.60013,1.13161,-0.43271,0.04169,0.03414
135,-0.16472,-0.50179,1.47231,-0.87774,0.12723,0.10489,-0.04899,-0.60805,1.12898,-0.42204,0.0379,0.03104
136,-0.15252,-0.39811,1.33498,-0.84313,0.11784,0.09705,-0.04262,-0.61282,1.11423,-0.40238,0.03297,0.027
137,-0.13867,-0.30363,1.17162,-0.77325,0.10716,0.08817,-0.03466,-0.61723,1.09346,-0.37704,0.02681,0.02195
138,-0.12516,-0.23798,1.03352,-0.69992,0.09675,0.07952,-0.02526,-0.62447,1.07346,-0.34967,0.01954,0.016
139,-0.11297,-0.23122,0.99148,-0.66392,0.08735,0.07174,-0.0144,-0.63748,1.06194,-0.32503,0.01114,0.00911
140,-0.10081,-0.25789,1.00795,-0.65308,0.07795,0.06398,-0.00223,-0.65344,1.05472,-0.3018,0.00172,0.0014
141,-0.08756,-0.28458,1.02269,-0.64052,0.06772,0.05554,0.01102,-0.66888,1.04529,-0.27696,-0.00853,-0.00698
142,-0.07347,-0.31098,1.03538,-0.62624,0.05683,0.04658,0.02508,-0.68346,1.03337,-0.25058,-0.01941,-0.0159
143,-0.05882,-0.33681,1.04574,-0.61031,0.0455,0.03728,0.0397,-0.69689,1.01875,-0.22277,-0.03072,-0.02516
144,-0.04387,-0.3618,1.05364,-0.59284,0.03394,0.02779,0.0546,-0.70893,1.00133,-0.19366,-0.04225,-0.03461
145,-0.0289,-0.38573,1.05902,-0.57402,0.02236,0.01831,0.0695,-0.71938,0.98111,-0.16344,-0.05377,-0.04407
146,-0.01421,-0.40844,1.06196,-0.55409,0.01099,0.009,0.08411,-0.7281,0.95816,-0.13232,-0.06506,-0.05336
147,-7e-05,-0.42981,1.0626,-0.53332,5e-05,4e-05,0.09816,-0.73504,0.9327,-0.10055,-0.07592,-0.0623
148,0.01324,-0.44974,1.06123,-0.51206,-0.01025,-0.00839,0.11137,-0.74018,0.90503,-0.06842,-0.08612,-0.07072
149,0.02544,-0.46822,1.05818,-0.49064,-0.01969,-0.01612,0.12348,-0.74362,0.87557,-0.03622,-0.09546,-0.07845
150,0.03627,-0.48527,1.05388,-0.46945,-0.02807,-0.02298,0.1342,-0.74548,0.84482,-0.00429,-0.10373,-0.08532
151,0.04553,-0.50085,1.05131,-0.45149,-0.03523,-0.02885,0.14418,-0.76272,0.8539,0.00318,-0.11142,-0.09171
152,0.05332,-0.51505,1.0575,-0.44367,-0.04125,-0.03379,0.15573,-0.82932,0.99255,-0.06972,-0.12032,-0.09912
153,0.05962,-0.52856,1.06984,-0.44268,-0.04612,-0.03779,0.16799,-0.9033,1.17885,-0.18302,-0.12975,-0.10701
154,0.06435,-0.54102,1.08421,-0.44474,-0.04979,-0.04079,0.17913,-0.95058,1.35024,-0.3081,-0.13832,-0.1142
155,0.0674,-0.55122,1.09573,-0.44614,-0.05214,-0.04273,0.18649,-0.94808,1.46585,-0.42688,-0.14398,-0.11895
156,0.06873,-0.55862,1.10162,-0.44468,-0.05317,-0.04358,0.18848,-0.89231,1.51102,-0.528,-0.1455,-0.12024
157,0.06856,-0.56627,1.1087,-0.44411,-0.05304,-0.04347,0.1885,-0.81976,1.53926,-0.6288,-0.14552,-0.12025
158,0.06691,-0.5747,1.11692,-0.44385,-0.05176,-0.04242,0.1869,-0.73693,1.55249,-0.72471,-0.1443,-0.11922
159,0.06378,-0.58402,1.12536,-0.44287,-0.04935,-0.04043,0.18366,-0.64918,1.55011,-0.80978,-0.14181,-0.11712
160,0.05917,-0.59382,1.13205,-0.43962,-0.04578,-0.03751,0.17834,-0.56061,1.52788,-0.87563,-0.13772,-0.11369
161,0.05299,-0.60016,1.12643,-0.42748,-0.041,-0.03358,0.16774,-0.45851,1.43209,-0.88104,-0.12956,-0.10685
162,0.04525,-0.60414,1.11049,-0.40738,-0.03501,-0.02867,0.15367,-0.35469,1.28125,-0.8329,-0.11873,-0.0978
163,0.03593,-0.60871,1.09059,-0.38272,-0.02781,-0.02277,0.13864,-0.26466,1.11714,-0.75773,-0.10715,-0.08816
164,0.02502,-0.61703,1.07397,-0.35762,-0.01936,-0.01585,0.12425,-0.21084,0.99713,-0.69061,-0.09606,-0.07895
165,0.01269,-0.63143,1.06709,-0.33622,-0.00982,-0.00804,0.11129,-0.21987,0.98507,-0.66876,-0.08605,-0.07067
166,-0.00079,-0.64723,1.06132,-0.31461,0.00061,0.0005,0.09783,-0.24564,1.00164,-0.65888,-0.07566,-0.06209
167,-0.0151,-0.66262,1.05315,-0.29111,0.01168,0.00956,0.08351,-0.27165,1.01657,-0.64715,-0.0646,-0.05297
168,-0.02994,-0.67731,1.04224,-0.26567,0.02317,0.01897,0.06864,-0.29769,1.02954,-0.63353,-0.05311,-0.04353
169,-0.04503,-0.69103,1.02834,-0.23833,0.03484,0.02853,0.05352,-0.32352,1.04032,-0.61802,-0.04141,-0.03393
170,-0.06007,-0.70352,1.01132,-0.20921,0.04647,0.03807,0.03842,-0.34891,1.04875,-0.60072,-0.02973,-0.02435
171,-0.07479,-0.71458,0.99116,-0.17848,0.05785,0.04742,0.02362,-0.37363,1.05477,-0.58179,-0.01828,-0.01497
172,-0.08895,-0.72404,0.96796,-0.14639,0.0688,0.05643,0.00938,-0.39748,1.05843,-0.56149,-0.00726,-0.00595
173,-0.10231,-0.73178,0.94192,-0.11323,0.07911,0.06494,-0.00408,-0.42026,1.05986,-0.54012,0.00315,0.00257
174,-0.11464,-0.73776,0.91339,-0.07939,0.08863,0.0728,-0.01651,-0.44182,1.05928,-0.51805,0.01277,0.01045
175,-0.12575,-0.74199,0.88286,-0.04528,0.0972,0.0799,-0.02771,-0.46202,1.05701,-0.4957,0.02144,0.01755
176,-0.13544,-0.74457,0.85091,-0.01138,0.10468,0.0861,-0.0375,-0.48076,1.05342,-0.47353,0.02902,0.02375
177,-0.14526,-0.77739,0.89611,-0.02444,0.11225,0.0924,-0.04583,-0.49781,1.05392,-0.45714,0.03546,0.02903
178,-0.15669,-0.84997,1.05342,-0.11002,0.12105,0.09973,-0.05279,-0.51353,1.06272,-0.45039,0.04084,0.03345
179,-0.16845,-0.91886,1.2376,-0.22626,0.1301,0.1073,-0.05836,-0.52837,1.07632,-0.44931,0.04515,0.03698
180,-0.17851,-0.95403,1.39471,-0.34907,0.13784,0.11379,-0.06242,-0.54173,1.09045,-0.4502,0.04829,0.03956
181,-0.18406,-0.93456,1.48597,-0.4603,0.14211,0.11737,-0.06488,-0.55226,1.09995,-0.44924,0.05019,0.04112
182,-0.18527,-0.87251,1.52195,-0.55844,0.14303,0.11815,-0.06578,-0.56068,1.10546,-0.44636,0.05089,0.0417
183,-0.18495,-0.79774,1.54555,-0.65678,0.14279,0.11795,-0.0653,-0.56961,1.11253,-0.44449,0.05052,0.04139
184,-0.18313,-0.71431,1.55413,-0.74863,0.14139,0.11677,-0.06346,-0.57929,1.12036,-0.44258,0.04909,0.04022
185,-0.17977,-0.62796,1.54801,-0.82854,0.13881,0.1146,-0.06024,-0.58984,1.12806,-0.43963,0.0466,0.03818
186,-0.17368,-0.5382,1.51033,-0.88009,0.13413,0.11067,-0.05563,-0.59995,1.13147,-0.4328,0.04303,0.03525
187,-0.16243,-0.43569,1.39605,-0.86739,0.12547,0.10342,-0.04955,-0.60623,1.12145,-0.41634,0.03834,0.03139
188,-0.14863,-0.33585,1.23821,-0.80832,0.11484,0.09455,-0.04204,-0.61089,1.10267,-0.39274,0.03253,0.02663
189,-0.13448,-0.25519,1.08152,-0.7313,0.10394,0.08549,-0.03306,-0.61697,1.0817,-0.36551,0.02558,0.02094
190,-0.12137,-0.21947,0.98925,-0.67392,0.09382,0.0771,-0.02261,-0.62759,1.06596,-0.33902,0.01749,0.01431
191,-0.10937,-0.24154,0.99792,-0.65985,0.08457,0.06944,-0.0108,-0.64359,1.05904,-0.316,0.00835,0.00683
192,-0.09704,-0.26738,1.01333,-0.64879,0.07504,0.06158,0.00154,-0.65891,1.05141,-0.29302,-0.00119,-0.00098
193,-0.08384,-0.29307,1.02697,-0.63615,0.06485,0.05318,0.01472,-0.67358,1.04161,-0.2686,-0.0114,-0.00933
194,-0.06989,-0.31854,1.03865,-0.62183,0.05407,0.04431,0.02865,-0.68744,1.02933,-0.24261,-0.02217,-0.01816
195,-0.05555,-0.34333,1.04806,-0.60601,0.04297,0.0352,0.04296,-0.7001,1.01451,-0.21538,-0.03324,-0.02723
196,-0.04099,-0.3673,1.05514,-0.58878,0.03171,0.02597,0.05747,-0.71142,0.99703,-0.18694,-0.04446,-0.03643
197,-0.02645,-0.39028,1.05988,-0.57029,0.02046,0.01675,0.07194,-0.72122,0.97689,-0.15745,-0.05565,-0.04562
198,-0.01218,-0.41213,1.06232,-0.55075,0.00942,0.00771,0.08613,-0.72941,0.95416,-0.12709,-0.06662,-0.05464
199,0.00157,-0.43274,1.06263,-0.53041,-0.00122,-0.001,0.09979,-0.7359,0.929,-0.09606,-0.07717,-0.06334
200,0.01456,-0.45204,1.06103,-0.50957,-0.01127,-0.00922,0.11268,-0.74071,0.90169,-0.06462,-0.08713,-0.07156
201,0.02654,-0.47001,1.05784,-0.48853,-0.02054,-0.01681,0.12456,-0.74389,0.87258,-0.03302,-0.0963,-0.07915
202,0.03727,-0.48664,1.05342,-0.46764,-0.02884,-0.02362,0.1352,-0.74556,0.84212,-0.00158,-0.1045,-0.08595
203,0.04659,-0.5019,1.05071,-0.44987,-0.03605,-0.02952,0.14523,-0.7627,0.85148,0.00551,-0.11223,-0.09238
204,0.05458,-0.51586,1.05598,-0.44138,-0.04223,-0.03459,0.15678,-0.82582,0.98098,-0.06173,-0.12113,-0.0998
205,0.06124,-0.52916,1.06691,-0.4392,-0.04738,-0.03882,0.1691,-0.8976,1.15726,-0.16723,-0.13061,-0.10772
206,0.06651,-0.54158,1.08003,-0.44007,-0.05146,-0.04217,0.18065,-0.94771,1.32426,-0.28513,-0.13949,-0.11518
207,0.07029,-0.55214,1.0912,-0.4408,-0.05437,-0.04456,0.18919,-0.95541,1.44566,-0.39961,-0.14605,-0.1207
208,0.0725,-0.55988,1.09672,-0.43866,-0.05608,-0.04597,0.19258,-0.91084,1.4983,-0.49714,-0.14866,-0.12289
209,0.07315,-0.56738,1.1025,-0.43696,-0.05659,-0.04639,0.19351,-0.84609,1.52899,-0.59267,-0.14937,-0.12349
210,0.07267,-0.57558,1.10941,-0.43565,-0.05622,-0.04608,0.19319,-0.77112,1.54692,-0.68554,-0.14913,-0.12329
211,0.07091,-0.58461,1.11679,-0.43394,-0.05486,-0.04496,0.19145,-0.69004,1.55085,-0.77038,-0.14779,-0.12216
212,0.06786,-0.59452,1.12386,-0.431,-0.0525,-0.04302,0.18826,-0.60819,1.54197,-0.84305,-0.14534,-0.1201
213,0.06346,-0.6029,1.12394,-0.42255,-0.04909,-0.04023,0.18143,-0.5187,1.4878,-0.87774,-0.14009,-0.11568
214,0.05767,-0.60801,1.11213,-0.40546,-0.04462,-0.03656,0.17002,-0.42002,1.36727,-0.8549,-0.13132,-0.10832
215,0.05054,-0.61221,1.09348,-0.38242,-0.03911,-0.03203,0.15664,-0.32636,1.21401,-0.79422,-0.12102,-0.09971
216,0.04204,-0.61817,1.07381,-0.35659,-0.03253,-0.02664,0.14317,-0.25273,1.0685,-0.72134,-0.11064,-0.09106
217,0.03217,-0.62858,1.05964,-0.33184,-0.0249,-0.02038,0.13083,-0.22268,0.98773,-0.66978,-0.10113,-0.08316
218,0.02109,-0.64388,1.0535,-0.31025,-0.01632,-0.01336,0.1196,-0.24464,0.99802,-0.65742,-0.09247,-0.07598
219,0.00893,-0.65922,1.04624,-0.28756,-0.00691,-0.00566,0.10746,-0.27044,1.01368,-0.6466,-0.08309,-0.06822
220,-0.00409,-0.67396,1.03688,-0.26345,0.00316,0.00259,0.09444,-0.29612,1.02763,-0.63422,-0.07304,-0.05993
221,-0.01774,-0.68781,1.02519,-0.23798,0.01373,0.01124,0.08078,-0.32143,1.0396,-0.6203,-0.06248,-0.05124
222,-0.03179,-0.70055,1.01105,-0.21127,0.0246,0.02014,0.0667,-0.34612,1.04941,-0.60491,-0.05161,-0.04229
223,-0.046,-0.71197,0.99436,-0.18344,0.03559,0.02914,0.05246,-0.36998,1.05695,-0.58817,-0.04059,-0.03325
224,-0.06063,-0.72225,0.9744,-0.15358,0.04691,0.03843,0.03776,-0.39366,1.06236,-0.56957,-0.02922,-0.02393
225,-0.07465,-0.73066,0.95236,-0.12359,0.05774,0.04733,0.02368,-0.41562,1.06534,-0.55038,-0.01833,-0.01501
226,-0.08814,-0.73741,0.92795,-0.09297,0.06817,0.05591,0.01011,-0.43634,1.06621,-0.53041,-0.00783,-0.00641
227,-0.10086,-0.74249,0.90143,-0.06196,0.07799,0.06401,-0.00269,-0.45575,1.06517,-0.50994,0.00208,0.0017
228,-0.11258,-0.74596,0.87314,-0.03082,0.08704,0.07148,-0.0145,-0.47383,1.06254,-0.48927,0.01122,0.00918
229,-0.12306,-0.74793,0.8435,0.00018,0.09513,0.07818,-0.02507,-0.49059,1.05866,-0.46874,0.0194,0.01587
230,-0.13288,-0.76535,0.8536,0.00688,0.10271,0.08446,-0.03423,-0.50595,1.05643,-0.45129,0.02648,0.02168
231,-0.144,-0.82866,0.98351,-0.06048,0.11128,0.09159,-0.04205,-0.51999,1.0621,-0.44307,0.03253,0.02664
232,-0.15574,-0.9006,1.16006,-0.16596,0.12032,0.09912,-0.04854,-0.53335,1.07336,-0.4411,0.03755,0.03075
233,-0.16671,-0.95086,1.32733,-0.28385,0.12876,0.10618,-0.05365,-0.5458,1.08672,-0.44215,0.0415,0.03399
234,-0.1748,-0.95865,1.44904,-0.39845,0.13499,0.11139,-0.05729,-0.55637,1.09809,-0.44305,0.04432,0.0363
235,-0.17803,-0.91408,1.50203,-0.4963,0.13747,0.11348,-0.0594,-0.5641,1.10377,-0.44105,0.04595,0.03764
236,-0.17907,-0.84928,1.53292,-0.59208,0.13827,0.11415,-0.06015,-0.57158,1.10951,-0.43934,0.04653,0.03812
237,-0.17868,-0.77418,1.55107,-0.6853,0.13797,0.1139,-0.05961,-0.57973,1.11643,-0.4381,0.04611,0.03777
238,-0.17686,-0.69291,1.55514,-0.77047,0.13657,0.11272,-0.05778,-0.58868,1.12375,-0.43642,0.0447,0.03661
239,-0.1731,-0.61078,1.54641,-0.84354,0.13368,0.1103,-0.05422,-0.5985,1.13096,-0.4337,0.04194,0.03435
240,-0.16633,-0.52109,1.49221,-0.87847,0.12847,0.10593,-0.04974,-0.60676,1.13086,-0.42522,0.03848,0.03151
241,-0.15529,-0.42227,1.37163,-0.85582,0.11997,0.09883,-0.04394,-0.61173,1.11882,-0.40808,0.03399,0.02783
242,-0.14237,-0.32852,1.21832,-0.79531,0.11002,0.09054,-0.0368,-0.61576,1.09988,-0.38497,0.02847,0.02331
243,-0.12929,-0.25483,1.07269,-0.72249,0.09993,0.08216,-0.02829,-0.6215,1.0798,-0.35901,0.02189,0.01792
244,-0.11713,-0.22462,0.99152,-0.6708,0.09055,0.07439,-0.01842,-0.63163,1.0651,-0.33407,0.01425,0.01166
245,-0.10587,-0.24627,1.00106,-0.65807,0.08186,0.06721,-0.00729,-0.6466,1.0583,-0.31223,0.00564,0.00461
246,-0.09367,-0.27171,1.01588,-0.64685,0.07244,0.05943,0.00491,-0.66157,1.05031,-0.28927,-0.0038,-0.00311
247,-0.08061,-0.29703,1.02898,-0.63407,0.06235,0.05112,0.01796,-0.6759,1.04017,-0.26487,-0.0139,-0.01138
248,-0.06691,-0.32196,1.04008,-0.61974,0.05176,0.04242,0.03163,-0.68933,1.02767,-0.2391,-0.02448,-0.02004
249,-0.0528,-0.34626,1.049,-0.60395,0.04085,0.03346,0.0457,-0.70161,1.01266,-0.21209,-0.03536,-0.02896
250,-0.03853,-0.36973,1.05566,-0.58682,0.02981,0.02441,0.05991,-0.71255,0.9951,-0.18395,-0.04636,-0.03798
251,-0.02434,-0.39218,1.06004,-0.56853,0.01883,0.01542,0.07404,-0.722,0.97501,-0.15487,-0.05728,-0.04695
252,-0.01047,-0.41349,1.06224,-0.54931,0.0081,0.00663,0.08783,-0.72987,0.95249,-0.12504,-0.06794,-0.05573
253,0.00284,-0.43355,1.06242,-0.52939,-0.0022,-0.0018,0.10105,-0.73611,0.92775,-0.09467,-0.07815,-0.06414
254,0.0166,-0.45393,1.06053,-0.50719,-0.01285,-0.01052,0.11471,-0.74106,0.89852,-0.06121,-0.08869,-0.07285
255,0.0284,-0.47165,1.05717,-0.48624,-0.02198,-0.018,0.12641,-0.74403,0.86934,-0.02976,-0.09772,-0.08033
256,0.03897,-0.48806,1.05262,-0.46546,-0.03016,-0.02469,0.13688,-0.74552,0.83887,0.00152,-0.10579,-0.08703
257,0.04814,-0.50312,1.04983,-0.44781,-0.03725,-0.03051,0.14677,-0.7626,0.8484,0.00838,-0.11342,-0.09337
258,0.056,-0.5169,1.05506,-0.43945,-0.04333,-0.03549,0.15822,-0.82589,0.97844,-0.05924,-0.12224,-0.10073
259,0.06254,-0.53007,1.06598,-0.4374,-0.04839,-0.03964,0.17045,-0.89788,1.15526,-0.16507,-0.13165,-0.1086
260,0.0677,-0.54237,1.07912,-0.4384,-0.05238,-0.04292,0.18193,-0.94816,1.32268,-0.28321,-0.14048,-0.11601
261,0.07138,-0.55284,1.09032,-0.43926,-0.05522,-0.04526,0.19039,-0.95599,1.44441,-0.3979,-0.14697,-0.12147
262,0.0735,-0.5605,1.09588,-0.43723,-0.05685,-0.0466,0.19368,-0.91151,1.49735,-0.49562,-0.1495,-0.12361
263,0.07425,-0.56794,1.10158,-0.43552,-0.05744,-0.04708,0.19472,-0.84686,1.5282,-0.59123,-0.1503,-0.12428
264,0.07371,-0.57609,1.10853,-0.4343,-0.05702,-0.04674,0.19434,-0.77195,1.54637,-0.68427,-0.15001,-0.12403
265,0.07189,-0.58507,1.11596,-0.43268,-0.05562,-0.04558,0.19254,-0.69091,1.55052,-0.76929,-0.14863,-0.12287
266,0.06879,-0.59494,1.12308,-0.42983,-0.05322,-0.04362,0.1893,-0.60907,1.54181,-0.84211,-0.14614,-0.12077
267,0.06435,-0.60329,1.1232,-0.42145,-0.04978,-0.04079,0.1824,-0.51957,1.48779,-0.87696,-0.14084,-0.11631
268,0.05853,-0.60837,1.11143,-0.40443,-0.04529,-0.0371,0.17094,-0.42084,1.36737,-0.85425,-0.13202,-0.10891
269,0.05056,-0.61265,1.09327,-0.38177,-0.03912,-0.03204,0.15666,-0.32709,1.21438,-0.79386,-0.12103,-0.09972
270,0.04203,-0.61857,1.0736,-0.35599,-0.03252,-0.02663,0.14317,-0.2534,1.06891,-0.72107,-0.11064,-0.09106
271,0.03217,-0.62893,1.05942,-0.33127,-0.0249,-0.02038,0.13083,-0.2233,0.98812,-0.66954,-0.10113,-0.08315
272,0.02111,-0.64419,1.05326,-0.30971,-0.01634,-0.01337,0.11963,-0.24521,0.99835,-0.65718,-0.09249,-0.07599
273,0.00899,-0.65948,1.04598,-0.28704,-0.00696,-0.00569,0.10752,-0.27095,1.01395,-0.64636,-0.08314,-0.06826
274,-0.00399,-0.67418,1.0366,-0.26295,0.00308,0.00252,0.09454,-0.29659,1.02785,-0.63398,-0.07312,-0.05999
275,-0.01759,-0.68801,1.02491,-0.23751,0.01361,0.01114,0.08092,-0.32185,1.03979,-0.62007,-0.0626,-0.05133
276,-0.0316,-0.70072,1.01076,-0.21082,0.02445,0.02002,0.06689,-0.3465,1.04957,-0.60469,-0.05175,-0.04241
277,-0.04578,-0.71211,0.99409,-0.18302,0.03542,0.02901,0.05267,-0.37033,1.05709,-0.58796,-0.04075,-0.03339
278,-0.05988,-0.72204,0.9749,-0.15427,0.04633,0.03795,0.03852,-0.39315,1.06234,-0.57007,-0.02981,-0.02441
279,-0.07366,-0.73039,0.95329,-0.12476,0.05698,0.04671,0.02467,-0.41484,1.06537,-0.55121,-0.01909,-0.01563
280,-0.08688,-0.73711,0.92946,-0.09472,0.0672,0.05511,0.01137,-0.43527,1.06636,-0.53164,-0.0088,-0.00721
281,-0.09931,-0.74222,0.90367,-0.06439,0.07679,0.06302,-0.00113,-0.45439,1.06551,-0.51165,0.00087,0.00071
282,-0.11069,-0.74578,0.87628,-0.03404,0.08559,0.07028,-0.0126,-0.47217,1.06315,-0.49154,0.00975,0.00798
283,-0.12082,-0.7479,0.84774,-0.00395,0.0934,0.07675,-0.02281,-0.48863,1.05962,-0.47163,0.01765,0.01444
284,-0.13024,-0.76541,0.85885,0.00187,0.10067,0.08277,-0.03158,-0.50372,1.05781,-0.45486,0.02444,0.02
285,-0.14089,-0.82836,0.98906,-0.06611,0.10888,0.08959,-0.03899,-0.51749,1.06396,-0.44737,0.03017,0.0247
286,-0.15207,-0.89965,1.16559,-0.17217,0.11749,0.09676,-0.04504,-0.53058,1.07573,-0.44617,0.03484,0.02853
287,-0.16242,-0.94905,1.33276,-0.29073,0.12546,0.10342,-0.04967,-0.54273,1.08964,-0.44803,0.03843,0.03147
288,-0.16987,-0.95583,1.45427,-0.40608,0.1312,0.10822,-0.05281,-0.553,1.10157,-0.44978,0.04086,0.03346
289,-0.17251,-0.91015,1.50689,-0.5046,0.13323,0.10992,-0.0544,-0.56042,1.10784,-0.44867,0.04209,0.03447
290,-0.17293,-0.84407,1.53712,-0.60095,0.13355,0.11018,-0.05459,-0.56755,1.11419,-0.44789,0.04224,0.03459
291,-0.17187,-0.76752,1.5543,-0.69459,0.13273,0.1095,-0.05344,-0.57531,1.12171,-0.44762,0.04134,0.03386
292,-0.16932,-0.6847,1.55712,-0.78002,0.13077,0.10786,-0.05096,-0.58382,1.12963,-0.44697,0.03942,0.03228
293,-0.16526,-0.60101,1.54677,-0.85302,0.12765,0.10524,-0.04713,-0.59312,1.13718,-0.44512,0.03646,0.02986
294,-0.15775,-0.50983,1.4909,-0.88773,0.12187,0.10041,-0.04191,-0.60085,1.13771,-0.43781,0.03243,0.02655
295,-0.14606,-0.40976,1.36856,-0.86458,0.11286,0.0929,-0.0353,-0.60529,1.12639,-0.42193,0.02731,0.02236
296,-0.1325,-0.31473,1.21334,-0.80346,0.10241,0.08422,-0.02728,-0.60878,1.10829,-0.40021,0.02111,0.01728
297,-0.11872,-0.23955,1.06571,-0.73015,0.09178,0.0754,-0.01781,-0.614,1.08921,-0.37581,0.01378,0.01128
298,-0.1057,-0.20774,0.98297,-0.6785,0.08173,0.06709,-0.00691,-0.62359,1.07566,-0.3526,0.00534,0.00437
299,-0.09344,-0.22803,0.99205,-0.66669,0.07226,0.05928,0.00523,-0.63807,1.07007,-0.33252,-0.00405,-0.00332
300,-0.08034,-0.25232,1.0066,-0.65639,0.06214,0.05095,0.01832,-0.65267,1.06322,-0.31115,-0.01418,-0.01161
301,-0.06654,-0.27677,1.01956,-0.64441,0.05147,0.04218,0.03209,-0.6668,1.05406,-0.28803,-0.02484,-0.02034
302,-0.0523,-0.30119,1.03069,-0.6307,0.04046,0.03314,0.04629,-0.68022,1.04234,-0.26316,-0.03582,-0.02934
303,-0.03788,-0.32538,1.03981,-0.6153,0.02931,0.024,0.06066,-0.69271,1.02786,-0.23658,-0.04694,-0.03846
304,-0.0235,-0.34916,1.04679,-0.5983,0.01819,0.01489,0.07496,-0.70405,1.01054,-0.20839,-0.05799,-0.04754
305,-0.00942,-0.37231,1.05163,-0.57986,0.00729,0.00597,0.08896,-0.71407,0.99037,-0.17876,-0.06881,-0.05644
306,0.00415,-0.39468,1.05434,-0.56019,-0.00322,-0.00263,0.10244,-0.72264,0.96744,-0.1479,-0.07922,-0.06503
307,0.01701,-0.4161,1.05507,-0.53957,-0.01317,-0.01078,0.1152,-0.72966,0.94194,-0.11607,-0.08907,-0.07316
308,0.02896,-0.43643,1.05401,-0.51831,-0.02241,-0.01835,0.12704,-0.73508,0.91417,-0.08358,-0.0982,-0.08073
309,0.03982,-0.45556,1.05142,-0.49677,-0.03081,-0.02523,0.13779,-0.73893,0.88454,-0.0508,-0.10649,-0.08761
310,0.04942,-0.47341,1.04764,-0.47535,-0.03824,-0.03132,0.14729,-0.74128,0.85356,-0.01814,-0.11381,-0.0937
311,0.05768,-0.48984,1.04556,-0.45706,-0.04463,-0.03656,0.15632,-0.75872,0.86187,-0.00969,-0.12077,-0.0995
312,0.06474,-0.50489,1.05144,-0.4481,-0.05009,-0.04104,0.16715,-0.8212,0.98907,-0.07528,-0.12911,-0.10647
313,0.07056,-0.51919,1.06294,-0.4455,-0.05459,-0.04474,0.1789,-0.89219,1.16316,-0.1794,-0.13815,-0.11405
314,0.07503,-0.5325,1.07659,-0.446,-0.05804,-0.04758,0.18989,-0.94159,1.3284,-0.29623,-0.14659,-0.12115
315,0.07808,-0.54387,1.08822,-0.44637,-0.0604,-0.04952,0.19783,-0.94877,1.44826,-0.40969,-0.15269,-0.1263
316,0.07964,-0.55235,1.09412,-0.44385,-0.06161,-0.05051,0.20053,-0.90396,1.4995,-0.506,-0.15476,-0.12805
317,0.0799,-0.56053,1.1001,-0.44166,-0.0618,-0.05067,0.20102,-0.83916,1.52885,-0.60019,-0.15513,-0.12836
318,0.07891,-0.56933,1.1073,-0.44002,-0.06104,-0.05004,0.20014,-0.76424,1.54571,-0.69189,-0.15446,-0.12779
319,0.07669,-0.5789,1.11495,-0.43802,-0.05932,-0.04863,0.19789,-0.68331,1.54877,-0.77566,-0.15274,-0.12633
320,0.07323,-0.58929,1.12229,-0.43485,-0.05665,-0.04643,0.19425,-0.6017,1.53923,-0.84737,-0.14994,-0.12397
321,0.06846,-0.59812,1.12262,-0.42618,-0.05296,-0.0434,0.18695,-0.51257,1.48459,-0.88116,-0.14433,-0.11925
322,0.06235,-0.60364,1.11108,-0.40891,-0.04824,-0.03952,0.17505,-0.41432,1.36373,-0.85749,-0.13518,-0.11156
323,0.05493,-0.60824,1.09271,-0.38574,-0.0425,-0.03481,0.16121,-0.32101,1.21023,-0.79615,-0.12454,-0.10265
324,0.04618,-0.61457,1.07334,-0.35982,-0.03573,-0.02926,0.14737,-0.24767,1.06461,-0.7228,-0.11387,-0.09375
325,0.03611,-0.62534,1.05953,-0.33504,-0.02794,-0.02288,0.13475,-0.21793,0.98403,-0.67109,-0.10415,-0.08567
326,0.02484,-0.64098,1.05378,-0.31348,-0.01922,-0.01574,0.12335,-0.24027,0.99492,-0.65891,-0.09536,-0.07837
327,0.01252,-0.65666,1.04691,-0.29081,-0.00969,-0.00793,0.11104,-0.26643,1.01114,-0.64826,-0.08586,-0.07051
328,-0.00066,-0.67172,1.03791,-0.26672,0.00051,0.00042,0.09786,-0.29245,1.02562,-0.63604,-0.07569,-0.06211
329,-0.01458,-0.68599,1.02649,-0.24107,0.01128,0.00924,0.08393,-0.31828,1.03817,-0.62214,-0.06492,-0.05324
330,-0.02889,-0.69911,1.01255,-0.21418,0.02235,0.0183,0.0696,-0.34343,1.04847,-0.60675,-0.05385,-0.04414
331,-0.0434,-0.71089,0.99598,-0.18608,0.03358,0.0275,0.05505,-0.36777,1.05644,-0.58993,-0.0426,-0.0349
332,-0.05788,-0.72118,0.97676,-0.15692,0.04478,0.03669,0.04052,-0.39114,1.06205,-0.57184,-0.03136,-0.02568
333,-0.07209,-0.72986,0.95495,-0.12689,0.05576,0.04571,0.02625,-0.41337,1.06536,-0.55267,-0.02032,-0.01664
334,-0.08577,-0.73686,0.93072,-0.09619,0.06634,0.0544,0.01249,-0.43437,1.06649,-0.53268,-0.00967,-0.00792
335,-0.09868,-0.74217,0.90432,-0.06507,0.07631,0.06262,-0.0005,-0.45404,1.06568,-0.51216,0.00039,0.00031
336,-0.11059,-0.74584,0.8761,-0.03379,0.08551,0.07021,-0.0125,-0.47236,1.06321,-0.49141,0.00967,0.00791
337,-0.12125,-0.74797,0.8465,-0.00266,0.09373,0.07702,-0.02324,-0.48932,1.05945,-0.47078,0.01798,0.01472
338,-0.13122,-0.76546,0.85645,0.00425,0.10143,0.0834,-0.03256,-0.50487,1.05731,-0.45322,0.02519,0.02062
339,-0.14245,-0.82862,0.98587,-0.06277,0.11008,0.09059,-0.04053,-0.51907,1.06303,-0.44488,0.03136,0.02567
340,-0.15428,-0.90037,1.16194,-0.16796,0.1192,0.09818,-0.04715,-0.53256,1.07429,-0.4428,0.03648,0.02987
341,-0.16533,-0.95047,1.32882,-0.28562,0.1277,0.10529,-0.05237,-0.54511,1.08765,-0.44373,0.04051,0.03318
342,-0.17351,-0.95814,1.45022,-0.40003,0.134,0.11056,-0.05611,-0.55576,1.09898,-0.44451,0.04341,0.03556
343,-0.17685,-0.91349,1.50295,-0.4977,0.13656,0.11271,-0.05833,-0.56357,1.10462,-0.4424,0.04512,0.03696
344,-0.17778,-0.84859,1.53369,-0.59342,0.13728,0.11331,-0.05898,-0.5711,1.11044,-0.44071,0.04563,0.03738
345,-0.17746,-0.77343,1.55162,-0.68648,0.13703,0.11311,-0.0585,-0.5793,1.11732,-0.43938,0.04526,0.03707
346,-0.17571,-0.69213,1.55549,-0.7715,0.13569,0.11198,-0.05673,-0.58829,1.12459,-0.43762,0.04389,0.03595
347,-0.1725,-0.61006,1.54648,-0.84429,0.13322,0.10991,-0.05367,-0.59812,1.13149,-0.43459,0.04152,0.03401
348,-0.16582,-0.52039,1.49216,-0.87908,0.12808,0.10561,-0.04928,-0.60641,1.13133,-0.42603,0.03812,0.03122
349,-0.15485,-0.42162,1.3715,-0.85631,0.11963,0.09855,-0.04352,-0.61141,1.11926,-0.40883,0.03367,0.02757
350,-0.14198,-0.32793,1.21814,-0.79569,0.10972,0.09029,-0.03643,-0.61547,1.10028,-0.38566,0.02818,0.02307
351,-0.12894,-0.25429,1.07248,-0.72281,0.09967,0.08194,-0.02795,-0.62125,1.08019,-0.35965,0.02163,0.0177
352,-0.11682,-0.22412,0.99131,-0.67107,0.09031,0.07419,-0.0181,-0.63141,1.06547,-0.33466,0.014,0.01146
353,-0.10558,-0.24581,1.00088,-0.65833,0.08164,0.06702,-0.007,-0.6464,1.05866,-0.31279,0.00541,0.00443
354,-0.09341,-0.2713,1.01573,-0.6471,0.07224,0.05926,0.00518,-0.6614,1.05066,-0.28979,-0.00401,-0.00328
355,-0.08037,-0.29665,1.02885,-0.63431,0.06216,0.05097,0.0182,-0.67575,1.0405,-0.26535,-0.01409,-0.01154
356,-0.06668,-0.32161,1.03997,-0.61997,0.05159,0.04227,0.03186,-0.68919,1.02799,-0.23956,-0.02466,-0.02019
357,-0.0526,-0.34594,1.04891,-0.60417,0.04069,0.03333,0.04591,-0.70149,1.01297,-0.21252,-0.03552,-0.0291
358,-0.03834,-0.36943,1.05558,-0.58703,0.02966,0.02429,0.06011,-0.71245,0.9954,-0.18436,-0.04651,-0.03811
359,-0.02365,-0.39273,1.0601,-0.56804,0.0183,0.01498,0.07473,-0.72224,0.9745,-0.15415,-0.05781,-0.04739
360,-0.00957,-0.41431,1.06224,-0.54848,0.0074,0.00606,0.08873,-0.73016,0.95155,-0.12384,-0.06863,-0.0563
361,0.00399,-0.43465,1.06229,-0.52816,-0.00309,-0.00253,0.1022,-0.73641,0.92622,-0.09289,-0.07903,-0.06487
362,0.01679,-0.45371,1.06048,-0.50737,-0.01299,-0.01064,0.1149,-0.741,0.89879,-0.06155,-0.08884,-0.07297
363,0.02858,-0.47144,1.05713,-0.48641,-0.02212,-0.01811,0.12659,-0.74399,0.86961,-0.03009,-0.09786,-0.08044
364,0.03914,-0.48787,1.05259,-0.46563,-0.03028,-0.0248,0.13705,-0.74549,0.83913,0.00122,-0.10592,-0.08714
365,0.04829,-0.50294,1.04981,-0.44797,-0.03736,-0.0306,0.14692,-0.76257,0.84864,0.0081,-0.11353,-0.09347
366,0.05613,-0.51675,1.05505,-0.43959,-0.04343,-0.03558,0.15836,-0.82585,0.97863,-0.05948,-0.12235,-0.10082
367,0.06267,-0.52993,1.06598,-0.43754,-0.04848,-0.03972,0.17059,-0.89782,1.15541,-0.16529,-0.13175,-0.10868
368,0.06782,-0.54225,1.07912,-0.43852,-0.05246,-0.04299,0.18206,-0.94809,1.32279,-0.28341,-0.14057,-0.11609
369,0.07148,-0.55273,1.09033,-0.43938,-0.0553,-0.04532,0.1905,-0.9559,1.4445,-0.39808,-0.14706,-0.12155
370,0.07359,-0.5604,1.09589,-0.43734,-0.05693,-0.04666,0.19379,-0.91142,1.4974,-0.49578,-0.14959,-0.12368
371,0.07434,-0.56786,1.1016,-0.43562,-0.05751,-0.04714,0.19482,-0.84677,1.52824,-0.59137,-0.15038,-0.12434
372,0.0738,-0.57601,1.10855,-0.4344,-0.05709,-0.04679,0.19444,-0.77186,1.54639,-0.68439,-0.15008,-0.12409
373,0.07197,-0.585,1.11598,-0.43277,-0.05567,-0.04563,0.19263,-0.69082,1.55052,-0.76939,-0.14869,-0.12292
374,0.06842,-0.59492,1.12339,-0.43015,-0.05293,-0.04338,0.18888,-0.60892,1.54194,-0.84235,-0.14582,-0.1205
375,0.06393,-0.60328,1.12353,-0.42178,-0.04946,-0.04053,0.18195,-0.51941,1.4879,-0.87718,-0.14049,-0.11602
376,0.0581,-0.60836,1.11177,-0.40476,-0.04495,-0.03683,0.17048,-0.42068,1.36745,-0.85446,-0.13167,-0.10861
377,0.05093,-0.61253,1.09315,-0.38179,-0.03941,-0.03228,0.15704,-0.32696,1.21425,-0.79389,-0.12133,-0.09997
378,0.04239,-0.61846,1.0735,-0.35601,-0.0328,-0.02686,0.14353,-0.25329,1.06879,-0.72109,-0.11092,-0.09129
379,0.0325,-0.62883,1.05935,-0.3313,-0.02515,-0.02059,0.13115,-0.2232,0.98802,-0.66957,-0.10138,-0.08336
380,0.02139,-0.64411,1.05323,-0.30975,-0.01655,-0.01355,0.1199,-0.24513,0.99829,-0.65722,-0.0927,-0.07617
381,0.00921,-0.65943,1.04598,-0.28709,-0.00712,-0.00583,0.10773,-0.27089,1.01392,-0.6464,-0.08331,-0.0684
382,-0.00383,-0.67415,1.03664,-0.26301,0.00297,0.00243,0.09469,-0.29654,1.02785,-0.63403,-0.07324,-0.06009
383,-0.0175,-0.68799,1.02497,-0.23758,0.01354,0.01109,0.08101,-0.32181,1.0398,-0.62012,-0.06267,-0.05139
384,-0.03157,-0.70071,1.01084,-0.21089,0.02443,0.02,0.06692,-0.34647,1.04959,-0.60474,-0.05177,-0.04243
385,-0.04579,-0.71212,0.99417,-0.18309,0.03543,0.02902,0.05266,-0.3703,1.05712,-0.58801,-0.04074,-0.03338
386,-0.05993,-0.72205,0.97498,-0.15434,0.04637,0.03799,0.03847,-0.39313,1.06236,-0.57011,-0.02977,-0.02438
387,-0.07374,-0.7304,0.95337,-0.12483,0.05704,0.04676,0.02459,-0.41481,1.06539,-0.55125,-0.01903,-0.01558
388,-0.08698,-0.73712,0.92953,-0.09478,0.06727,0.05517,0.01128,-0.43525,1.06637,-0.53167,-0.00873,-0.00715
389,-0.10067,-0.7426,0.90127,-0.06168,0.07784,0.06389,-0.0025,-0.45602,1.06531,-0.50981,0.00193,0.00158
390,-0.1124,-0.74606,0.87298,-0.03055,0.0869,0.07137,-0.01432,-0.47408,1.06267,-0.48916,0.01108,0.00906
391,-0.12289,-0.74802,0.84336,0.00042,0.095,0.07807,-0.0249,-0.49082,1.05878,-0.46863,0.01927,0.01577
392,-0.13326,-0.76778,0.85763,0.00525,0.103,0.0847,-0.0345,-0.50689,1.05666,-0.45058,0.02669,0.02185
393,-0.14503,-0.83617,1.00014,-0.06967,0.11207,0.09224,-0.04262,-0.52155,1.06314,-0.44255,0.03298,0.027
394,-0.15735,-0.91022,1.1867,-0.18311,0.12156,0.10016,-0.04927,-0.53547,1.07542,-0.44107,0.03812,0.03122
395,-0.16851,-0.95649,1.35631,-0.30734,0.13015,0.10734,-0.05438,-0.54826,1.08939,-0.44237,0.04207,0.03446
396,-0.17596,-0.95221,1.4686,-0.42455,0.13588,0.11214,-0.05785,-0.55871,1.10015,-0.44278,0.04475,0.03666
397,-0.17839,-0.89603,1.51248,-0.52482,0.13775,0.11371,-0.05967,-0.56643,1.10541,-0.44038,0.04616,0.03781
398,-0.179,-0.82412,1.54089,-0.6252,0.13822,0.1141,-0.06002,-0.57448,1.11192,-0.43885,0.04643,0.03804
399,-0.17804,-0.74226,1.55444,-0.72053,0.13748,0.11348,-0.05895,-0.58333,1.11943,-0.43748,0.0456,0.03736
400,-0.1755,-0.65586,1.55267,-0.80494,0.13552,0.11184,-0.05646,-0.59309,1.12704,-0.43525,0.04368,0.03578
401,-0.17085,-0.56837,1.52965,-0.869,0.13195,0.10885,-0.05255,-0.60324,1.13247,-0.43042,0.04065,0.03329
402,-0.16109,-0.46707,1.432,-0.87185,0.12444,0.10256,-0.04714,-0.60984,1.12521,-0.41643,0.03647,0.02986
403,-0.1481,-0.36479,1.2813,-0.82244,0.11443,0.09421,-0.04026,-0.61417,1.10772,-0.39447,0.03114,0.0255
404,-0.13204,-0.27728,1.12013,-0.74766,0.10205,0.08392,-0.0297,-0.61951,1.08737,-0.3686,0.02298,0.01881
405,-0.11898,-0.2275,1.0055,-0.682,0.09198,0.07557,-0.01986,-0.62832,1.06926,-0.34155,0.01536,0.01257
406,-0.10724,-0.24004,0.99745,-0.66076,0.08292,0.06808,-0.00865,-0.64307,1.06058,-0.31805,0.00669,0.00547
407,-0.09484,-0.26672,1.01328,-0.64929,0.07334,0.06017,0.00375,-0.65884,1.05253,-0.29421,-0.00291,-0.00238
408,-0.08145,-0.29332,1.02728,-0.63611,0.063,0.05166,0.01712,-0.67398,1.04217,-0.26879,-0.01325,-0.01085
409,-0.06732,-0.31954,1.03913,-0.62123,0.05208,0.04268,0.03122,-0.68816,1.02925,-0.24185,-0.02416,-0.01979
410,-0.05271,-0.3451,1.04863,-0.60474,0.04078,0.03341,0.04579,-0.70111,1.01361,-0.21353,-0.03543,-0.02902
411,-0.03789,-0.36975,1.05565,-0.58677,0.02932,0.024,0.06056,-0.71261,0.99517,-0.18398,-0.04685,-0.03839
412,-0.02313,-0.3933,1.06018,-0.56754,0.0179,0.01465,0.07525,-0.72248,0.97396,-0.15339,-0.05821,-0.04772
413,-0.00871,-0.41558,1.06232,-0.54728,0.00674,0.00552,0.08958,-0.7306,0.95011,-0.122,-0.06929,-0.05684
414,0.00508,-0.43648,1.06226,-0.52631,-0.00393,-0.00322,0.10328,-0.73693,0.92384,-0.09005,-0.07987,-0.06556
415,0.01797,-0.45594,1.06028,-0.50495,-0.01391,-0.01138,0.11607,-0.74149,0.8955,-0.05784,-0.08974,-0.07372
416,0.02967,-0.47395,1.05677,-0.48357,-0.02296,-0.0188,0.12767,-0.74438,0.86553,-0.02567,-0.09869,-0.08114
417,0.03993,-0.49054,1.05217,-0.46254,-0.0309,-0.0253,0.13783,-0.74577,0.83448,0.00609,-0.10653,-0.08764
418,0.04864,-0.5056,1.05241,-0.44791,-0.03763,-0.03082,0.14822,-0.7813,0.88948,-0.01411,-0.11454,-0.0943
419,0.05589,-0.51955,1.06107,-0.44281,-0.04324,-0.03542,0.16013,-0.85514,1.05322,-0.10492,-0.1237,-0.10195
420,0.06164,-0.53281,1.0746,-0.44324,-0.04769,-0.03907,0.17222,-0.9233,1.23993,-0.22446,-0.13301,-0.10974
421,0.06579,-0.5447,1.08862,-0.44551,-0.05089,-0.0417,0.1824,-0.95619,1.39683,-0.34938,-0.14084,-0.11631
422,0.06821,-0.5538,1.09793,-0.4458,-0.05277,-0.04324,0.18777,-0.93317,1.48554,-0.4616,-0.14496,-0.11978
423,0.06899,-0.56108,1.10383,-0.44444,-0.05337,-0.04374,0.18883,-0.86951,1.52198,-0.5618,-0.14578,-0.12047
424,0.06828,-0.56898,1.11141,-0.4441,-0.05283,-0.04329,0.18828,-0.79304,1.54548,-0.66171,-0.14535,-0.12011
425,0.06611,-0.57771,1.11982,-0.44371,-0.05114,-0.04191,0.1861,-0.70791,1.55342,-0.75458,-0.14368,-0.1187
426,0.06246,-0.58735,1.12815,-0.44229,-0.04833,-0.0396,0.18227,-0.61994,1.54626,-0.83503,-0.14074,-0.11622
427,0.0573,-0.59639,1.13178,-0.43672,-0.04433,-0.03632,0.1754,-0.52779,1.5045,-0.88482,-0.13546,-0.11179
428,0.05056,-0.60165,1.12209,-0.42159,-0.03912,-0.03204,0.16327,-0.42336,1.38611,-0.86984,-0.12613,-0.10397
429,0.04227,-0.60549,1.10409,-0.39956,-0.03271,-0.02678,0.14862,-0.3223,1.22575,-0.8094,-0.11484,-0.09456
430,0.03239,-0.61098,1.08445,-0.37425,-0.02507,-0.02052,0.13364,-0.24125,1.06882,-0.73249,-0.1033,-0.08495
431,0.02094,-0.62122,1.07067,-0.35008,-0.01621,-0.01327,0.11968,-0.20665,0.98022,-0.67761,-0.09253,-0.07603
432,0.00817,-0.6368,1.06556,-0.32931,-0.00632,-0.00517,0.10678,-0.22847,0.99089,-0.66574,-0.08257,-0.06779
433,-0.00565,-0.6525,1.05903,-0.30707,0.00437,0.00358,0.09297,-0.25434,1.00695,-0.65525,-0.0719,-0.05899
434,-0.02019,-0.66768,1.04998,-0.28292,0.01562,0.01279,0.07841,-0.28039,1.02124,-0.64289,-0.06066,-0.04973
435,-0.03517,-0.68208,1.03808,-0.25683,0.02721,0.02228,0.06341,-0.30638,1.03349,-0.62862,-0.04906,-0.0402
436,-0.05027,-0.69541,1.02314,-0.22888,0.0389,0.03186,0.04826,-0.33208,1.04348,-0.61249,-0.03734,-0.03059
437,-0.06524,-0.70744,1.00506,-0.19919,0.05047,0.04136,0.03323,-0.35727,1.0511,-0.59462,-0.02571,-0.02106
438,-0.07981,-0.71797,0.98385,-0.16797,0.06173,0.05061,0.01858,-0.38172,1.05631,-0.57519,-0.01438,-0.01178
439,-0.09372,-0.72686,0.95966,-0.13548,0.07248,0.05946,0.00458,-0.40523,1.0592,-0.55449,-0.00355,-0.00291
440,-0.10675,-0.73401,0.93274,-0.10205,0.08254,0.06776,-0.00854,-0.42761,1.05992,-0.53284,0.00661,0.0054
441,-0.11868,-0.7394,0.90348,-0.06807,0.09175,0.07538,-0.02058,-0.44873,1.05873,-0.51063,0.01592,0.01303
442,-0.12931,-0.74306,0.87239,-0.03397,0.09995,0.08218,-0.03131,-0.46845,1.05597,-0.48828,0.02423,0.01983
443,-0.13864,-0.74825,0.84768,-0.00469,0.10714,0.08815,-0.04059,-0.48667,1.05251,-0.46676,0.0314,0.02571
444,-0.14909,-0.7996,0.94099,-0.04739,0.1152,0.09485,-0.04844,-0.50318,1.05612,-0.45404,0.03748,0.03069
445,-0.16079,-0.87511,1.11509,-0.14688,0.12421,0.10237,-0.05494,-0.5186,1.06695,-0.4496,0.0425,0.03481
446,-0.17225,-0.93553,1.29504,-0.26736,0.13303,0.10975,-0.06001,-0.53307,1.08124,-0.44958,0.04642,0.03803
447,-0.18111,-0.9545,1.43432,-0.38844,0.13984,0.11547,-0.06352,-0.54569,1.09446,-0.45028,0.04913,0.04026
448,-0.18473,-0.91555,1.49916,-0.49257,0.14262,0.1178,-0.06542,-0.55509,1.10163,-0.44811,0.0506,0.04146
449,-0.18541,-0.84889,1.53142,-0.59154,0.14314,0.11825,-0.06585,-0.56363,1.10773,-0.44568,0.05094,0.04174
450,-0.18459,-0.77069,1.55017,-0.68842,0.14251,0.11771,-0.0649,-0.5728,1.11516,-0.44391,0.05021,0.04114
451,-0.18225,-0.68559,1.55368,-0.77681,0.14071,0.1162,-0.06259,-0.58277,1.12305,-0.44176,0.04842,0.03967
452,-0.17837,-0.59974,1.54324,-0.85188,0.13773,0.11369,-0.05892,-0.59361,1.13052,-0.43828,0.04558,0.03734
453,-0.17044,-0.50473,1.47954,-0.8825,0.13163,0.10858,-0.05381,-0.60246,1.12954,-0.42831,0.04163,0.03409
454,-0.15803,-0.40145,1.3464,-0.85163,0.12208,0.10059,-0.04725,-0.60788,1.11593,-0.40912,0.03655,0.02993
455,-0.14391,-0.3059,1.18332,-0.78305,0.1112,0.09152,-0.03925,-0.61267,1.09565,-0.38388,0.03037,0.02486
456,-0.12998,-0.23673,1.03994,-0.70789,0.10047,0.0826,-0.02977,-0.61993,1.07556,-0.35636,0.02303,0.01885
457,-0.11741,-0.22358,0.98638,-0.66671,0.09077,0.07457,-0.01884,-0.6327,1.06331,-0.33122,0.01458,0.01193
458,-0.10519,-0.25066,1.00363,-0.65621,0.08134,0.06677,-0.00661,-0.64908,1.05668,-0.30813,0.00511,0.00418
459,-0.09187,-0.27777,1.01914,-0.64397,0.07105,0.05829,0.0067,-0.66495,1.04784,-0.28342,-0.00519,-0.00425
460,-0.0777,-0.3046,1.03258,-0.62999,0.0601,0.04927,0.02086,-0.67997,1.03651,-0.25716,-0.01614,-0.01322
461,-0.06274,-0.33113,1.04377,-0.61413,0.04853,0.03977,0.03579,-0.69401,1.02232,-0.22914,-0.0277,-0.02268
462,-0.04751,-0.35673,1.05237,-0.59672,0.03676,0.0301,0.05097,-0.70659,1.00529,-0.19986,-0.03944,-0.03231
463,-0.0322,-0.38132,1.05838,-0.57784,0.02491,0.0204,0.06622,-0.71758,0.98532,-0.16934,-0.05123,-0.04199
464,-0.01708,-0.40472,1.06183,-0.5577,0.01321,0.01082,0.08126,-0.72681,0.96245,-0.13778,-0.06286,-0.05154
465,-0.00244,-0.42679,1.06285,-0.53659,0.00188,0.00154,0.09581,-0.73421,0.93684,-0.1054,-0.0741,-0.0608
466,0.01144,-0.44743,1.06169,-0.51482,-0.00886,-0.00725,0.10959,-0.73974,0.90875,-0.07248,-0.08474,-0.06959
467,0.02428,-0.4666,1.05868,-0.49274,-0.01879,-0.01538,0.12232,-0.74345,0.87857,-0.03932,-0.09456,-0.07771
468,0.03579,-0.48431,1.05423,-0.47076,-0.02769,-0.02267,0.13373,-0.74547,0.84681,-0.00626,-0.10336,-0.08501
469,0.04575,-0.50052,1.05069,-0.45121,-0.0354,-0.02899,0.14419,-0.7585,0.84426,0.0086,-0.11143,-0.09171
470,0.05424,-0.51525,1.05564,-0.44164,-0.04197,-0.03438,0.15621,-0.82221,0.97285,-0.05717,-0.12068,-0.09943
471,0.06126,-0.52923,1.067,-0.43922,-0.0474,-0.03883,0.16912,-0.89766,1.15732,-0.16723,-0.13062,-0.10774
472,0.06675,-0.54222,1.08076,-0.44016,-0.05164,-0.04232,0.18119,-0.94931,1.33174,-0.29105,-0.13991,-0.11553
473,0.07059,-0.55311,1.09212,-0.44076,-0.05461,-0.04476,0.18979,-0.95328,1.45412,-0.41026,-0.14651,-0.12108
474,0.07272,-0.56103,1.09756,-0.43834,-0.05625,-0.04611,0.19285,-0.90195,1.50364,-0.51139,-0.14887,-0.12307
475,0.07321,-0.56908,1.10385,-0.43662,-0.05664,-0.04642,0.19362,-0.83193,1.53369,-0.61155,-0.14946,-0.12357
476,0.07239,-0.57788,1.11129,-0.43523,-0.056,-0.0459,0.19294,-0.75137,1.54926,-0.70761,-0.14893,-0.12313
477,0.07017,-0.5876,1.11903,-0.43316,-0.05428,-0.04449,0.19069,-0.66544,1.54948,-0.79355,-0.14721,-0.12167
478,0.06651,-0.59806,1.12556,-0.42911,-0.05146,-0.04217,0.1866,-0.57918,1.53271,-0.86265,-0.14406,-0.11902
479,0.06134,-0.60533,1.12043,-0.41655,-0.04746,-0.03888,0.17729,-0.47959,1.44581,-0.8745,-0.13691,-0.11301
480,0.05466,-0.60997,1.10431,-0.3956,-0.04229,-0.03464,0.16415,-0.37662,1.30034,-0.83088,-0.1268,-0.10454
481,0.04649,-0.61491,1.08344,-0.36958,-0.03597,-0.02946,0.14986,-0.28596,1.13734,-0.75742,-0.1158,-0.09535
482,0.0368,-0.6233,1.06494,-0.34251,-0.02848,-0.02332,0.13621,-0.22905,1.01188,-0.68792,-0.10528,-0.0866
483,0.02569,-0.63775,1.05592,-0.31886,-0.01988,-0.01627,0.1242,-0.23451,0.99153,-0.66133,-0.09602,-0.07892
484,0.01332,-0.65401,1.04905,-0.2956,-0.01031,-0.00844,0.11184,-0.26157,1.00854,-0.65057,-0.08648,-0.07102
485,-8e-05,-0.66972,1.03996,-0.27076,6e-05,5e-05,0.09845,-0.2886,1.0238,-0.6381,-0.07614,-0.06248
486,-0.01426,-0.68455,1.02838,-0.2444,0.01103,0.00903,0.08426,-0.3153,1.03696,-0.62392,-0.06518,-0.05345
487,-0.02894,-0.69821,1.01411,-0.21663,0.02239,0.01833,0.06956,-0.34139,1.04777,-0.60809,-0.05382,-0.04411
488,-0.04384,-0.71045,0.99706,-0.1876,0.03392,0.02778,0.05462,-0.3666,1.0561,-0.59075,-0.04226,-0.03462
489,-0.0587,-0.72108,0.97722,-0.1575,0.04541,0.0372,0.03971,-0.39074,1.06191,-0.57209,-0.03073,-0.02517
490,-0.07407,-0.73038,0.95353,-0.12502,0.05729,0.04696,0.02427,-0.41469,1.06535,-0.55133,-0.01878,-0.01538
491,-0.08825,-0.7375,0.92795,-0.09289,0.06825,0.05598,0.01001,-0.43647,1.0663,-0.53037,-0.00775,-0.00634
492,-0.10158,-0.74278,0.90005,-0.06032,0.07855,0.06447,-0.00341,-0.45681,1.06516,-0.50887,0.00264,0.00216
493,-0.11378,-0.74629,0.87022,-0.02763,0.08797,0.07225,-0.01571,-0.47568,1.06227,-0.48717,0.01215,0.00995
494,-0.1246,-0.74817,0.83897,0.00486,0.09632,0.07916,-0.02662,-0.49309,1.05806,-0.46566,0.02059,0.01686
495,-0.13509,-0.77547,0.87209,-0.00163,0.10441,0.08587,-0.03598,-0.50893,1.05705,-0.44895,0.02783,0.02279
496,-0.14699,-0.84731,1.02598,-0.08452,0.11358,0.0935,-0.04387,-0.52347,1.06458,-0.4421,0.03394,0.02779
497,-0.15926,-0.91909,1.2131,-0.20078,0.12303,0.10138,-0.05028,-0.5373,1.07739,-0.44123,0.0389,0.03185
498,-0.17005,-0.95936,1.37676,-0.32505,0.13133,0.10833,-0.05514,-0.54985,1.09123,-0.44264,0.04266,0.03494
499,-0.17671,-0.94639,1.47782,-0.43965,0.13645,0.11262,-0.05835,-0.55984,1.10107,-0.44259,0.04514,0.03698
