YechanE/asmr2025-Humanoid-Lowlevel/joints_timeseries_left.csv
Frame_Index,leg_left_ankle_roll_joint,leg_left_ankle_pitch_joint,leg_left_knee_pitch_joint,leg_left_hip_pitch_joint,leg_left_hip_yaw_joint,leg_left_hip_roll_joint,leg_right_ankle_roll_joint,leg_right_ankle_pitch_joint,leg_right_knee_pitch_joint,leg_right_hip_pitch_joint,leg_right_hip_yaw_joint,leg_right_hip_roll_joint
0,-0.04242,-0.56152,1.0873,-0.42674,0.03282,0.02688,0.05604,-0.562,1.08841,-0.4277,-0.04336,-0.03553
1,-0.04297,-0.56155,1.08736,-0.42679,0.03324,0.02722,0.0555,-0.56199,1.08838,-0.42767,-0.04294,-0.03518
2,-0.04383,-0.56159,1.08745,-0.42686,0.03391,0.02777,0.05464,-0.56197,1.08833,-0.42762,-0.04228,-0.03463
3,-0.04499,-0.56164,1.08757,-0.42695,0.03481,0.0285,0.05348,-0.56194,1.08826,-0.42755,-0.04138,-0.0339
4,-0.04643,-0.5617,1.08771,-0.42706,0.03592,0.02942,0.05203,-0.5619,1.08817,-0.42745,-0.04026,-0.03298
5,-0.04815,-0.56177,1.08786,-0.42719,0.03725,0.03051,0.05031,-0.56184,1.08804,-0.42734,-0.03893,-0.03189
6,-0.05014,-0.56184,1.08802,-0.42733,0.03879,0.03177,0.04833,-0.56177,1.08788,-0.4272,-0.0374,-0.03063
7,-0.05239,-0.56191,1.08819,-0.42748,0.04053,0.0332,0.04608,-0.56169,1.08768,-0.42703,-0.03566,-0.0292
8,-0.05491,-0.56198,1.08835,-0.42763,0.04248,0.0348,0.04356,-0.56157,1.08743,-0.42684,-0.03371,-0.02761
9,-0.0577,-0.56204,1.08849,-0.4278,0.04464,0.03657,0.04076,-0.56144,1.08711,-0.42661,-0.03154,-0.02583
10,-0.06078,-0.56208,1.08861,-0.42796,0.04702,0.03853,0.03768,-0.56127,1.08673,-0.42633,-0.02916,-0.02388
11,-0.06434,-0.56211,1.0887,-0.42813,0.04977,0.04078,0.03412,-0.56104,1.08624,-0.426,-0.0264,-0.02162
12,-0.06805,-0.56212,1.08873,-0.42828,0.05264,0.04314,0.0304,-0.56079,1.08567,-0.42563,-0.02353,-0.01927
13,-0.07211,-0.56209,1.0887,-0.42841,0.05578,0.04572,0.02634,-0.56047,1.08498,-0.42519,-0.02039,-0.01669
14,-0.07653,-0.56202,1.08859,-0.42853,0.05919,0.04853,0.02191,-0.56009,1.08414,-0.42469,-0.01696,-0.01389
15,-0.08134,-0.5619,1.08837,-0.42862,0.06292,0.05159,0.01708,-0.55963,1.08314,-0.4241,-0.01322,-0.01083
16,-0.08659,-0.56172,1.08802,-0.42867,0.06697,0.05493,0.01182,-0.55908,1.08193,-0.4234,-0.00915,-0.00749
17,-0.09231,-0.56146,1.08751,-0.42867,0.07139,0.05857,0.00609,-0.55841,1.08047,-0.42259,-0.00472,-0.00386
18,-0.09853,-0.5611,1.08679,-0.4286,0.0762,0.06253,-0.00016,-0.5576,1.07873,-0.42164,0.00012,9e-05
19,-0.10528,-0.56062,1.08582,-0.42845,0.08141,0.06683,-0.00693,-0.55664,1.07664,-0.42054,0.00536,0.00438
20,-0.11235,-0.56001,1.08459,-0.4282,0.08686,0.07134,-0.01403,-0.55552,1.07424,-0.41928,0.01085,0.00888
21,-0.11898,-0.56478,1.09477,-0.434,0.09199,0.07558,-0.0204,-0.55487,1.07322,-0.41897,0.01578,0.01292
22,-0.12647,-0.60632,1.18322,-0.48136,0.09776,0.08036,-0.02539,-0.55758,1.08205,-0.42514,0.01964,0.01607
23,-0.13479,-0.67078,1.32071,-0.55492,0.10418,0.08569,-0.02907,-0.56313,1.09843,-0.43602,0.02249,0.01841
24,-0.14188,-0.7298,1.44695,-0.62263,0.10964,0.09022,-0.03107,-0.56912,1.11517,-0.4468,0.02404,0.01968
25,-0.14635,-0.7708,1.53492,-0.66992,0.11309,0.09309,-0.03156,-0.5738,1.12779,-0.45475,0.02442,0.01999
26,-0.14628,-0.78184,1.55861,-0.68257,0.11303,0.09304,-0.03049,-0.57532,1.13171,-0.45714,0.02359,0.01931
27,-0.14336,-0.78212,1.55914,-0.68261,0.11079,0.09118,-0.02788,-0.57582,1.13275,-0.45764,0.02157,0.01766
28,-0.13874,-0.78253,1.55992,-0.68265,0.10722,0.08821,-0.02373,-0.57657,1.13434,-0.45843,0.01836,0.01503
29,-0.13234,-0.78306,1.56091,-0.68269,0.10229,0.08411,-0.01801,-0.57755,1.13642,-0.45947,0.01393,0.0114
30,-0.12411,-0.78365,1.56202,-0.68268,0.09594,0.07885,-0.01064,-0.57871,1.13889,-0.46073,0.00823,0.00673
31,-0.11309,-0.77362,1.54027,-0.67032,0.08743,0.07181,-0.00157,-0.57872,1.13825,-0.46005,0.00121,0.00098
32,-0.09821,-0.73341,1.45386,-0.62334,0.07595,0.06233,0.00927,-0.57538,1.12849,-0.45365,-0.00718,-0.00588
33,-0.08135,-0.67479,1.32839,-0.55575,0.06292,0.05159,0.02191,-0.5704,1.11391,-0.44414,-0.01695,-0.01388
34,-0.06373,-0.61294,1.19645,-0.48502,0.0493,0.04039,0.0364,-0.56561,1.09936,-0.43459,-0.02817,-0.02307
35,-0.04591,-0.56871,1.10218,-0.43452,0.03552,0.02909,0.05272,-0.56264,1.08984,-0.42841,-0.04079,-0.03342
36,-0.0282,-0.56085,1.08523,-0.4251,0.02182,0.01786,0.07025,-0.56233,1.08866,-0.42806,-0.05435,-0.04455
37,-0.01024,-0.55924,1.08143,-0.42274,0.00792,0.00649,0.08817,-0.56199,1.08779,-0.42823,-0.06819,-0.05594
38,0.00746,-0.55708,1.0763,-0.41976,-0.00577,-0.00472,0.1058,-0.5611,1.08557,-0.42775,-0.08182,-0.06717
39,0.02438,-0.5545,1.07008,-0.41624,-0.01887,-0.01544,0.12264,-0.55975,1.08216,-0.42663,-0.09482,-0.07792
40,0.04012,-0.55168,1.0631,-0.41234,-0.03104,-0.02542,0.13829,-0.55808,1.07783,-0.42498,-0.10688,-0.08793
41,0.05438,-0.54881,1.05576,-0.4082,-0.04207,-0.03446,0.15245,-0.55627,1.07292,-0.42289,-0.11779,-0.09702
42,0.06698,-0.54606,1.04843,-0.404,-0.05181,-0.04246,0.16495,-0.55447,1.06776,-0.42052,-0.12741,-0.10505
43,0.07781,-0.54359,1.04145,-0.39987,-0.06019,-0.04934,0.17568,-0.55285,1.06268,-0.41797,-0.13567,-0.11197
44,0.08687,-0.54154,1.03509,-0.39593,-0.06719,-0.05511,0.18466,-0.55151,1.05794,-0.41536,-0.14257,-0.11777
45,0.09423,-0.53998,1.02953,-0.39226,-0.07288,-0.05979,0.19194,-0.55054,1.05371,-0.41279,-0.14817,-0.12248
46,0.10003,-0.53893,1.02486,-0.38891,-0.07735,-0.06348,0.19767,-0.54998,1.0501,-0.4103,-0.15257,-0.12619
47,0.10445,-0.53839,1.02106,-0.38587,-0.08077,-0.0663,0.20205,-0.54981,1.04712,-0.40792,-0.15592,-0.12903
48,0.10793,-0.53894,1.01997,-0.38442,-0.08342,-0.06857,0.20633,-0.55784,1.062,-0.41524,-0.15942,-0.13156
49,0.11051,-0.54337,1.03082,-0.39094,-0.08513,-0.07055,0.21457,-0.6051,1.1651,-0.47215,-0.16719,-0.13516
50,0.11211,-0.55039,1.04891,-0.40207,-0.08584,-0.07223,0.22565,-0.66791,1.30685,-0.5527,-0.17834,-0.13918
51,0.11259,-0.55781,1.06775,-0.41346,-0.08545,-0.07346,0.23713,-0.72224,1.43618,-0.6296,-0.19074,-0.14233
52,0.11181,-0.56328,1.08114,-0.42127,-0.08387,-0.07415,0.24568,-0.75126,1.51612,-0.68226,-0.20162,-0.14271
53,0.10969,-0.56522,1.08516,-0.42315,-0.08108,-0.0742,0.24848,-0.74732,1.52749,-0.69865,-0.2086,-0.13873
54,0.10643,-0.56693,1.08834,-0.42435,-0.07724,-0.07374,0.24965,-0.7379,1.52819,-0.70964,-0.21459,-0.13335
55,0.10206,-0.56911,1.09226,-0.42579,-0.0724,-0.07273,0.24987,-0.7285,1.52913,-0.7207,-0.21988,-0.12733
56,0.09654,-0.57178,1.09682,-0.42732,-0.06655,-0.07115,0.24891,-0.71965,1.53038,-0.7313,-0.22407,-0.12078
57,0.08983,-0.57482,1.10148,-0.42855,-0.05969,-0.06893,0.2463,-0.71069,1.5294,-0.73941,-0.22655,-0.11366
58,0.08179,-0.57488,1.09732,-0.42393,-0.05172,-0.06596,0.23736,-0.67745,1.46933,-0.71169,-0.22354,-0.10317
59,0.07244,-0.57246,1.08519,-0.41381,-0.04269,-0.06223,0.22314,-0.62109,1.3523,-0.64924,-0.21555,-0.09028
60,0.06183,-0.5701,1.07113,-0.40176,-0.03264,-0.05774,0.20691,-0.55696,1.21366,-0.57265,-0.20486,-0.07751
61,0.04991,-0.57019,1.06152,-0.39175,-0.02158,-0.05245,0.19094,-0.50599,1.1,-0.5079,-0.19294,-0.06666
62,0.03669,-0.5747,1.0625,-0.38799,-0.00952,-0.04631,0.17661,-0.49541,1.07017,-0.48683,-0.18067,-0.05886
63,0.02228,-0.58092,1.06736,-0.38654,0.00343,-0.03938,0.16212,-0.50194,1.07594,-0.48433,-0.16776,-0.0516
64,0.00687,-0.58707,1.07151,-0.38458,0.0171,-0.03174,0.1466,-0.50827,1.08102,-0.48139,-0.15411,-0.04364
65,-0.00942,-0.59306,1.07472,-0.38199,0.03136,-0.02344,0.13016,-0.51429,1.08519,-0.47791,-0.13981,-0.03502
66,-0.02621,-0.59868,1.07676,-0.3788,0.0459,-0.0147,0.11317,-0.51982,1.08822,-0.47392,-0.12518,-0.02598
67,-0.04326,-0.60382,1.07752,-0.37497,0.06051,-0.00561,0.09587,-0.52477,1.08998,-0.4694,-0.11041,-0.01662
68,-0.06029,-0.60843,1.07693,-0.37051,0.07495,0.00366,0.07854,-0.52908,1.09041,-0.46437,-0.09576,-0.00709
69,-0.077,-0.61245,1.07501,-0.36545,0.08896,0.01295,0.06148,-0.53272,1.08954,-0.45889,-0.08149,0.00243
70,-0.09307,-0.61589,1.07187,-0.35987,0.10228,0.02211,0.04502,-0.53571,1.08748,-0.45307,-0.06785,0.01179
71,-0.1082,-0.61879,1.0677,-0.35386,0.11464,0.03095,0.02948,-0.53811,1.08442,-0.44701,-0.05513,0.02081
72,-0.12206,-0.62123,1.06275,-0.34755,0.12578,0.03929,0.01518,-0.54,1.0806,-0.44087,-0.04362,0.02932
73,-0.13435,-0.62333,1.05735,-0.34109,0.13543,0.04697,0.00245,-0.54151,1.07637,-0.43482,-0.03357,0.03715
74,-0.14591,-0.64309,1.09219,-0.35716,0.14336,0.05561,-0.00851,-0.5441,1.07649,-0.43215,-0.02489,0.04386
75,-0.15853,-0.69883,1.21174,-0.42194,0.14938,0.06823,-0.01793,-0.54978,1.08689,-0.43678,-0.01689,0.04896
76,-0.17106,-0.7608,1.35518,-0.50416,0.15305,0.08357,-0.02596,-0.55715,1.10208,-0.4446,-0.00947,0.05257
77,-0.1814,-0.80602,1.47606,-0.58012,0.15324,0.09968,-0.03264,-0.56437,1.11635,-0.45171,-0.00264,0.05478
78,-0.18664,-0.81765,1.53908,-0.63103,0.14819,0.11407,-0.03792,-0.56933,1.124,-0.45452,0.0035,0.0556
79,-0.18594,-0.79824,1.54511,-0.65521,0.13774,0.12564,-0.04174,-0.57171,1.12434,-0.45262,0.00887,0.05507
80,-0.18252,-0.77632,1.54915,-0.67952,0.12483,0.13592,-0.04401,-0.57454,1.1252,-0.45082,0.01336,0.05316
81,-0.17689,-0.75386,1.55257,-0.70353,0.11033,0.14468,-0.04495,-0.57791,1.12664,-0.44905,0.01708,0.05009
82,-0.16918,-0.73206,1.55523,-0.72605,0.09478,0.15145,-0.04442,-0.58191,1.12859,-0.44714,0.0199,0.04581
83,-0.15901,-0.70673,1.54455,-0.73881,0.07838,0.15543,-0.04233,-0.58581,1.12894,-0.44371,0.02169,0.04032
84,-0.14434,-0.65526,1.46426,-0.70825,0.05998,0.15475,-0.03851,-0.58633,1.1189,-0.43323,0.02228,0.03357
85,-0.12794,-0.588,1.33604,-0.64597,0.0422,0.15059,-0.03293,-0.58508,1.10226,-0.41787,0.0216,0.02559
86,-0.11232,-0.52109,1.19734,-0.57345,0.02747,0.14395,-0.02557,-0.58453,1.08508,-0.40123,0.01959,0.01643
87,-0.09897,-0.47699,1.09903,-0.51909,0.01742,0.13515,-0.01648,-0.58706,1.07388,-0.38743,0.01624,0.00616
88,-0.08817,-0.47563,1.08603,-0.50777,0.01223,0.1244,-0.00589,-0.59397,1.07305,-0.3796,0.0117,-0.005
89,-0.07666,-0.48172,1.08723,-0.50323,0.00684,0.11279,0.006,-0.60157,1.07349,-0.37234,0.00605,-0.01688
90,-0.06412,-0.48795,1.08773,-0.49784,0.00052,0.10069,0.01896,-0.60902,1.07321,-0.36451,-0.00055,-0.02927
91,-0.05081,-0.49419,1.08735,-0.49156,-0.00656,0.08831,0.03272,-0.61613,1.07203,-0.35613,-0.00795,-0.04196
92,-0.03699,-0.50029,1.08598,-0.48442,-0.01426,0.07588,0.04701,-0.62277,1.06979,-0.34722,-0.01599,-0.05471
93,-0.02292,-0.50618,1.08356,-0.47647,-0.0224,0.0636,0.06156,-0.62882,1.06645,-0.33785,-0.02449,-0.06729
94,-0.00818,-0.51182,1.07991,-0.46756,-0.03137,0.05128,0.07679,-0.63422,1.06194,-0.32804,-0.03384,-0.07993
95,0.00581,-0.51707,1.07535,-0.45817,-0.04011,0.03985,0.09128,-0.63888,1.0564,-0.31801,-0.04295,-0.09167
96,0.01928,-0.52196,1.06992,-0.44828,-0.04883,0.02924,0.10522,-0.64282,1.04997,-0.30789,-0.05205,-0.10258
97,0.03194,-0.52653,1.06383,-0.43809,-0.05738,0.01968,0.11835,-0.64608,1.04286,-0.29786,-0.06097,-0.11244
98,0.04354,-0.53083,1.05735,-0.42777,-0.06559,0.01137,0.1304,-0.64875,1.03538,-0.28813,-0.06953,-0.12102
99,0.05383,-0.53495,1.05085,-0.4176,-0.07331,0.00455,0.14114,-0.65117,1.02845,-0.27924,-0.07761,-0.12812
100,0.06259,-0.54061,1.05244,-0.41396,-0.07975,-0.00143,0.15264,-0.6848,1.0932,-0.3112,-0.08823,-0.13331
101,0.06971,-0.54819,1.06371,-0.41802,-0.0844,-0.00701,0.16587,-0.74707,1.2284,-0.38553,-0.1028,-0.13646
102,0.07511,-0.55631,1.07898,-0.42546,-0.08723,-0.01208,0.17963,-0.80779,1.37288,-0.47117,-0.11988,-0.13739
103,0.07869,-0.56313,1.09256,-0.43238,-0.08822,-0.01653,0.19193,-0.84527,1.48382,-0.54678,-0.13749,-0.13541
104,0.08036,-0.5666,1.09869,-0.43509,-0.08735,-0.02023,0.1999,-0.84318,1.52722,-0.59426,-0.15294,-0.12925
105,0.0803,-0.56817,1.10094,-0.43572,-0.08479,-0.02326,0.20485,-0.81936,1.53345,-0.6261,-0.1668,-0.12028
106,0.07869,-0.56992,1.10432,-0.4372,-0.08073,-0.02567,0.20913,-0.79368,1.53859,-0.65861,-0.18039,-0.1106
107,0.07557,-0.57198,1.1086,-0.43919,-0.07525,-0.02743,0.21259,-0.76738,1.54229,-0.69012,-0.19314,-0.10066
108,0.07089,-0.57447,1.11359,-0.44138,-0.06835,-0.02846,0.21488,-0.74185,1.54459,-0.71917,-0.20429,-0.09081
109,0.06471,-0.57572,1.11447,-0.44065,-0.06012,-0.02875,0.21358,-0.70586,1.51664,-0.72776,-0.21154,-0.08001
110,0.05699,-0.57355,1.105,-0.43298,-0.05058,-0.02821,0.20575,-0.64406,1.4185,-0.69084,-0.21214,-0.06687
111,0.04783,-0.57034,1.0906,-0.42143,-0.03984,-0.02686,0.19401,-0.57167,1.28261,-0.626,-0.20762,-0.05373
112,0.03723,-0.56861,1.07744,-0.40967,-0.02795,-0.02464,0.18055,-0.50679,1.14995,-0.55652,-0.19918,-0.04264
113,0.02517,-0.57072,1.07208,-0.40195,-0.01494,-0.0215,0.16685,-0.47512,1.0771,-0.51356,-0.18744,-0.03517
114,0.01176,-0.57656,1.07535,-0.39924,-0.00093,-0.01743,0.1531,-0.48229,1.0797,-0.50727,-0.17334,-0.03053
115,-0.00281,-0.58245,1.07837,-0.39638,0.01387,-0.01251,0.13824,-0.49044,1.08424,-0.50196,-0.1584,-0.02518
116,-0.01826,-0.58812,1.08059,-0.39311,0.0292,-0.00685,0.12249,-0.49811,1.08787,-0.49632,-0.14289,-0.01912
117,-0.03429,-0.59344,1.08181,-0.38937,0.0448,-0.00059,0.10611,-0.50517,1.09041,-0.49033,-0.12708,-0.01248
118,-0.05062,-0.59831,1.08188,-0.38513,0.06039,0.00616,0.08942,-0.51152,1.09174,-0.48401,-0.11125,-0.00539
119,-0.06693,-0.60267,1.08074,-0.38036,0.07567,0.01327,0.07271,-0.51711,1.0918,-0.47738,-0.09567,0.00201
120,-0.08292,-0.6065,1.07842,-0.3751,0.09038,0.02058,0.05629,-0.52189,1.09064,-0.47052,-0.08063,0.00959
121,-0.09829,-0.60981,1.07502,-0.36939,0.10423,0.02797,0.04048,-0.5259,1.08836,-0.46353,-0.06641,0.01721
122,-0.11272,-0.61266,1.07069,-0.36328,0.11693,0.0353,0.02558,-0.52919,1.08517,-0.45652,-0.05331,0.02474
123,-0.12721,-0.61574,1.06492,-0.35562,0.12921,0.04324,0.01054,-0.53242,1.08081,-0.44851,-0.04055,0.03291
124,-0.13929,-0.61804,1.05922,-0.34869,0.13912,0.05027,-0.00203,-0.5346,1.07635,-0.44161,-0.0302,0.04012
125,-0.14989,-0.62441,1.06287,-0.34694,0.14717,0.05725,-0.01286,-0.53669,1.07286,-0.43586,-0.02167,0.04679
126,-0.16145,-0.66841,1.15326,-0.39429,0.1535,0.06783,-0.02212,-0.54159,1.07936,-0.43738,-0.01401,0.05206
127,-0.17369,-0.73106,1.29311,-0.47234,0.15786,0.08188,-0.03003,-0.54884,1.09322,-0.44399,-0.00689,0.05584
128,-0.18481,-0.78578,1.42835,-0.55335,0.15936,0.09763,-0.03666,-0.55676,1.10865,-0.45157,-0.0003,0.05824
129,-0.19211,-0.81367,1.52022,-0.61716,0.1564,0.11275,-0.04196,-0.56334,1.11996,-0.45642,0.0057,0.05929
130,-0.19287,-0.80329,1.54223,-0.64846,0.14738,0.12488,-0.04587,-0.56676,1.12239,-0.45559,0.01099,0.05899
131,-0.19006,-0.78208,1.54636,-0.6722,0.13505,0.13541,-0.04839,-0.56967,1.12302,-0.45348,0.01554,0.05741
132,-0.18492,-0.75987,1.55008,-0.69625,0.12083,0.14458,-0.04954,-0.57312,1.12435,-0.45154,0.01932,0.05461
133,-0.17763,-0.73781,1.55312,-0.71934,0.10532,0.15195,-0.04927,-0.57715,1.12626,-0.44957,0.02225,0.05061
134,-0.16843,-0.71695,1.55499,-0.74009,0.08917,0.15714,-0.04755,-0.58178,1.12852,-0.44735,0.02425,0.04544
135,-0.15513,-0.67711,1.50556,-0.72859,0.07114,0.15816,-0.04419,-0.58404,1.12322,-0.43987,0.02514,0.03904
136,-0.13868,-0.61512,1.39382,-0.67725,0.05243,0.15505,-0.0391,-0.5835,1.10884,-0.42608,0.0248,0.03142
137,-0.12201,-0.54608,1.25449,-0.60592,0.03578,0.14909,-0.03216,-0.58258,1.09133,-0.40949,0.02311,0.02254
138,-0.10726,-0.48914,1.1316,-0.53955,0.02333,0.14102,-0.02358,-0.58372,1.07691,-0.39388,0.02016,0.01259
139,-0.09545,-0.47119,1.08491,-0.51096,0.01634,0.13089,-0.01344,-0.58917,1.07227,-0.38369,0.01598,0.00168
140,-0.08431,-0.47737,1.08652,-0.50674,0.01127,0.11947,-0.00192,-0.59698,1.07313,-0.37663,0.01067,-0.01001
141,-0.07205,-0.48376,1.08752,-0.50168,0.00523,0.10747,0.01075,-0.6047,1.07336,-0.36903,0.00435,-0.02231
142,-0.05891,-0.49019,1.0877,-0.49575,-0.00165,0.0951,0.02434,-0.61214,1.07275,-0.36087,-0.00283,-0.03498
143,-0.04514,-0.49654,1.08692,-0.48895,-0.0092,0.08258,0.03857,-0.61916,1.07112,-0.35216,-0.01072,-0.04781
144,-0.03102,-0.50269,1.08509,-0.48131,-0.01727,0.07013,0.05318,-0.62561,1.0684,-0.34296,-0.01915,-0.06058
145,-0.01681,-0.50856,1.08218,-0.47289,-0.02569,0.05797,0.06789,-0.63142,1.06454,-0.33333,-0.02795,-0.07306
146,-0.00278,-0.51409,1.07825,-0.46381,-0.03431,0.04633,0.08241,-0.63653,1.0596,-0.32341,-0.03694,-0.08501
147,0.0108,-0.51926,1.0734,-0.45419,-0.04295,0.03544,0.09648,-0.64091,1.05371,-0.31334,-0.04596,-0.09621
148,0.02365,-0.5241,1.06782,-0.44421,-0.05144,0.02552,0.10981,-0.64461,1.04707,-0.30328,-0.05483,-0.10643
149,0.03551,-0.52864,1.06176,-0.43404,-0.05964,0.0168,0.12213,-0.64766,1.03994,-0.29345,-0.06339,-0.11544
150,0.04613,-0.53296,1.05551,-0.42391,-0.06739,0.00949,0.13318,-0.65018,1.03265,-0.28406,-0.07148,-0.12303
151,0.05525,-0.53779,1.05251,-0.41648,-0.07429,0.0035,0.1436,-0.66513,1.05445,-0.2915,-0.08016,-0.12889
152,0.06273,-0.54482,1.06065,-0.41797,-0.07944,-0.00204,0.15576,-0.71933,1.16819,-0.35213,-0.09284,-0.13262
153,0.06849,-0.55301,1.07524,-0.42465,-0.08275,-0.0071,0.16894,-0.78379,1.31498,-0.43607,-0.10863,-0.13419
154,0.07243,-0.56074,1.09057,-0.43246,-0.0842,-0.01155,0.18156,-0.83339,1.44488,-0.51833,-0.12585,-0.13318
155,0.07446,-0.56599,1.10093,-0.43764,-0.08376,-0.01528,0.19116,-0.84989,1.52135,-0.58031,-0.14211,-0.12858
156,0.07459,-0.5679,1.10378,-0.43855,-0.08149,-0.01826,0.19621,-0.82983,1.53357,-0.61431,-0.1558,-0.11996
157,0.07308,-0.56963,1.10706,-0.43997,-0.07764,-0.02058,0.2002,-0.80461,1.53949,-0.64707,-0.16913,-0.11012
158,0.06998,-0.5716,1.11133,-0.44206,-0.07227,-0.02223,0.2034,-0.77816,1.54406,-0.67956,-0.18184,-0.0998
159,0.0653,-0.57392,1.11636,-0.4445,-0.06546,-0.02316,0.20556,-0.75178,1.54714,-0.71022,-0.19326,-0.08941
160,0.05905,-0.57627,1.12084,-0.4463,-0.05724,-0.02332,0.20583,-0.724,1.54219,-0.73385,-0.20226,-0.07895
161,0.05116,-0.57529,1.11553,-0.44162,-0.04762,-0.02262,0.19987,-0.67122,1.47099,-0.71518,-0.20506,-0.06613
162,0.04173,-0.57215,1.10274,-0.43165,-0.03669,-0.02106,0.18893,-0.60121,1.34714,-0.66022,-0.20212,-0.05235
163,0.03078,-0.56935,1.08841,-0.41983,-0.02454,-0.01862,0.17538,-0.53033,1.2075,-0.58984,-0.19478,-0.03978
164,0.01827,-0.56935,1.0789,-0.41012,-0.01117,-0.0152,0.16084,-0.48051,1.10119,-0.53157,-0.18378,-0.03011
165,0.00434,-0.57383,1.07958,-0.40623,0.00327,-0.01084,0.14628,-0.47613,1.08182,-0.51483,-0.16964,-0.02422
166,-0.01076,-0.57937,1.08244,-0.40363,0.01852,-0.00565,0.13089,-0.48391,1.08618,-0.50973,-0.15424,-0.0186
167,-0.02667,-0.58469,1.08437,-0.4005,0.03428,0.00022,0.11466,-0.49126,1.08954,-0.50417,-0.13829,-0.01234
168,-0.04307,-0.58969,1.08518,-0.39676,0.05025,0.00662,0.09791,-0.49807,1.09173,-0.49811,-0.1221,-0.00558
169,-0.05964,-0.59428,1.08475,-0.39238,0.06612,0.0134,0.08095,-0.50427,1.09263,-0.49157,-0.10595,0.00153
170,-0.07606,-0.59844,1.08305,-0.38733,0.08161,0.02043,0.06409,-0.50982,1.09222,-0.48458,-0.09012,0.00886
171,-0.09204,-0.60215,1.08012,-0.38166,0.09645,0.02758,0.04764,-0.5147,1.09056,-0.47721,-0.0749,0.01628
172,-0.10731,-0.60544,1.07608,-0.37542,0.11038,0.03473,0.03186,-0.51892,1.0878,-0.46958,-0.06055,0.02367
173,-0.1216,-0.60835,1.07114,-0.3687,0.12316,0.04176,0.01704,-0.52253,1.08412,-0.46184,-0.04732,0.03092
174,-0.13469,-0.61095,1.06552,-0.36161,0.13455,0.04857,0.00343,-0.5256,1.0798,-0.45413,-0.03546,0.03793
175,-0.14634,-0.61336,1.0595,-0.35428,0.14435,0.05507,-0.00876,-0.52819,1.07511,-0.44666,-0.02519,0.04462
176,-0.15636,-0.61566,1.0534,-0.34685,0.15236,0.06117,-0.01929,-0.5304,1.07039,-0.4396,-0.01673,0.05091
177,-0.16637,-0.6419,1.1021,-0.37023,0.15871,0.0693,-0.0282,-0.53416,1.07192,-0.43731,-0.00957,0.05624
178,-0.17784,-0.70042,1.22867,-0.43917,0.16348,0.08163,-0.03581,-0.54091,1.08341,-0.44207,-0.0029,0.0601
179,-0.18918,-0.76125,1.3715,-0.52181,0.16594,0.09656,-0.04221,-0.5491,1.09902,-0.44957,0.00332,0.06259
180,-0.19795,-0.80261,1.48631,-0.59535,0.16471,0.11191,-0.04738,-0.55684,1.11299,-0.45592,0.00904,0.06377
181,-0.20099,-0.80839,1.53843,-0.64091,0.15783,0.12504,-0.05124,-0.56197,1.11954,-0.45751,0.01414,0.06363
182,-0.19854,-0.7881,1.54286,-0.66405,0.14597,0.13555,-0.05376,-0.56498,1.12008,-0.45522,0.01854,0.06222
183,-0.19377,-0.76628,1.54693,-0.68806,0.13202,0.14494,-0.05496,-0.56847,1.12135,-0.45319,0.02225,0.05959
184,-0.18682,-0.74412,1.55043,-0.71164,0.11657,0.15277,-0.05483,-0.57251,1.12327,-0.45123,0.02518,0.0558
185,-0.17793,-0.7228,1.55317,-0.73359,0.10025,0.15862,-0.05331,-0.57714,1.12567,-0.44915,0.02726,0.05086
186,-0.16631,-0.69499,1.53512,-0.74132,0.08292,0.16143,-0.0503,-0.5812,1.1253,-0.44483,0.02836,0.04477
187,-0.15027,-0.64086,1.44615,-0.70463,0.06372,0.15956,-0.04561,-0.58179,1.11433,-0.43334,0.02829,0.03744
188,-0.13299,-0.57311,1.31414,-0.63902,0.04559,0.15444,-0.03923,-0.58093,1.0976,-0.41748,0.02699,0.02894
189,-0.11691,-0.50837,1.17792,-0.56681,0.03089,0.14703,-0.03114,-0.58108,1.08124,-0.40092,0.02442,0.01931
190,-0.10347,-0.47032,1.09085,-0.51768,0.02122,0.13761,-0.02142,-0.58462,1.07183,-0.38789,0.02059,0.00865
191,-0.09242,-0.47294,1.08544,-0.50997,0.01604,0.12646,-0.01029,-0.59225,1.07223,-0.38054,0.01562,-0.00284
192,-0.08104,-0.47912,1.08688,-0.50555,0.01057,0.11516,0.00146,-0.59982,1.07297,-0.37358,0.00989,-0.01441
193,-0.06877,-0.48541,1.08766,-0.50034,0.00429,0.10344,0.01415,-0.60721,1.07301,-0.36612,0.00333,-0.02643
194,-0.05569,-0.49169,1.08762,-0.4943,-0.00278,0.0914,0.02767,-0.6143,1.07222,-0.35815,-0.00405,-0.03876
195,-0.04217,-0.49783,1.08663,-0.48748,-0.01038,0.07932,0.04166,-0.62092,1.07044,-0.34968,-0.01198,-0.05115
196,-0.02836,-0.50375,1.08463,-0.47988,-0.01843,0.06735,0.05594,-0.627,1.06761,-0.34076,-0.02039,-0.06343
197,-0.01451,-0.50939,1.08162,-0.47157,-0.0268,0.05568,0.07027,-0.63245,1.06371,-0.33148,-0.02912,-0.0754
198,-0.00084,-0.5147,1.07763,-0.46265,-0.03533,0.04451,0.08442,-0.63722,1.05881,-0.32193,-0.03801,-0.08687
199,0.01241,-0.51966,1.07279,-0.45324,-0.04388,0.03404,0.09813,-0.64132,1.05301,-0.31225,-0.04693,-0.09764
200,0.02499,-0.5243,1.06724,-0.44348,-0.05231,0.02447,0.11117,-0.64477,1.04651,-0.30259,-0.05572,-0.1075
201,0.03667,-0.52864,1.06122,-0.43355,-0.06047,0.01598,0.1233,-0.64762,1.03953,-0.29313,-0.06423,-0.11627
202,0.04723,-0.53276,1.05498,-0.42363,-0.06823,0.00878,0.13428,-0.64995,1.03237,-0.28406,-0.07232,-0.12374
203,0.05643,-0.53738,1.05194,-0.41638,-0.0752,0.00275,0.14476,-0.66472,1.05425,-0.29176,-0.08106,-0.12963
204,0.06416,-0.544,1.05913,-0.41734,-0.08058,-0.0029,0.15692,-0.71581,1.16105,-0.34856,-0.09352,-0.13362
205,0.07034,-0.55174,1.07239,-0.42317,-0.0843,-0.00811,0.17011,-0.77744,1.30031,-0.42775,-0.10892,-0.1357
206,0.07489,-0.55921,1.0868,-0.43035,-0.08635,-0.01281,0.18303,-0.82743,1.42776,-0.50714,-0.12582,-0.13555
207,0.07774,-0.5647,1.09744,-0.43563,-0.08671,-0.01687,0.19361,-0.84953,1.5111,-0.57041,-0.14222,-0.13232
208,0.07885,-0.56688,1.10055,-0.43659,-0.08539,-0.02025,0.19976,-0.83511,1.53031,-0.60584,-0.15614,-0.12517
209,0.07829,-0.56846,1.10307,-0.43744,-0.08247,-0.02293,0.20425,-0.81173,1.53597,-0.63653,-0.16929,-0.11633
210,0.07649,-0.57021,1.10645,-0.43891,-0.07832,-0.02514,0.20828,-0.78697,1.54043,-0.66734,-0.18219,-0.10709
211,0.07331,-0.57226,1.11059,-0.44077,-0.0729,-0.02674,0.21152,-0.76193,1.54356,-0.6969,-0.19418,-0.09771
212,0.06877,-0.5747,1.1153,-0.44275,-0.06623,-0.0277,0.21366,-0.73784,1.54544,-0.72399,-0.20462,-0.08848
213,0.0628,-0.57547,1.1148,-0.44116,-0.05831,-0.02794,0.21177,-0.70034,1.51041,-0.72686,-0.21086,-0.07795
214,0.05544,-0.57325,1.10516,-0.43339,-0.0492,-0.02743,0.20407,-0.64024,1.4131,-0.68903,-0.21113,-0.06544
215,0.04676,-0.57018,1.0913,-0.42226,-0.03901,-0.02618,0.19294,-0.57123,1.28305,-0.62674,-0.20681,-0.05303
216,0.03676,-0.56846,1.07856,-0.41094,-0.02776,-0.02413,0.18025,-0.50896,1.15583,-0.56019,-0.19892,-0.04246
217,0.02543,-0.57014,1.07262,-0.40309,-0.01549,-0.02124,0.16724,-0.47548,1.07999,-0.51615,-0.188,-0.0351
218,0.01285,-0.57554,1.07534,-0.40026,-0.00229,-0.0175,0.15429,-0.48073,1.0793,-0.50858,-0.17476,-0.03068
219,-0.00081,-0.58117,1.07825,-0.39754,0.01166,-0.01297,0.14034,-0.48856,1.08368,-0.50352,-0.16067,-0.02574
220,-0.01532,-0.58661,1.08049,-0.39447,0.02614,-0.00775,0.12554,-0.49598,1.0873,-0.49818,-0.14603,-0.02013
221,-0.03043,-0.59177,1.08185,-0.39098,0.04092,-0.00195,0.11011,-0.50287,1.08995,-0.49252,-0.13105,-0.01396
222,-0.04588,-0.59654,1.0822,-0.38705,0.05577,0.00432,0.09431,-0.50914,1.09154,-0.48655,-0.11598,-0.00736
223,-0.06142,-0.60086,1.08148,-0.38264,0.07043,0.01096,0.07841,-0.51473,1.09198,-0.4803,-0.10106,-0.00043
224,-0.07725,-0.60501,1.07951,-0.37734,0.08503,0.01814,0.06215,-0.5199,1.09124,-0.47342,-0.08612,0.00704
225,-0.09236,-0.60846,1.07656,-0.37186,0.09875,0.02527,0.04661,-0.52414,1.08942,-0.46661,-0.07205,0.01442
226,-0.1068,-0.61147,1.07265,-0.36597,0.11159,0.03244,0.03172,-0.52769,1.08664,-0.45969,-0.05883,0.02179
227,-0.1203,-0.6141,1.06797,-0.35972,0.12331,0.03951,0.01774,-0.53061,1.08309,-0.45278,-0.0467,0.02906
228,-0.13262,-0.61643,1.06272,-0.3532,0.13368,0.04637,0.00495,-0.533,1.07901,-0.44601,-0.03592,0.03609
229,-0.14351,-0.61856,1.05719,-0.34652,0.14246,0.05289,-0.0064,-0.53494,1.0747,-0.43955,-0.02673,0.04278
230,-0.15357,-0.63299,1.07967,-0.35547,0.14955,0.06018,-0.01616,-0.53749,1.07348,-0.43564,-0.01902,0.04878
231,-0.16483,-0.68259,1.18433,-0.41145,0.15511,0.07123,-0.02459,-0.5429,1.08207,-0.43877,-0.01191,0.05338
232,-0.17641,-0.74257,1.32049,-0.48838,0.15875,0.0851,-0.03181,-0.55012,1.09608,-0.44558,-0.00527,0.05667
233,-0.18657,-0.79159,1.44485,-0.5641,0.15957,0.10016,-0.03788,-0.55762,1.11053,-0.45261,0.00089,0.05872
234,-0.19287,-0.81418,1.52542,-0.62183,0.15611,0.1143,-0.04274,-0.56362,1.1205,-0.45669,0.0065,0.05954
235,-0.19314,-0.80214,1.54236,-0.64971,0.14711,0.12563,-0.04633,-0.5667,1.1223,-0.45556,0.01146,0.05914
236,-0.19037,-0.78191,1.54629,-0.67234,0.13529,0.1356,-0.04867,-0.56951,1.12293,-0.45356,0.01576,0.05759
237,-0.18549,-0.76077,1.54986,-0.69525,0.12175,0.14435,-0.04977,-0.57279,1.1242,-0.4517,0.01935,0.05492
238,-0.17865,-0.73972,1.55282,-0.71734,0.10702,0.1515,-0.04958,-0.5766,1.12599,-0.44984,0.02218,0.05118
239,-0.16957,-0.71989,1.55521,-0.73762,0.09127,0.15636,-0.04761,-0.58107,1.1284,-0.4479,0.02381,0.04608
240,-0.15766,-0.68683,1.5209,-0.73453,0.07445,0.1581,-0.04463,-0.5839,1.12529,-0.44207,0.02481,0.04015
241,-0.14231,-0.63108,1.42441,-0.69219,0.05648,0.15584,-0.04011,-0.58376,1.11298,-0.42995,0.02472,0.03311
242,-0.12633,-0.56555,1.29491,-0.6271,0.03994,0.15083,-0.03401,-0.58275,1.09647,-0.41446,0.02349,0.025
243,-0.1116,-0.50528,1.1674,-0.55928,0.0267,0.14375,-0.02634,-0.58298,1.08111,-0.39883,0.02106,0.01584
244,-0.09925,-0.47162,1.08976,-0.51525,0.01806,0.1348,-0.01716,-0.58648,1.07263,-0.38677,0.01747,0.00574
245,-0.08891,-0.47471,1.08594,-0.50867,0.01332,0.12424,-0.00669,-0.59365,1.07295,-0.37983,0.01283,-0.00512
246,-0.07767,-0.48072,1.08717,-0.50421,0.00796,0.11303,0.00493,-0.60106,1.07346,-0.37281,0.00722,-0.01661
247,-0.06554,-0.48684,1.08774,-0.49897,0.00178,0.10139,0.01747,-0.6083,1.07328,-0.3653,0.00076,-0.02853
248,-0.05271,-0.49294,1.08749,-0.49293,-0.00509,0.08952,0.03073,-0.61521,1.07226,-0.35728,-0.00641,-0.0407
249,-0.03943,-0.49892,1.08633,-0.48611,-0.0125,0.07759,0.04447,-0.62168,1.07027,-0.34877,-0.01416,-0.05293
250,-0.02592,-0.50468,1.0842,-0.47855,-0.02032,0.06581,0.05844,-0.62761,1.06727,-0.33984,-0.02233,-0.06501
251,-0.01242,-0.51016,1.0811,-0.47031,-0.02841,0.05436,0.07242,-0.63293,1.06324,-0.33057,-0.03078,-0.07676
252,0.00084,-0.51533,1.07709,-0.46151,-0.03663,0.04345,0.08615,-0.63761,1.05827,-0.32105,-0.03935,-0.08797
253,0.01363,-0.52018,1.07229,-0.45225,-0.04483,0.03327,0.0994,-0.64163,1.05247,-0.31144,-0.04791,-0.09844
254,0.02703,-0.5248,1.06631,-0.44212,-0.05389,0.02317,0.11326,-0.64499,1.04565,-0.30159,-0.05734,-0.10883
255,0.03853,-0.52904,1.06025,-0.43225,-0.06191,0.0148,0.12521,-0.64776,1.03863,-0.29216,-0.0657,-0.11748
256,0.04892,-0.53308,1.054,-0.4224,-0.06954,0.0077,0.13601,-0.65003,1.03145,-0.28314,-0.07366,-0.12484
257,0.05797,-0.53764,1.05096,-0.41523,-0.07639,0.00177,0.14635,-0.66477,1.05334,-0.29089,-0.08229,-0.13064
258,0.06557,-0.54421,1.05819,-0.41626,-0.08167,-0.00379,0.1584,-0.71588,1.16023,-0.34776,-0.09466,-0.13457
259,0.07163,-0.55192,1.07149,-0.42217,-0.0853,-0.00894,0.1715,-0.77755,1.29958,-0.42701,-0.10999,-0.1366
260,0.07607,-0.55935,1.08596,-0.42943,-0.08727,-0.01356,0.18434,-0.82758,1.42711,-0.50644,-0.12682,-0.13639
261,0.07882,-0.56483,1.09665,-0.43477,-0.08754,-0.01757,0.19482,-0.84971,1.51051,-0.56975,-0.14315,-0.13311
262,0.07985,-0.56699,1.09983,-0.4358,-0.08615,-0.02089,0.20088,-0.83532,1.52978,-0.60521,-0.15699,-0.12589
263,0.07939,-0.56853,1.10228,-0.43663,-0.08331,-0.02363,0.20547,-0.81195,1.5354,-0.63589,-0.17022,-0.11713
264,0.07753,-0.57027,1.1057,-0.43815,-0.07913,-0.0258,0.20943,-0.78721,1.53992,-0.66672,-0.18307,-0.10784
265,0.0743,-0.57232,1.1099,-0.44006,-0.07366,-0.02737,0.2126,-0.7622,1.54309,-0.69631,-0.195,-0.09842
266,0.06971,-0.57476,1.11466,-0.44209,-0.06695,-0.0283,0.21467,-0.73813,1.54502,-0.72342,-0.2054,-0.08915
267,0.0637,-0.57552,1.11421,-0.44054,-0.059,-0.02851,0.21272,-0.70063,1.51003,-0.72632,-0.21159,-0.07859
268,0.0563,-0.5733,1.10461,-0.43281,-0.04987,-0.02798,0.20497,-0.64052,1.41274,-0.68852,-0.21181,-0.06603
269,0.04677,-0.57037,1.09123,-0.422,-0.03901,-0.02618,0.19294,-0.57146,1.28306,-0.6265,-0.20681,-0.05302
270,0.03675,-0.56864,1.07851,-0.41071,-0.02775,-0.02412,0.18021,-0.50917,1.15585,-0.55999,-0.1989,-0.04244
271,0.02542,-0.5703,1.07257,-0.40288,-0.01548,-0.02123,0.16721,-0.47567,1.08,-0.51597,-0.18798,-0.03509
272,0.01287,-0.57569,1.07528,-0.40006,-0.0023,-0.0175,0.15429,-0.48091,1.07931,-0.5084,-0.17477,-0.03068
273,-0.00076,-0.5813,1.07818,-0.39734,0.01162,-0.013,0.14038,-0.48873,1.08367,-0.50335,-0.1607,-0.02576
274,-0.01523,-0.58673,1.08041,-0.39427,0.02607,-0.00781,0.12562,-0.49614,1.08727,-0.498,-0.14609,-0.02018
275,-0.03029,-0.59188,1.08177,-0.39079,0.04081,-0.00204,0.11024,-0.50303,1.08993,-0.49235,-0.13115,-0.01405
276,-0.0457,-0.59664,1.08213,-0.38686,0.05563,0.00421,0.09448,-0.5093,1.09151,-0.48639,-0.11611,-0.00747
277,-0.0612,-0.60097,1.08142,-0.38247,0.07026,0.01082,0.07861,-0.51488,1.09197,-0.48014,-0.10121,-0.00055
278,-0.07653,-0.60481,1.07963,-0.37762,0.08447,0.01768,0.06289,-0.51976,1.0913,-0.47366,-0.08669,0.00657
279,-0.09141,-0.60819,1.07681,-0.37234,0.09802,0.02467,0.04759,-0.52392,1.08957,-0.46702,-0.0728,0.01379
280,-0.10559,-0.61111,1.07309,-0.36668,0.11066,0.03166,0.03297,-0.5274,1.08693,-0.46032,-0.0598,0.021
281,-0.1188,-0.61366,1.06863,-0.3607,0.12216,0.03855,0.0193,-0.53025,1.08356,-0.45366,-0.04791,0.02807
282,-0.1308,-0.61592,1.06367,-0.35451,0.13228,0.0452,0.00685,-0.53256,1.07971,-0.44719,-0.0374,0.03488
283,-0.14134,-0.61799,1.05847,-0.34818,0.14079,0.0515,-0.00413,-0.53444,1.07565,-0.44104,-0.02849,0.04134
284,-0.15102,-0.63233,1.08127,-0.3575,0.14759,0.05853,-0.01349,-0.53693,1.07473,-0.43749,-0.02109,0.04709
285,-0.16182,-0.68175,1.18616,-0.41381,0.15279,0.06927,-0.0215,-0.54228,1.08363,-0.44098,-0.0143,0.05143
286,-0.17284,-0.7415,1.32248,-0.49108,0.15601,0.08278,-0.02827,-0.54943,1.09798,-0.44818,-0.00801,0.05443
287,-0.18237,-0.79027,1.447,-0.56715,0.15635,0.09744,-0.03386,-0.55687,1.11277,-0.45561,-0.00222,0.05617
288,-0.18802,-0.81261,1.52771,-0.6252,0.15238,0.11115,-0.03822,-0.5628,1.12311,-0.46011,0.003,0.05668
289,-0.18765,-0.80039,1.54478,-0.65336,0.1429,0.12208,-0.04128,-0.56581,1.12528,-0.45941,0.00756,0.05595
290,-0.18422,-0.78,1.54879,-0.67622,0.13056,0.13164,-0.04306,-0.56853,1.1263,-0.45786,0.01142,0.05404
291,-0.17861,-0.75868,1.55239,-0.69935,0.11645,0.13994,-0.04355,-0.57171,1.12795,-0.45648,0.01454,0.05099
292,-0.17097,-0.73743,1.55532,-0.72162,0.10109,0.14658,-0.0427,-0.5754,1.13013,-0.4551,0.01685,0.04682
293,-0.16153,-0.7173,1.55749,-0.74204,0.08506,0.15124,-0.04048,-0.57962,1.13269,-0.45356,0.01829,0.04155
294,-0.14881,-0.68407,1.52307,-0.73907,0.0676,0.15248,-0.03675,-0.58225,1.12994,-0.44825,0.01871,0.03516
295,-0.13274,-0.62825,1.42646,-0.69676,0.04906,0.14978,-0.03141,-0.58192,1.11799,-0.43668,0.01799,0.0276
296,-0.11606,-0.56265,1.29684,-0.63169,0.03198,0.14434,-0.02442,-0.58067,1.10181,-0.42176,0.01606,0.01892
297,-0.10058,-0.50225,1.16917,-0.56393,0.01815,0.1368,-0.01577,-0.58062,1.08675,-0.40672,0.01289,0.00915
298,-0.08732,-0.46828,1.09127,-0.52,0.0088,0.12728,-0.00556,-0.58375,1.07846,-0.39524,0.00849,-0.00161
299,-0.07594,-0.47086,1.08704,-0.51355,0.00326,0.11606,0.00593,-0.59047,1.0788,-0.3888,0.00306,-0.01312
300,-0.06377,-0.47634,1.08771,-0.50911,-0.00282,0.10426,0.01845,-0.59739,1.07914,-0.38215,-0.00325,-0.02517
301,-0.05088,-0.48193,1.0876,-0.50378,-0.00959,0.09214,0.03173,-0.60415,1.07862,-0.37482,-0.01028,-0.03756
302,-0.0375,-0.48755,1.08658,-0.49752,-0.01688,0.07991,0.04552,-0.6106,1.07707,-0.36681,-0.01786,-0.05007
303,-0.0239,-0.4931,1.0846,-0.49037,-0.02454,0.06777,0.05957,-0.61667,1.07442,-0.35812,-0.02585,-0.06249
304,-0.01029,-0.49854,1.08164,-0.48239,-0.03243,0.05592,0.07364,-0.62227,1.07065,-0.34884,-0.03409,-0.07464
305,0.00309,-0.50381,1.07775,-0.47366,-0.04043,0.04454,0.0875,-0.62735,1.0658,-0.33906,-0.04245,-0.08632
306,0.01604,-0.50888,1.07303,-0.46431,-0.04839,0.03382,0.10093,-0.63188,1.05998,-0.32891,-0.05079,-0.09734
307,0.02835,-0.51375,1.06762,-0.45449,-0.05622,0.02393,0.11372,-0.63587,1.05337,-0.31858,-0.05899,-0.10753
308,0.03985,-0.51842,1.0617,-0.44437,-0.06381,0.01503,0.1257,-0.63932,1.04616,-0.30826,-0.06696,-0.11673
309,0.05037,-0.52291,1.05549,-0.43412,-0.07107,0.00727,0.13668,-0.64229,1.03863,-0.29814,-0.07458,-0.12477
310,0.05976,-0.52727,1.04923,-0.42396,-0.07792,0.00081,0.14651,-0.64483,1.03107,-0.28848,-0.08177,-0.13152
311,0.06787,-0.53217,1.0463,-0.41654,-0.08404,-0.00454,0.15599,-0.65984,1.05268,-0.29569,-0.08973,-0.13678
312,0.07463,-0.53911,1.05373,-0.4174,-0.08867,-0.00957,0.16743,-0.71114,1.15934,-0.35217,-0.10163,-0.14034
313,0.07995,-0.54718,1.0673,-0.42318,-0.09173,-0.01424,0.18007,-0.77299,1.2985,-0.43111,-0.11659,-0.14209
314,0.08368,-0.55499,1.08208,-0.43036,-0.09314,-0.01841,0.19244,-0.82321,1.42587,-0.51025,-0.13306,-0.14161
315,0.08579,-0.5608,1.09307,-0.43562,-0.09293,-0.02201,0.20243,-0.84562,1.50911,-0.57316,-0.149,-0.13803
316,0.08624,-0.56328,1.09651,-0.43655,-0.09109,-0.02496,0.2079,-0.83158,1.52821,-0.60811,-0.16238,-0.13046
317,0.08527,-0.56513,1.09923,-0.43731,-0.08785,-0.02738,0.21195,-0.80858,1.53371,-0.6383,-0.17519,-0.12136
318,0.08295,-0.56715,1.10292,-0.43877,-0.08331,-0.02925,0.21542,-0.78419,1.53815,-0.6687,-0.18765,-0.11177
319,0.0793,-0.56947,1.10739,-0.44064,-0.07752,-0.03055,0.21814,-0.7595,1.5413,-0.69793,-0.19924,-0.10207
320,0.07433,-0.57215,1.11241,-0.44265,-0.07053,-0.03124,0.21981,-0.73573,1.54325,-0.72475,-0.20932,-0.09255
321,0.06799,-0.57315,1.11221,-0.44109,-0.06232,-0.03124,0.21745,-0.69852,1.50831,-0.72737,-0.21519,-0.08171
322,0.06028,-0.57114,1.10285,-0.43334,-0.05295,-0.03051,0.20925,-0.63867,1.41108,-0.68931,-0.21508,-0.06886
323,0.05131,-0.56827,1.08926,-0.42225,-0.04253,-0.02906,0.19765,-0.56985,1.28112,-0.62683,-0.21041,-0.05613
324,0.04105,-0.56674,1.0768,-0.41098,-0.03108,-0.02685,0.18457,-0.50773,1.154,-0.56016,-0.20224,-0.04531
325,0.02951,-0.5686,1.07115,-0.4032,-0.01864,-0.02382,0.17129,-0.47438,1.07835,-0.51611,-0.19111,-0.03775
326,0.01674,-0.57418,1.07416,-0.40045,-0.0053,-0.01996,0.15817,-0.47979,1.07796,-0.50863,-0.17774,-0.0332
327,0.00291,-0.57997,1.07735,-0.39781,0.00878,-0.01532,0.14406,-0.48776,1.08264,-0.50366,-0.16353,-0.02815
328,-0.01177,-0.58558,1.07986,-0.39482,0.02339,-0.01,0.1291,-0.49532,1.08653,-0.49841,-0.14877,-0.02242
329,-0.02715,-0.59097,1.08147,-0.39131,0.03839,-0.00403,0.1134,-0.50242,1.08946,-0.49276,-0.13359,-0.01608
330,-0.04287,-0.59595,1.08204,-0.38737,0.05343,0.00241,0.09734,-0.50887,1.09129,-0.4868,-0.11832,-0.0093
331,-0.05871,-0.60048,1.08149,-0.38292,0.06833,0.00923,0.08113,-0.51464,1.09194,-0.48052,-0.10316,-0.00216
332,-0.07441,-0.60453,1.0798,-0.37796,0.08284,0.01634,0.06502,-0.5197,1.09141,-0.47396,-0.08834,0.00521
333,-0.08972,-0.60811,1.07702,-0.37252,0.09672,0.02359,0.04929,-0.52403,1.08976,-0.46719,-0.07412,0.01271
334,-0.10436,-0.61122,1.07325,-0.36664,0.10971,0.03088,0.0342,-0.52766,1.08712,-0.46029,-0.06075,0.02022
335,-0.11806,-0.61393,1.06866,-0.3604,0.12159,0.03807,0.02003,-0.53065,1.08367,-0.4534,-0.04847,0.02761
336,-0.13058,-0.61634,1.06348,-0.35387,0.1321,0.04505,0.00704,-0.53308,1.07967,-0.44663,-0.03755,0.03476
337,-0.14164,-0.61853,1.05798,-0.34717,0.14102,0.05169,-0.00449,-0.53507,1.07539,-0.44015,-0.02821,0.04157
338,-0.15186,-0.633,1.08045,-0.35609,0.14824,0.05907,-0.01442,-0.53764,1.07419,-0.43622,-0.02037,0.04768
339,-0.16324,-0.6826,1.18505,-0.41199,0.15389,0.0702,-0.02299,-0.54307,1.08277,-0.43932,-0.01314,0.05237
340,-0.1749,-0.74257,1.32112,-0.48885,0.1576,0.08413,-0.03035,-0.55029,1.09676,-0.44609,-0.0064,0.05575
341,-0.18515,-0.79161,1.44541,-0.5645,0.15848,0.09924,-0.03654,-0.55779,1.11118,-0.45309,-0.00014,0.05787
342,-0.19154,-0.8142,1.52591,-0.62216,0.15509,0.11344,-0.04152,-0.56379,1.12111,-0.45714,0.00556,0.05876
343,-0.1919,-0.80218,1.5428,-0.64999,0.14617,0.12483,-0.04521,-0.56687,1.12288,-0.45597,0.0106,0.05843
344,-0.18902,-0.78199,1.54675,-0.6726,0.13426,0.13474,-0.04745,-0.5697,1.12357,-0.45399,0.01481,0.05682
345,-0.18421,-0.76087,1.55027,-0.69547,0.12077,0.14353,-0.04861,-0.57297,1.1248,-0.45211,0.01846,0.05419
346,-0.17744,-0.73982,1.55318,-0.71751,0.10609,0.15072,-0.0485,-0.57677,1.12655,-0.45022,0.02134,0.05049
347,-0.16894,-0.71992,1.55539,-0.73774,0.09078,0.15596,-0.04705,-0.58113,1.1287,-0.44814,0.02338,0.04572
348,-0.15712,-0.68685,1.52104,-0.73463,0.07403,0.15776,-0.04415,-0.58394,1.12555,-0.44228,0.02443,0.03984
349,-0.14185,-0.6311,1.42452,-0.69227,0.05612,0.15554,-0.03968,-0.5838,1.1132,-0.43013,0.02439,0.03284
350,-0.12592,-0.56557,1.295,-0.62716,0.03962,0.15057,-0.03362,-0.58277,1.09666,-0.41462,0.02318,0.02475
351,-0.11124,-0.5053,1.16748,-0.55933,0.02642,0.14352,-0.02598,-0.583,1.08128,-0.39897,0.02079,0.01561
352,-0.09892,-0.47164,1.08983,-0.5153,0.01781,0.13459,-0.01684,-0.5865,1.07277,-0.3869,0.01722,0.00553
353,-0.08861,-0.47472,1.08599,-0.5087,0.01308,0.12405,-0.00639,-0.59366,1.07307,-0.37994,0.0126,-0.00531
354,-0.07739,-0.48073,1.0872,-0.50423,0.00774,0.11285,0.0052,-0.60107,1.07356,-0.37291,0.007,-0.01678
355,-0.06528,-0.48685,1.08775,-0.49898,0.00158,0.10123,0.01773,-0.60829,1.07336,-0.36538,0.00056,-0.02869
356,-0.05248,-0.49294,1.08749,-0.49294,-0.00527,0.08937,0.03097,-0.61521,1.07232,-0.35734,-0.0066,-0.04085
357,-0.03921,-0.49891,1.08632,-0.48611,-0.01267,0.07745,0.04468,-0.62167,1.07032,-0.34883,-0.01433,-0.05306
358,-0.02572,-0.50467,1.08418,-0.47854,-0.02048,0.06568,0.05864,-0.6276,1.0673,-0.33989,-0.02248,-0.06514
359,-0.01169,-0.51022,1.08094,-0.47011,-0.02898,0.0539,0.07315,-0.63295,1.06321,-0.33053,-0.03134,-0.07722
360,0.00178,-0.51539,1.07682,-0.4612,-0.03736,0.04285,0.0871,-0.6376,1.05815,-0.32096,-0.04009,-0.08857
361,0.01483,-0.52023,1.07187,-0.45182,-0.04576,0.0325,0.10061,-0.64159,1.05224,-0.31128,-0.04885,-0.09921
362,0.02722,-0.52475,1.06625,-0.44211,-0.05404,0.02305,0.11346,-0.64494,1.04565,-0.30164,-0.05749,-0.10895
363,0.03872,-0.529,1.06019,-0.43224,-0.06205,0.01468,0.12539,-0.64771,1.03862,-0.29221,-0.06585,-0.11759
364,0.04909,-0.53303,1.05393,-0.42239,-0.06967,0.0076,0.13618,-0.64998,1.03143,-0.28318,-0.07379,-0.12495
365,0.05813,-0.53759,1.0509,-0.41522,-0.07651,0.00167,0.1465,-0.66472,1.05332,-0.29092,-0.0824,-0.13074
366,0.06571,-0.54417,1.05813,-0.41625,-0.08178,-0.00388,0.15854,-0.71583,1.16021,-0.34779,-0.09478,-0.13466
367,0.07176,-0.55187,1.07143,-0.42216,-0.0854,-0.00902,0.17164,-0.77751,1.29956,-0.42703,-0.11009,-0.13668
368,0.07619,-0.55932,1.0859,-0.42942,-0.08736,-0.01364,0.18447,-0.82754,1.42708,-0.50646,-0.12692,-0.13647
369,0.07893,-0.56479,1.0966,-0.43476,-0.08763,-0.01763,0.19494,-0.84968,1.51048,-0.56977,-0.14325,-0.13319
370,0.07995,-0.56696,1.09978,-0.43579,-0.08623,-0.02095,0.20098,-0.83528,1.52975,-0.60523,-0.15707,-0.12596
371,0.07948,-0.5685,1.10224,-0.43663,-0.08338,-0.02369,0.20557,-0.81193,1.53538,-0.6359,-0.1703,-0.11719
372,0.07762,-0.57025,1.10567,-0.43814,-0.0792,-0.02585,0.20952,-0.78719,1.53989,-0.66673,-0.18314,-0.1079
373,0.07438,-0.5723,1.10987,-0.44006,-0.07372,-0.02742,0.21268,-0.76218,1.54307,-0.69631,-0.19507,-0.09848
374,0.06932,-0.57481,1.11491,-0.44227,-0.06665,-0.02805,0.21425,-0.73811,1.54519,-0.72355,-0.20507,-0.08888
375,0.06327,-0.57558,1.11448,-0.44073,-0.05867,-0.02824,0.21227,-0.70061,1.51022,-0.72647,-0.21124,-0.07828
376,0.05586,-0.57336,1.10488,-0.433,-0.04953,-0.0277,0.2045,-0.64049,1.41293,-0.68868,-0.21145,-0.06573
377,0.04714,-0.57029,1.09105,-0.42191,-0.03931,-0.02642,0.19332,-0.57145,1.28291,-0.62642,-0.2071,-0.05328
378,0.03712,-0.56857,1.07835,-0.41062,-0.02803,-0.02435,0.18058,-0.50916,1.15571,-0.55991,-0.19918,-0.04268
379,0.02576,-0.57024,1.07244,-0.4028,-0.01574,-0.02144,0.16754,-0.47567,1.07988,-0.51589,-0.18824,-0.0353
380,0.01315,-0.57565,1.07518,-0.4,-0.00252,-0.01768,0.15457,-0.48091,1.07922,-0.50835,-0.17498,-0.03086
381,-0.00054,-0.58127,1.07813,-0.39731,0.01145,-0.01314,0.1406,-0.48873,1.08362,-0.50331,-0.16087,-0.0259
382,-0.01507,-0.58672,1.08038,-0.39426,0.02595,-0.00791,0.12577,-0.49615,1.08725,-0.49799,-0.14621,-0.02028
383,-0.0302,-0.59187,1.08177,-0.39079,0.04074,-0.0021,0.11033,-0.50303,1.08992,-0.49235,-0.13122,-0.01411
384,-0.04567,-0.59664,1.08214,-0.38687,0.0556,0.00419,0.09452,-0.5093,1.09152,-0.4864,-0.11614,-0.00749
385,-0.06122,-0.60096,1.08144,-0.38248,0.07027,0.01083,0.0786,-0.51488,1.09198,-0.48016,-0.1012,-0.00055
386,-0.07658,-0.60481,1.07964,-0.37764,0.08452,0.01772,0.06284,-0.51975,1.09131,-0.47368,-0.08665,0.0066
387,-0.09149,-0.60818,1.07682,-0.37236,0.09809,0.02472,0.04751,-0.5239,1.08958,-0.46704,-0.07274,0.01384
388,-0.10569,-0.6111,1.07309,-0.3667,0.11074,0.03173,0.03287,-0.52737,1.08693,-0.46034,-0.05972,0.02106
389,-0.12011,-0.61419,1.06798,-0.35963,0.12317,0.03939,0.01793,-0.53074,1.08313,-0.4527,-0.04685,0.02894
390,-0.13244,-0.61651,1.06275,-0.35313,0.13354,0.04625,0.00512,-0.53311,1.07906,-0.44595,-0.03606,0.03598
391,-0.14334,-0.61865,1.05723,-0.34646,0.14233,0.05279,-0.00624,-0.53505,1.07475,-0.43949,-0.02686,0.04268
392,-0.15396,-0.63489,1.08334,-0.35728,0.14975,0.06055,-0.01647,-0.5378,1.07376,-0.43561,-0.01877,0.04895
393,-0.16586,-0.68861,1.1974,-0.41857,0.15546,0.07242,-0.02523,-0.54366,1.08336,-0.4393,-0.01133,0.05369
394,-0.17795,-0.75112,1.34079,-0.5002,0.15898,0.08725,-0.03267,-0.55136,1.09839,-0.44666,-0.0044,0.05698
395,-0.18811,-0.79873,1.46542,-0.57754,0.15919,0.10306,-0.03884,-0.55908,1.11309,-0.45373,0.00198,0.05891
396,-0.1934,-0.81426,1.53537,-0.63149,0.15428,0.11735,-0.04366,-0.56474,1.12175,-0.45686,0.00773,0.05949
397,-0.19243,-0.79629,1.54359,-0.65635,0.1437,0.12866,-0.04707,-0.56757,1.12246,-0.45491,0.01275,0.05874
398,-0.1888,-0.77463,1.54763,-0.68034,0.13065,0.13877,-0.04911,-0.57066,1.12335,-0.45288,0.01703,0.05673
399,-0.18289,-0.75235,1.55116,-0.7042,0.11591,0.14737,-0.04977,-0.57431,1.1249,-0.45095,0.02052,0.05351
400,-0.17492,-0.73061,1.55395,-0.7267,0.10009,0.15405,-0.04901,-0.57855,1.12697,-0.44893,0.02313,0.0491
401,-0.16471,-0.70701,1.54749,-0.74189,0.08354,0.15813,-0.04674,-0.58292,1.1281,-0.44581,0.02477,0.04352
402,-0.14994,-0.6581,1.4736,-0.71506,0.06491,0.15757,-0.04279,-0.584,1.11915,-0.43586,0.02525,0.0367
403,-0.13315,-0.59202,1.34855,-0.65467,0.04663,0.15341,-0.0371,-0.58307,1.10304,-0.42072,0.02448,0.02866
404,-0.1147,-0.52514,1.20952,-0.58165,0.02945,0.14529,-0.0274,-0.58308,1.08669,-0.4043,0.02065,0.01801
405,-0.10094,-0.47788,1.10475,-0.52392,0.01878,0.1366,-0.01833,-0.58539,1.0747,-0.38994,0.01733,0.00776
406,-0.08998,-0.47367,1.08578,-0.50946,0.0133,0.12597,-0.00783,-0.59213,1.07322,-0.38163,0.01285,-0.00335
407,-0.0786,-0.47986,1.0871,-0.50494,0.00801,0.11443,0.00393,-0.59985,1.07375,-0.37433,0.00732,-0.01516
408,-0.0662,-0.4862,1.08774,-0.49958,0.00182,0.1024,0.01676,-0.60743,1.07359,-0.36649,0.00083,-0.02749
409,-0.05301,-0.49254,1.08753,-0.49335,-0.00516,0.09007,0.0304,-0.61468,1.07253,-0.3581,-0.00646,-0.04012
410,-0.03928,-0.49877,1.08634,-0.48626,-0.01276,0.07766,0.04461,-0.62146,1.07045,-0.34918,-0.0144,-0.05285
411,-0.02526,-0.50478,1.0841,-0.47836,-0.02083,0.06539,0.05911,-0.62767,1.06727,-0.3398,-0.02284,-0.06544
412,-0.01123,-0.51049,1.08081,-0.46972,-0.02922,0.05347,0.07363,-0.63321,1.06299,-0.33005,-0.03161,-0.07767
413,0.00255,-0.51588,1.07653,-0.46046,-0.03776,0.04214,0.08791,-0.63805,1.05767,-0.32004,-0.04053,-0.08931
414,0.0158,-0.52091,1.07141,-0.45072,-0.04629,0.03162,0.10165,-0.64218,1.05148,-0.30995,-0.04943,-0.10014
415,0.02827,-0.52563,1.06564,-0.44067,-0.05464,0.02213,0.11458,-0.64565,1.04463,-0.29994,-0.05815,-0.10992
416,0.03967,-0.53008,1.05949,-0.4305,-0.06265,0.0139,0.12644,-0.64851,1.03741,-0.29023,-0.06651,-0.11844
417,0.04976,-0.53434,1.05325,-0.42043,-0.07016,0.00714,0.13696,-0.65087,1.03013,-0.28103,-0.07436,-0.12547
418,0.05829,-0.53989,1.05398,-0.41601,-0.07648,0.00137,0.14783,-0.68007,1.08466,-0.30709,-0.08424,-0.1306
419,0.06517,-0.54746,1.06492,-0.41973,-0.08099,-0.00399,0.16042,-0.74106,1.21622,-0.37894,-0.09808,-0.13361
420,0.07028,-0.5557,1.08041,-0.42722,-0.08365,-0.00883,0.1736,-0.80295,1.36204,-0.46463,-0.11454,-0.13437
421,0.07355,-0.56284,1.09475,-0.43458,-0.08444,-0.01303,0.18549,-0.84333,1.47789,-0.54211,-0.1317,-0.13228
422,0.07488,-0.5668,1.10216,-0.43808,-0.08334,-0.01647,0.19337,-0.84536,1.52906,-0.59317,-0.147,-0.12614
423,0.07441,-0.56844,1.10468,-0.43888,-0.0805,-0.0192,0.19779,-0.82163,1.53562,-0.62514,-0.16041,-0.11687
424,0.07233,-0.57024,1.10834,-0.44058,-0.0761,-0.02128,0.20149,-0.79587,1.54115,-0.65801,-0.17357,-0.10679
425,0.06867,-0.57232,1.11291,-0.44284,-0.07023,-0.02267,0.20434,-0.76929,1.54524,-0.69006,-0.18589,-0.09639
426,0.06344,-0.57478,1.11816,-0.44533,-0.06292,-0.02333,0.20604,-0.74326,1.54786,-0.7198,-0.19669,-0.08602
427,0.05661,-0.57634,1.12027,-0.44555,-0.0542,-0.02319,0.20459,-0.7093,1.5264,-0.7328,-0.20394,-0.07494
428,0.04817,-0.57437,1.11185,-0.43876,-0.0441,-0.02218,0.19663,-0.64903,1.43391,-0.69998,-0.20463,-0.06151
429,0.0382,-0.57106,1.09789,-0.42778,-0.03274,-0.02032,0.18455,-0.57676,1.30031,-0.63733,-0.20007,-0.0479
430,0.0267,-0.56894,1.08445,-0.4162,-0.02015,-0.01754,0.1705,-0.51003,1.16547,-0.56752,-0.19143,-0.03611
431,0.01366,-0.57035,1.07802,-0.4082,-0.00638,-0.01378,0.15587,-0.47359,1.08415,-0.52085,-0.17928,-0.02768
432,-0.00073,-0.57569,1.0807,-0.4055,0.00839,-0.0091,0.14112,-0.47874,1.08344,-0.51325,-0.16448,-0.02234
433,-0.01617,-0.58117,1.08328,-0.40274,0.02387,-0.00364,0.12539,-0.48638,1.08748,-0.50801,-0.14884,-0.01647
434,-0.0323,-0.58638,1.08485,-0.39942,0.03975,0.00243,0.10893,-0.49354,1.09047,-0.50229,-0.13276,-0.01001
435,-0.04881,-0.59125,1.08525,-0.39547,0.05573,0.00898,0.09205,-0.50015,1.09222,-0.49607,-0.11653,-0.00311
436,-0.06537,-0.59569,1.08438,-0.39086,0.07151,0.01587,0.07508,-0.50613,1.09267,-0.48937,-0.10045,0.0041
437,-0.08168,-0.5997,1.08224,-0.3856,0.08682,0.02295,0.05832,-0.51144,1.09182,-0.48223,-0.08479,0.01147
438,-0.09745,-0.60325,1.07891,-0.37972,0.10138,0.03011,0.04206,-0.5161,1.08976,-0.47476,-0.06983,0.01889
439,-0.11241,-0.6064,1.07454,-0.3733,0.11495,0.03723,0.02659,-0.52011,1.08665,-0.46707,-0.05583,0.02624
440,-0.12632,-0.6092,1.06933,-0.36644,0.12728,0.04419,0.01215,-0.52353,1.08272,-0.45931,-0.04305,0.03342
441,-0.13894,-0.61172,1.06353,-0.35925,0.13815,0.0509,-0.001,-0.52643,1.07823,-0.45166,-0.0317,0.04032
442,-0.15005,-0.61408,1.05745,-0.35186,0.14736,0.05727,-0.01264,-0.52889,1.0735,-0.4443,-0.02203,0.04688
443,-0.15963,-0.61876,1.05676,-0.34743,0.15475,0.06344,-0.02257,-0.53117,1.06941,-0.43782,-0.01416,0.05296
444,-0.17025,-0.65941,1.13901,-0.38995,0.16062,0.07311,-0.03102,-0.53608,1.0749,-0.43837,-0.00719,0.05777
445,-0.18188,-0.72163,1.27697,-0.46652,0.16472,0.0865,-0.03821,-0.5435,1.08842,-0.4445,-0.00067,0.06116
446,-0.19267,-0.77803,1.41467,-0.54832,0.16613,0.10185,-0.0442,-0.55178,1.10411,-0.45202,0.00539,0.06321
447,-0.19987,-0.80917,1.51229,-0.61464,0.16323,0.11674,-0.04891,-0.55891,1.11627,-0.45719,0.01088,0.06393
448,-0.20053,-0.80186,1.53999,-0.64852,0.15421,0.1287,-0.0523,-0.56289,1.11964,-0.45674,0.01574,0.06335
449,-0.19728,-0.78091,1.54426,-0.67206,0.14159,0.13888,-0.05438,-0.56606,1.12042,-0.45454,0.01992,0.06152
450,-0.19176,-0.75884,1.54817,-0.69606,0.12707,0.1478,-0.05514,-0.56973,1.12192,-0.45256,0.02337,0.0585
451,-0.18413,-0.73683,1.55143,-0.71922,0.11125,0.155,-0.05454,-0.57397,1.12402,-0.45058,0.02602,0.05432
452,-0.17465,-0.71608,1.55392,-0.74038,0.09479,0.16011,-0.05254,-0.57881,1.12656,-0.44842,0.02779,0.049
453,-0.16136,-0.67934,1.51233,-0.73353,0.07663,0.16129,-0.04897,-0.5817,1.12265,-0.44172,0.0285,0.04249
454,-0.14455,-0.61904,1.40523,-0.68501,0.05746,0.15818,-0.04372,-0.58153,1.10911,-0.42839,0.02803,0.03477
455,-0.12745,-0.5502,1.26695,-0.61443,0.04025,0.15223,-0.03676,-0.58074,1.0918,-0.41186,0.02631,0.02588
456,-0.11212,-0.49129,1.1403,-0.54617,0.02707,0.14413,-0.0281,-0.58178,1.07701,-0.39598,0.02331,0.01588
457,-0.09977,-0.46874,1.08416,-0.51265,0.01935,0.13404,-0.01789,-0.58693,1.07144,-0.38515,0.01908,0.00493
458,-0.08858,-0.47508,1.08603,-0.50854,0.01425,0.12258,-0.00632,-0.59491,1.07258,-0.37818,0.01374,-0.00681
459,-0.07625,-0.48163,1.08731,-0.50358,0.00816,0.11052,0.00642,-0.60281,1.0731,-0.37068,0.00738,-0.01916
460,-0.06303,-0.48823,1.08778,-0.49776,0.00124,0.09808,0.02009,-0.61045,1.07279,-0.36261,0.00015,-0.03191
461,-0.04896,-0.49479,1.08727,-0.491,-0.00653,0.08534,0.03464,-0.61768,1.07149,-0.35399,-0.00797,-0.04497
462,-0.03455,-0.50113,1.08568,-0.4834,-0.01479,0.07269,0.04953,-0.62435,1.06904,-0.34484,-0.01659,-0.05795
463,-0.01999,-0.50719,1.08296,-0.47498,-0.02346,0.06027,0.06459,-0.63036,1.06542,-0.33525,-0.02563,-0.07069
464,-0.00554,-0.51289,1.07915,-0.46584,-0.03237,0.04832,0.07955,-0.63564,1.06066,-0.32531,-0.03493,-0.08296
465,0.00854,-0.51822,1.07433,-0.45611,-0.04136,0.03707,0.09412,-0.64017,1.05486,-0.31517,-0.0443,-0.09452
466,0.02196,-0.52318,1.06869,-0.44595,-0.05025,0.02674,0.10803,-0.64398,1.04821,-0.305,-0.05358,-0.10516
467,0.03445,-0.5278,1.06246,-0.43554,-0.0589,0.01756,0.12099,-0.6471,1.04097,-0.29501,-0.06259,-0.11464
468,0.04575,-0.53216,1.05593,-0.42511,-0.06712,0.00975,0.13274,-0.64964,1.03346,-0.2854,-0.07116,-0.12273
469,0.0556,-0.53683,1.05175,-0.41671,-0.07459,0.00332,0.14366,-0.66129,1.04758,-0.28845,-0.08003,-0.12914
470,0.06383,-0.54365,1.0586,-0.41715,-0.08036,-0.00264,0.1563,-0.7128,1.15452,-0.34498,-0.09284,-0.13348
471,0.07035,-0.55175,1.0724,-0.42318,-0.08431,-0.00812,0.17013,-0.77745,1.30033,-0.42775,-0.10893,-0.13572
472,0.07508,-0.55955,1.08748,-0.4307,-0.08642,-0.01303,0.18365,-0.82932,1.43323,-0.51082,-0.12668,-0.13548
473,0.07793,-0.56508,1.09812,-0.43594,-0.08665,-0.01725,0.19444,-0.84969,1.51591,-0.57526,-0.14374,-0.13179
474,0.07889,-0.56711,1.10087,-0.43666,-0.08506,-0.02071,0.20051,-0.83174,1.53122,-0.61038,-0.15814,-0.12392
475,0.07809,-0.56881,1.10366,-0.43765,-0.08178,-0.02345,0.20517,-0.80689,1.53695,-0.6427,-0.17196,-0.11455
476,0.07586,-0.57072,1.10742,-0.43932,-0.07711,-0.02562,0.20922,-0.78073,1.54134,-0.67487,-0.18533,-0.10477
477,0.07212,-0.57298,1.11195,-0.44133,-0.07105,-0.02712,0.21232,-0.75458,1.54424,-0.70531,-0.19753,-0.09494
478,0.06687,-0.57546,1.11645,-0.44303,-0.06362,-0.02789,0.21383,-0.72824,1.54206,-0.73049,-0.20759,-0.08517
479,0.06004,-0.57485,1.11178,-0.43861,-0.05482,-0.02784,0.20928,-0.67827,1.47736,-0.71573,-0.21162,-0.07309
480,0.05172,-0.57187,1.09914,-0.42859,-0.04477,-0.02698,0.19939,-0.6095,1.35674,-0.66291,-0.2097,-0.05975
481,0.04195,-0.56905,1.08445,-0.41638,-0.03354,-0.02527,0.18672,-0.53809,1.21643,-0.59247,-0.20329,-0.04744
482,0.03072,-0.56888,1.07409,-0.40591,-0.02115,-0.02266,0.17309,-0.48533,1.10411,-0.53118,-0.19329,-0.03796
483,0.01805,-0.57331,1.07404,-0.40124,-0.00769,-0.01911,0.1596,-0.47756,1.07741,-0.51051,-0.18021,-0.03246
484,0.0041,-0.57925,1.07731,-0.3985,0.00669,-0.01465,0.14535,-0.48591,1.08225,-0.5053,-0.16569,-0.02756
485,-0.01087,-0.58504,1.07991,-0.39541,0.02174,-0.00939,0.13007,-0.49385,1.08633,-0.49979,-0.15048,-0.02189
486,-0.02659,-0.59055,1.08161,-0.39187,0.0372,-0.00346,0.11403,-0.50125,1.08941,-0.49394,-0.13483,-0.01556
487,-0.04276,-0.59565,1.08223,-0.38784,0.05279,0.00303,0.09751,-0.50798,1.09133,-0.48775,-0.11901,-0.00872
488,-0.05907,-0.60028,1.08167,-0.38331,0.06823,0.00993,0.08081,-0.51398,1.09201,-0.48123,-0.10329,-0.00149
489,-0.07523,-0.60438,1.07992,-0.37826,0.08325,0.01713,0.06424,-0.51919,1.09144,-0.47445,-0.08796,0.00598
490,-0.09173,-0.60834,1.07673,-0.37211,0.09818,0.02499,0.04725,-0.52397,1.08954,-0.46692,-0.07264,0.01412
491,-0.10691,-0.61151,1.07264,-0.36593,0.11169,0.03251,0.03159,-0.52772,1.08664,-0.45965,-0.05873,0.02187
492,-0.12106,-0.61425,1.0677,-0.35936,0.12395,0.03993,0.01695,-0.53077,1.08289,-0.4524,-0.04604,0.02949
493,-0.13388,-0.61667,1.06216,-0.35251,0.13471,0.0471,0.00364,-0.53323,1.07858,-0.44532,-0.03485,0.03684
494,-0.1451,-0.6189,1.05634,-0.34548,0.1437,0.0539,-0.00806,-0.53521,1.07404,-0.43858,-0.02543,0.04381
495,-0.15582,-0.64083,1.09545,-0.36361,0.15086,0.06215,-0.01803,-0.53838,1.07451,-0.43577,-0.0175,0.04986
496,-0.16783,-0.69759,1.21736,-0.4297,0.15628,0.07454,-0.02658,-0.5446,1.08525,-0.44025,-0.01015,0.05437
497,-0.17977,-0.75923,1.36062,-0.51202,0.1594,0.08963,-0.03382,-0.55243,1.10058,-0.44779,-0.00332,0.05745
498,-0.18942,-0.80321,1.4795,-0.58714,0.15898,0.10537,-0.03977,-0.56,1.11478,-0.45451,0.00297,0.05918
499,-0.19373,-0.81296,1.53892,-0.6362,0.15317,0.11921,-0.04438,-0.56518,1.1221,-0.45679,0.0086,0.05955
