YechanE/asmr2025-Humanoid-Lowlevel/joints_timeseries_medium.csv
Frame_Index,leg_left_ankle_roll_joint,leg_left_ankle_pitch_joint,leg_left_knee_pitch_joint,leg_left_hip_pitch_joint,leg_left_hip_yaw_joint,leg_left_hip_roll_joint,leg_right_ankle_roll_joint,leg_right_ankle_pitch_joint,leg_right_knee_pitch_joint,leg_right_hip_pitch_joint,leg_right_hip_yaw_joint,leg_right_hip_roll_joint
0,-0.04242,-0.56152,1.0873,-0.42674,0.03282,0.02688,0.05604,-0.562,1.08841,-0.4277,-0.04336,-0.03553
1,-0.04297,-0.56155,1.08736,-0.42679,0.03324,0.02722,0.0555,-0.56199,1.08838,-0.42767,-0.04294,-0.03518
2,-0.04383,-0.56159,1.08745,-0.42686,0.03391,0.02777,0.05464,-0.56197,1.08833,-0.42762,-0.04228,-0.03463
3,-0.04499,-0.56164,1.08757,-0.42695,0.03481,0.0285,0.05348,-0.56194,1.08826,-0.42755,-0.04138,-0.0339
4,-0.04643,-0.5617,1.08771,-0.42706,0.03592,0.02942,0.05203,-0.5619,1.08817,-0.42745,-0.04026,-0.03298
5,-0.04815,-0.56177,1.08786,-0.42719,0.03725,0.03051,0.05031,-0.56184,1.08804,-0.42734,-0.03893,-0.03189
6,-0.05014,-0.56184,1.08802,-0.42733,0.03879,0.03177,0.04833,-0.56177,1.08788,-0.4272,-0.0374,-0.03063
7,-0.05239,-0.56191,1.08819,-0.42748,0.04053,0.0332,0.04608,-0.56169,1.08768,-0.42703,-0.03566,-0.0292
8,-0.05491,-0.56198,1.08835,-0.42763,0.04248,0.0348,0.04356,-0.56157,1.08743,-0.42684,-0.03371,-0.02761
9,-0.0577,-0.56204,1.08849,-0.4278,0.04464,0.03657,0.04076,-0.56144,1.08711,-0.42661,-0.03154,-0.02583
10,-0.06078,-0.56208,1.08861,-0.42796,0.04702,0.03853,0.03768,-0.56127,1.08673,-0.42633,-0.02916,-0.02388
11,-0.06434,-0.56211,1.0887,-0.42813,0.04977,0.04078,0.03412,-0.56104,1.08624,-0.426,-0.0264,-0.02162
12,-0.06805,-0.56212,1.08873,-0.42828,0.05264,0.04314,0.0304,-0.56079,1.08567,-0.42563,-0.02353,-0.01927
13,-0.07211,-0.56209,1.0887,-0.42841,0.05578,0.04572,0.02634,-0.56047,1.08498,-0.42519,-0.02039,-0.01669
14,-0.07653,-0.56202,1.08859,-0.42853,0.05919,0.04853,0.02191,-0.56009,1.08414,-0.42469,-0.01696,-0.01389
15,-0.08134,-0.5619,1.08837,-0.42862,0.06292,0.05159,0.01708,-0.55963,1.08314,-0.4241,-0.01322,-0.01083
16,-0.08659,-0.56172,1.08802,-0.42867,0.06697,0.05493,0.01182,-0.55908,1.08193,-0.4234,-0.00915,-0.00749
17,-0.09231,-0.56146,1.08751,-0.42867,0.07139,0.05857,0.00609,-0.55841,1.08047,-0.42259,-0.00472,-0.00386
18,-0.09853,-0.5611,1.08679,-0.4286,0.0762,0.06253,-0.00016,-0.5576,1.07873,-0.42164,0.00012,9e-05
19,-0.10528,-0.56062,1.08582,-0.42845,0.08141,0.06683,-0.00693,-0.55664,1.07664,-0.42054,0.00536,0.00438
20,-0.11235,-0.56001,1.08459,-0.4282,0.08686,0.07134,-0.01403,-0.55552,1.07424,-0.41928,0.01085,0.00888
21,-0.11898,-0.56478,1.09477,-0.434,0.09199,0.07558,-0.0204,-0.55487,1.07322,-0.41897,0.01578,0.01292
22,-0.12647,-0.60632,1.18322,-0.48136,0.09776,0.08036,-0.02539,-0.55758,1.08205,-0.42514,0.01964,0.01607
23,-0.13479,-0.67078,1.32071,-0.55492,0.10418,0.08569,-0.02907,-0.56313,1.09843,-0.43602,0.02249,0.01841
24,-0.14187,-0.7298,1.44695,-0.62263,0.10964,0.09022,-0.03107,-0.56912,1.11517,-0.4468,0.02404,0.01968
25,-0.14635,-0.7708,1.53492,-0.66992,0.11309,0.09309,-0.03156,-0.5738,1.12779,-0.45475,0.02442,0.01999
26,-0.14627,-0.78184,1.55861,-0.68257,0.11303,0.09304,-0.03049,-0.57532,1.13171,-0.45714,0.02359,0.01931
27,-0.14336,-0.78212,1.55914,-0.68261,0.11078,0.09117,-0.02788,-0.57582,1.13275,-0.45764,0.02157,0.01765
28,-0.13873,-0.78253,1.55993,-0.68265,0.10721,0.08821,-0.02373,-0.57657,1.13434,-0.45843,0.01836,0.01502
29,-0.13233,-0.78306,1.56091,-0.68269,0.10228,0.08411,-0.018,-0.57755,1.13642,-0.45947,0.01392,0.01139
30,-0.1241,-0.78365,1.56202,-0.68268,0.09593,0.07884,-0.01063,-0.57871,1.13889,-0.46073,0.00822,0.00673
31,-0.11307,-0.77362,1.54027,-0.67032,0.08742,0.0718,-0.00155,-0.57873,1.13826,-0.46005,0.0012,0.00098
32,-0.0982,-0.73341,1.45386,-0.62334,0.07594,0.06232,0.00929,-0.57538,1.12849,-0.45365,-0.00719,-0.00589
33,-0.08133,-0.67479,1.32839,-0.55575,0.06291,0.05158,0.02192,-0.5704,1.11391,-0.44415,-0.01697,-0.01389
34,-0.06371,-0.61294,1.19644,-0.48502,0.04928,0.04038,0.03642,-0.56561,1.09936,-0.43459,-0.02819,-0.02308
35,-0.04588,-0.5687,1.10218,-0.43451,0.0355,0.02907,0.05275,-0.56264,1.08985,-0.42841,-0.04081,-0.03343
36,-0.02817,-0.56084,1.08522,-0.4251,0.02179,0.01784,0.07028,-0.56233,1.08866,-0.42806,-0.05437,-0.04457
37,-0.0102,-0.55923,1.08142,-0.42274,0.00789,0.00646,0.08821,-0.56199,1.08779,-0.42823,-0.06823,-0.05597
38,0.00753,-0.55707,1.07627,-0.41974,-0.00583,-0.00477,0.10587,-0.5611,1.08556,-0.42774,-0.08187,-0.06722
39,0.02448,-0.5545,1.07003,-0.41621,-0.01895,-0.01551,0.12275,-0.55975,1.08213,-0.42661,-0.0949,-0.07799
40,0.04027,-0.55167,1.06303,-0.41227,-0.03116,-0.02552,0.13844,-0.55808,1.07778,-0.42493,-0.107,-0.08803
41,0.05459,-0.54879,1.05564,-0.4081,-0.04224,-0.0346,0.15266,-0.55627,1.07283,-0.42282,-0.11795,-0.09715
42,0.06726,-0.54604,1.04824,-0.40384,-0.05203,-0.04264,0.16522,-0.55448,1.06762,-0.42039,-0.12763,-0.10523
43,0.07817,-0.54357,1.04118,-0.39964,-0.06047,-0.04958,0.17604,-0.55285,1.06248,-0.41779,-0.13595,-0.1122
44,0.08733,-0.54151,1.03473,-0.39562,-0.06755,-0.0554,0.18511,-0.55152,1.05766,-0.41512,-0.14292,-0.11806
45,0.0948,-0.53994,1.02906,-0.39186,-0.07331,-0.06015,0.1925,-0.55055,1.05334,-0.41247,-0.14859,-0.12284
46,0.10071,-0.53889,1.02427,-0.3884,-0.07788,-0.06392,0.19834,-0.54999,1.04963,-0.40989,-0.15308,-0.12663
47,0.10526,-0.53834,1.02033,-0.38524,-0.0814,-0.06682,0.20285,-0.54983,1.04654,-0.40741,-0.15654,-0.12955
48,0.1089,-0.53889,1.01909,-0.38364,-0.08421,-0.06914,0.20715,-0.55781,1.06139,-0.41471,-0.15984,-0.13234
49,0.11174,-0.54342,1.02975,-0.38992,-0.0864,-0.07095,0.21465,-0.6047,1.16492,-0.47214,-0.1656,-0.13723
50,0.11372,-0.55065,1.04764,-0.40069,-0.08793,-0.07222,0.22416,-0.66667,1.30747,-0.55377,-0.17288,-0.14342
51,0.1147,-0.5584,1.06628,-0.41163,-0.08869,-0.07284,0.23324,-0.71958,1.43783,-0.63226,-0.17983,-0.14936
52,0.11452,-0.5643,1.07945,-0.4189,-0.08855,-0.07273,0.23867,-0.74672,1.519,-0.68694,-0.18399,-0.15291
53,0.11308,-0.56673,1.08321,-0.42015,-0.08743,-0.07181,0.23792,-0.74067,1.53173,-0.70562,-0.18341,-0.15242
54,0.11057,-0.569,1.08611,-0.42064,-0.08549,-0.0702,0.23519,-0.72896,1.53379,-0.71907,-0.18132,-0.15063
55,0.10701,-0.5718,1.08973,-0.42127,-0.08275,-0.06794,0.2313,-0.71717,1.536,-0.73262,-0.17835,-0.14809
56,0.10238,-0.57516,1.09396,-0.4219,-0.07917,-0.06498,0.22622,-0.70592,1.53831,-0.74559,-0.17445,-0.14477
57,0.09661,-0.57893,1.09826,-0.42214,-0.07472,-0.06131,0.21969,-0.69474,1.53809,-0.75582,-0.16945,-0.14051
58,0.08949,-0.57968,1.09357,-0.41639,-0.06922,-0.05677,0.20783,-0.66022,1.47859,-0.72957,-0.16036,-0.13278
59,0.08102,-0.5779,1.08074,-0.40498,-0.06267,-0.05139,0.19194,-0.60367,1.36195,-0.6679,-0.14816,-0.12248
60,0.07127,-0.57615,1.06589,-0.39151,-0.05513,-0.04519,0.17516,-0.54005,1.22347,-0.59151,-0.13527,-0.11163
61,0.06024,-0.57691,1.0555,-0.38001,-0.04661,-0.03818,0.15953,-0.48982,1.10941,-0.52639,-0.12325,-0.10157
62,0.04804,-0.58223,1.05587,-0.37473,-0.03717,-0.03044,0.14622,-0.47968,1.07821,-0.50431,-0.11299,-0.09302
63,0.0347,-0.58934,1.06026,-0.37174,-0.02685,-0.02198,0.13296,-0.48663,1.08225,-0.50049,-0.10277,-0.08452
64,0.02037,-0.59644,1.06403,-0.36822,-0.01576,-0.0129,0.11869,-0.49356,1.08563,-0.49605,-0.09177,-0.0754
65,0.00515,-0.60339,1.06697,-0.36411,-0.00398,-0.00326,0.10352,-0.50037,1.08815,-0.49093,-0.08005,-0.06571
66,-0.01061,-0.60999,1.06885,-0.35941,0.00821,0.00672,0.0878,-0.50686,1.08959,-0.48514,-0.06791,-0.0557
67,-0.02668,-0.61613,1.06954,-0.35411,0.02064,0.0169,0.07175,-0.51293,1.08986,-0.47871,-0.05551,-0.0455
68,-0.04279,-0.62172,1.06898,-0.34824,0.03311,0.02711,0.05564,-0.51851,1.08891,-0.47168,-0.04305,-0.03527
69,-0.05866,-0.62671,1.06718,-0.34184,0.04538,0.03718,0.03974,-0.52354,1.08677,-0.46414,-0.03075,-0.02519
70,-0.07401,-0.63106,1.06421,-0.33501,0.05725,0.04693,0.02436,-0.52801,1.08354,-0.45619,-0.01885,-0.01544
71,-0.08852,-0.63481,1.06022,-0.32786,0.06847,0.05616,0.0098,-0.53194,1.0794,-0.448,-0.00758,-0.00621
72,-0.10191,-0.63801,1.05546,-0.32053,0.0788,0.06468,-0.00365,-0.53539,1.07461,-0.43974,0.00282,0.0023
73,-0.11386,-0.64075,1.05021,-0.31317,0.08803,0.0723,-0.01566,-0.53846,1.06949,-0.43161,0.01212,0.00992
74,-0.12518,-0.66121,1.08557,-0.32873,0.09677,0.07954,-0.02602,-0.5424,1.06882,-0.4271,0.02013,0.01647
75,-0.13768,-0.71789,1.20644,-0.39374,0.1064,0.08753,-0.03476,-0.54894,1.07864,-0.43052,0.02689,0.02201
76,-0.15048,-0.78065,1.35139,-0.47684,0.11626,0.09574,-0.04193,-0.55679,1.09356,-0.43772,0.03244,0.02656
77,-0.16189,-0.82614,1.47376,-0.55461,0.12505,0.10307,-0.04752,-0.56416,1.10789,-0.4448,0.03676,0.03011
78,-0.16938,-0.83709,1.53816,-0.60866,0.13082,0.1079,-0.05148,-0.56901,1.11596,-0.44812,0.03983,0.03262
79,-0.17215,-0.81605,1.54535,-0.63713,0.13295,0.10968,-0.05383,-0.57105,1.117,-0.44718,0.04164,0.03411
80,-0.17303,-0.79211,1.5502,-0.666,0.13363,0.11025,-0.05456,-0.57332,1.11876,-0.44669,0.04221,0.03457
81,-0.1724,-0.76727,1.55407,-0.69466,0.13314,0.10984,-0.05392,-0.57595,1.12123,-0.44651,0.04172,0.03417
82,-0.17014,-0.7428,1.55683,-0.72169,0.1314,0.10839,-0.05183,-0.57906,1.12431,-0.44642,0.0401,0.03284
83,-0.16552,-0.71464,1.54602,-0.73867,0.12785,0.10541,-0.04824,-0.58197,1.12585,-0.44497,0.03732,0.03056
84,-0.15577,-0.66034,1.46554,-0.71171,0.12034,0.09914,-0.04304,-0.58143,1.11703,-0.43657,0.0333,0.02726
85,-0.14305,-0.59081,1.33723,-0.65198,0.11054,0.09097,-0.03627,-0.5791,1.10158,-0.42332,0.02806,0.02297
86,-0.12959,-0.52252,1.19869,-0.58082,0.10017,0.08236,-0.02794,-0.57749,1.08554,-0.40876,0.02161,0.01769
87,-0.11682,-0.47819,1.10083,-0.52652,0.09032,0.07419,-0.01805,-0.57901,1.07541,-0.39699,0.01397,0.01143
88,-0.1052,-0.47767,1.08835,-0.51392,0.08134,0.06678,-0.00676,-0.58497,1.07556,-0.39112,0.00523,0.00428
89,-0.09271,-0.4845,1.09003,-0.50816,0.0717,0.05882,0.00575,-0.59162,1.07703,-0.38594,-0.00446,-0.00365
90,-0.07923,-0.49117,1.09097,-0.50186,0.06128,0.05024,0.01925,-0.59813,1.07785,-0.38033,-0.0149,-0.0122
91,-0.06502,-0.49755,1.09098,-0.49499,0.0503,0.04122,0.03346,-0.60435,1.07781,-0.37426,-0.0259,-0.02121
92,-0.05036,-0.50353,1.08997,-0.48758,0.03896,0.03191,0.04811,-0.61015,1.07678,-0.36772,-0.03723,-0.03049
93,-0.03553,-0.50904,1.08788,-0.47968,0.02749,0.02251,0.06292,-0.61545,1.07469,-0.36073,-0.04868,-0.03989
94,-0.02012,-0.51419,1.08459,-0.47102,0.01557,0.01275,0.07828,-0.62035,1.0714,-0.35307,-0.06056,-0.04965
95,-0.00553,-0.51867,1.08038,-0.46224,0.00428,0.0035,0.09281,-0.62455,1.06715,-0.34523,-0.07179,-0.05889
96,0.00842,-0.52264,1.07535,-0.45325,-0.00652,-0.00534,0.1067,-0.62818,1.062,-0.33713,-0.08251,-0.06774
97,0.02147,-0.52614,1.06971,-0.44421,-0.01662,-0.0136,0.11967,-0.63129,1.05616,-0.3289,-0.09252,-0.07602
98,0.03334,-0.52926,1.06374,-0.43529,-0.0258,-0.02112,0.13146,-0.63397,1.04988,-0.32068,-0.10161,-0.08356
99,0.04376,-0.53212,1.05785,-0.42673,-0.03386,-0.02773,0.14181,-0.63657,1.04405,-0.31295,-0.1096,-0.09019
100,0.05265,-0.53683,1.06002,-0.42439,-0.04074,-0.03337,0.1528,-0.66979,1.10841,-0.34488,-0.11806,-0.09724
101,0.06009,-0.54397,1.07162,-0.42906,-0.04649,-0.03809,0.1653,-0.7311,1.24185,-0.418,-0.12768,-0.10528
102,0.06606,-0.552,1.08686,-0.43645,-0.05111,-0.04188,0.17791,-0.791,1.38436,-0.50169,-0.13739,-0.11341
103,0.07051,-0.55905,1.10003,-0.44272,-0.05455,-0.0447,0.18841,-0.82826,1.49349,-0.57452,-0.14545,-0.12019
104,0.07334,-0.56298,1.10537,-0.44423,-0.05673,-0.0465,0.19378,-0.82695,1.53541,-0.61826,-0.14958,-0.12367
105,0.07464,-0.56521,1.10658,-0.44325,-0.05774,-0.04733,0.19529,-0.80453,1.54059,-0.646,-0.15074,-0.12465
106,0.07453,-0.5678,1.10876,-0.44285,-0.05766,-0.04726,0.19524,-0.78045,1.54519,-0.67468,-0.1507,-0.12462
107,0.07302,-0.57084,1.11176,-0.44275,-0.05649,-0.0463,0.19363,-0.75588,1.54888,-0.70279,-0.14947,-0.12357
108,0.07004,-0.57441,1.11543,-0.44275,-0.05418,-0.0444,0.19039,-0.73208,1.55158,-0.72898,-0.14697,-0.12147
109,0.06559,-0.57682,1.11499,-0.43975,-0.05074,-0.04158,0.1838,-0.69789,1.52431,-0.73528,-0.14191,-0.11721
110,0.05955,-0.57585,1.10421,-0.42976,-0.04607,-0.03775,0.17197,-0.638,1.427,-0.69681,-0.13282,-0.10957
111,0.05197,-0.57382,1.08854,-0.41591,-0.04021,-0.03294,0.15783,-0.56725,1.2918,-0.63121,-0.12193,-0.10047
112,0.04288,-0.57327,1.07421,-0.40191,-0.03318,-0.02717,0.14362,-0.50337,1.15926,-0.56149,-0.11098,-0.09135
113,0.03233,-0.57656,1.06784,-0.39206,-0.02502,-0.02048,0.13072,-0.47157,1.08533,-0.51849,-0.10105,-0.08309
114,0.02048,-0.58361,1.0703,-0.38732,-0.01585,-0.01297,0.11885,-0.47762,1.08581,-0.51218,-0.09188,-0.07549
115,0.00747,-0.59076,1.07262,-0.38239,-0.00579,-0.00474,0.10589,-0.48491,1.08829,-0.50665,-0.08188,-0.06722
116,-0.00642,-0.59775,1.07425,-0.37704,0.00497,0.00407,0.09202,-0.49202,1.09,-0.50058,-0.07117,-0.05839
117,-0.02096,-0.60441,1.07501,-0.37123,0.01621,0.01327,0.0775,-0.49881,1.09077,-0.49396,-0.05996,-0.04916
118,-0.03585,-0.61063,1.07475,-0.36496,0.02774,0.02271,0.06261,-0.50518,1.0905,-0.4868,-0.04844,-0.0397
119,-0.05083,-0.61633,1.07341,-0.35824,0.03933,0.03221,0.04762,-0.51104,1.08914,-0.47917,-0.03685,-0.03018
120,-0.06561,-0.62144,1.07099,-0.35113,0.05075,0.04159,0.03281,-0.51637,1.08672,-0.47113,-0.02539,-0.02079
121,-0.07991,-0.62596,1.06756,-0.3437,0.06181,0.05067,0.01847,-0.52115,1.08335,-0.4628,-0.0143,-0.01171
122,-0.09344,-0.6299,1.06328,-0.33605,0.07227,0.05929,0.00488,-0.52541,1.07919,-0.45431,-0.00378,-0.0031
123,-0.10729,-0.63361,1.05779,-0.32753,0.08296,0.06811,-0.00904,-0.52953,1.07393,-0.44494,0.00699,0.00572
124,-0.11888,-0.63659,1.05221,-0.31961,0.09191,0.07551,-0.0207,-0.53294,1.06868,-0.43637,0.01601,0.01311
125,-0.12922,-0.64347,1.05605,-0.31721,0.09988,0.08212,-0.03085,-0.53632,1.06446,-0.42889,0.02387,0.01954
126,-0.1406,-0.6883,1.14745,-0.36454,0.10865,0.0894,-0.03946,-0.5421,1.07037,-0.42917,0.03053,0.02499
127,-0.15292,-0.75187,1.28874,-0.44316,0.11815,0.09731,-0.04657,-0.54984,1.08391,-0.43512,0.03603,0.0295
128,-0.16474,-0.80719,1.42544,-0.52547,0.12725,0.10491,-0.05219,-0.55792,1.09934,-0.4426,0.04038,0.03307
129,-0.17379,-0.83492,1.51871,-0.59177,0.13421,0.11074,-0.05627,-0.56437,1.11098,-0.4479,0.04353,0.03565
130,-0.17759,-0.82326,1.54196,-0.627,0.13713,0.11319,-0.05873,-0.56743,1.11406,-0.448,0.04544,0.03722
131,-0.17876,-0.80022,1.54704,-0.65523,0.13803,0.11395,-0.05973,-0.56977,1.11557,-0.44719,0.0462,0.03785
132,-0.17836,-0.77579,1.55135,-0.68393,0.13772,0.11369,-0.0593,-0.57245,1.11792,-0.44685,0.04588,0.03758
133,-0.17638,-0.75119,1.55462,-0.71163,0.1362,0.11241,-0.05746,-0.57557,1.12096,-0.44672,0.04445,0.03641
134,-0.17277,-0.72756,1.55644,-0.73677,0.13343,0.11008,-0.05418,-0.57917,1.12443,-0.44651,0.04192,0.03433
135,-0.16476,-0.68477,1.50683,-0.72928,0.12727,0.10492,-0.04936,-0.58032,1.12038,-0.44117,0.03819,0.03127
136,-0.15257,-0.62011,1.39493,-0.68108,0.11788,0.09709,-0.04299,-0.57864,1.10724,-0.42957,0.03326,0.02723
137,-0.13873,-0.54916,1.25563,-0.61173,0.10722,0.08821,-0.03499,-0.57659,1.09091,-0.41514,0.02707,0.02216
138,-0.12523,-0.49137,1.13307,-0.54608,0.09681,0.07957,-0.02554,-0.57666,1.07762,-0.40164,0.01976,0.01617
139,-0.11306,-0.47382,1.08691,-0.51675,0.08742,0.0718,-0.01465,-0.5811,1.07401,-0.39349,0.01134,0.00928
140,-0.10092,-0.48082,1.08903,-0.51124,0.07804,0.06405,-0.00247,-0.58791,1.07588,-0.38849,0.00191,0.00156
141,-0.08769,-0.48771,1.09048,-0.50519,0.06782,0.05562,0.01078,-0.59464,1.07719,-0.38309,-0.00835,-0.00684
142,-0.07362,-0.49435,1.09108,-0.49858,0.05695,0.04668,0.02486,-0.60113,1.07771,-0.37725,-0.01924,-0.01576
143,-0.05898,-0.50063,1.09067,-0.49141,0.04563,0.03738,0.0395,-0.60724,1.07727,-0.37093,-0.03057,-0.02503
144,-0.04405,-0.50645,1.08918,-0.48373,0.03408,0.02791,0.05441,-0.61288,1.07579,-0.36416,-0.0421,-0.03449
145,-0.0291,-0.51175,1.0866,-0.47558,0.02251,0.01843,0.06933,-0.61797,1.07322,-0.35695,-0.05364,-0.04396
146,-0.01441,-0.51651,1.08301,-0.46707,0.01115,0.00913,0.08397,-0.62247,1.0696,-0.34938,-0.06495,-0.05327
147,-0.00028,-0.52074,1.07853,-0.45832,0.00022,0.00018,0.09804,-0.62639,1.06504,-0.34154,-0.07582,-0.06222
148,0.01302,-0.52447,1.07337,-0.44947,-0.01008,-0.00825,0.11127,-0.62976,1.05973,-0.33353,-0.08604,-0.07066
149,0.02522,-0.52777,1.06779,-0.4407,-0.01952,-0.01598,0.12339,-0.63266,1.05389,-0.32549,-0.09539,-0.0784
150,0.03604,-0.53076,1.0621,-0.43219,-0.02789,-0.02284,0.13414,-0.63518,1.04781,-0.31757,-0.10368,-0.08528
151,0.04529,-0.53433,1.05971,-0.42641,-0.03505,-0.0287,0.14413,-0.64999,1.07015,-0.32579,-0.11138,-0.09168
152,0.05302,-0.54061,1.06831,-0.42891,-0.04103,-0.0336,0.1557,-0.70326,1.18256,-0.38578,-0.12029,-0.0991
153,0.05926,-0.54849,1.08303,-0.43593,-0.04585,-0.03756,0.16796,-0.76666,1.32739,-0.4682,-0.12973,-0.10699
154,0.06397,-0.55622,1.09813,-0.44343,-0.04949,-0.04055,0.17911,-0.81563,1.45536,-0.54817,-0.13831,-0.11418
155,0.06706,-0.56176,1.10788,-0.44775,-0.05188,-0.04251,0.18648,-0.83236,1.53014,-0.60689,-0.14397,-0.11894
156,0.06851,-0.56416,1.10979,-0.4473,-0.053,-0.04343,0.18847,-0.81352,1.54102,-0.6368,-0.1455,-0.12023
157,0.06847,-0.56657,1.11195,-0.44705,-0.05297,-0.04341,0.1885,-0.78982,1.54606,-0.66553,-0.14553,-0.12025
158,0.06698,-0.56937,1.11499,-0.44725,-0.05182,-0.04246,0.18691,-0.76507,1.55025,-0.69433,-0.1443,-0.11922
159,0.06401,-0.57265,1.11875,-0.44763,-0.04952,-0.04057,0.18368,-0.74048,1.5534,-0.72177,-0.14182,-0.11714
160,0.05952,-0.57605,1.12197,-0.44731,-0.04605,-0.03772,0.17837,-0.7145,1.54885,-0.74272,-0.13774,-0.1137
161,0.05338,-0.57618,1.1154,-0.44044,-0.0413,-0.03383,0.16777,-0.66372,1.47823,-0.72197,-0.12959,-0.10687
162,0.04562,-0.57416,1.10142,-0.42829,-0.0353,-0.02891,0.15371,-0.59557,1.35494,-0.66571,-0.11876,-0.09783
163,0.03626,-0.57248,1.08599,-0.41435,-0.02806,-0.02297,0.1387,-0.52602,1.21548,-0.59472,-0.1072,-0.08819
164,0.0253,-0.57358,1.07555,-0.40264,-0.01958,-0.01603,0.12432,-0.47658,1.10846,-0.53619,-0.09611,-0.07899
165,0.01295,-0.57921,1.07553,-0.39689,-0.01002,-0.0082,0.11138,-0.47129,1.08715,-0.51943,-0.08612,-0.07073
166,-0.00053,-0.58597,1.07785,-0.39241,0.00041,0.00034,0.09793,-0.47808,1.08941,-0.5142,-0.07574,-0.06215
167,-0.01486,-0.59259,1.07937,-0.38736,0.0115,0.00941,0.08363,-0.48474,1.09082,-0.50832,-0.06469,-0.05305
168,-0.02971,-0.59894,1.07989,-0.38169,0.02299,0.01882,0.06878,-0.49118,1.09124,-0.50175,-0.05322,-0.04361
169,-0.04481,-0.60494,1.07929,-0.37537,0.03467,0.02839,0.05368,-0.4973,1.09058,-0.4945,-0.04154,-0.03403
170,-0.05987,-0.6105,1.07751,-0.36842,0.04632,0.03795,0.0386,-0.50306,1.0888,-0.48663,-0.02987,-0.02446
171,-0.07462,-0.61558,1.07459,-0.36091,0.05772,0.04731,0.02381,-0.50841,1.08597,-0.47822,-0.01843,-0.01509
172,-0.0888,-0.62016,1.07062,-0.35292,0.06868,0.05633,0.00958,-0.51334,1.08219,-0.46939,-0.00742,-0.00607
173,-0.10218,-0.62427,1.06577,-0.34459,0.07901,0.06485,-0.00386,-0.51786,1.07765,-0.46031,0.00299,0.00244
174,-0.11453,-0.62792,1.06024,-0.33607,0.08855,0.07273,-0.01629,-0.522,1.07256,-0.45114,0.0126,0.01031
175,-0.12566,-0.63118,1.05429,-0.32752,0.09713,0.07984,-0.02749,-0.52582,1.06719,-0.44207,0.02127,0.01741
176,-0.13537,-0.63411,1.04821,-0.31913,0.10462,0.08605,-0.03728,-0.52936,1.06182,-0.43332,0.02884,0.02361
177,-0.14521,-0.66105,1.09734,-0.34201,0.11221,0.09236,-0.04558,-0.53426,1.06277,-0.42954,0.03526,0.02887
178,-0.15665,-0.72051,1.22495,-0.41101,0.12102,0.09971,-0.05248,-0.54168,1.07389,-0.43341,0.0406,0.03325
179,-0.16842,-0.78218,1.369,-0.49434,0.13008,0.10728,-0.05799,-0.55018,1.08942,-0.44058,0.04486,0.03675
180,-0.17848,-0.82386,1.48502,-0.56955,0.13782,0.11377,-0.06205,-0.55793,1.10362,-0.44715,0.048,0.03932
181,-0.18405,-0.82896,1.53827,-0.61819,0.1421,0.11736,-0.06457,-0.56282,1.11073,-0.44946,0.04995,0.04092
182,-0.18526,-0.80713,1.54362,-0.64548,0.14303,0.11815,-0.0656,-0.56535,1.11209,-0.44831,0.05074,0.04158
183,-0.18496,-0.78338,1.5483,-0.67388,0.1428,0.11795,-0.06526,-0.56816,1.11434,-0.44774,0.05049,0.04137
184,-0.18314,-0.75891,1.55205,-0.70194,0.1414,0.11678,-0.06357,-0.57135,1.11735,-0.44751,0.04917,0.04029
185,-0.17979,-0.735,1.55476,-0.72826,0.13883,0.11462,-0.0605,-0.575,1.12094,-0.44736,0.0468,0.03834
186,-0.17372,-0.70437,1.53649,-0.74009,0.13415,0.11069,-0.05599,-0.57798,1.12181,-0.44512,0.04331,0.03548
187,-0.16248,-0.6474,1.44728,-0.70691,0.12551,0.10345,-0.04994,-0.57743,1.1121,-0.4358,0.03863,0.03164
188,-0.14868,-0.57737,1.31516,-0.64376,0.11488,0.09459,-0.0424,-0.57542,1.09658,-0.42211,0.0328,0.02686
189,-0.13455,-0.51127,1.1791,-0.57281,0.10399,0.08553,-0.03337,-0.57447,1.08138,-0.4077,0.02582,0.02113
190,-0.12145,-0.47303,1.0925,-0.52362,0.09388,0.07715,-0.02287,-0.57697,1.07306,-0.39674,0.0177,0.01448
191,-0.10947,-0.47648,1.08763,-0.51462,0.08464,0.0695,-0.01105,-0.5836,1.07446,-0.39141,0.00855,0.00699
192,-0.09716,-0.48325,1.08954,-0.50913,0.07513,0.06165,0.0013,-0.59022,1.07619,-0.38649,-0.00101,-0.00083
193,-0.08398,-0.48985,1.09073,-0.50314,0.06495,0.05326,0.01449,-0.59668,1.07729,-0.38118,-0.01122,-0.00919
194,-0.07005,-0.49621,1.09107,-0.49658,0.05419,0.04441,0.02844,-0.6029,1.07758,-0.3754,-0.02201,-0.01802
195,-0.05572,-0.50218,1.09042,-0.48953,0.04311,0.03531,0.04276,-0.60872,1.07694,-0.36919,-0.03309,-0.0271
196,-0.04117,-0.50771,1.08875,-0.48198,0.03186,0.02609,0.05729,-0.61406,1.07529,-0.36255,-0.04432,-0.03631
197,-0.02665,-0.51276,1.08606,-0.47401,0.02062,0.01688,0.07178,-0.61889,1.07261,-0.3555,-0.05553,-0.04552
198,-0.01239,-0.51729,1.08241,-0.46568,0.00959,0.00785,0.08599,-0.62317,1.06894,-0.3481,-0.06651,-0.05455
199,0.00136,-0.52133,1.07793,-0.45712,-0.00105,-0.00086,0.09967,-0.62692,1.06438,-0.34043,-0.07708,-0.06326
200,0.01434,-0.52491,1.0728,-0.44846,-0.0111,-0.00908,0.11258,-0.63015,1.0591,-0.33259,-0.08705,-0.07149
201,0.02632,-0.5281,1.06725,-0.43984,-0.02036,-0.01667,0.12448,-0.63294,1.0533,-0.3247,-0.09623,-0.0791
202,0.03705,-0.53098,1.06156,-0.43144,-0.02867,-0.02347,0.13514,-0.63536,1.04725,-0.3169,-0.10445,-0.08591
203,0.04635,-0.53444,1.05911,-0.42572,-0.03587,-0.02937,0.14519,-0.6501,1.06958,-0.32519,-0.1122,-0.09235
204,0.05429,-0.54039,1.06675,-0.4276,-0.04201,-0.03441,0.15675,-0.70043,1.17515,-0.38129,-0.1211,-0.09978
205,0.06089,-0.54785,1.08016,-0.43374,-0.04711,-0.0386,0.16907,-0.76119,1.31258,-0.45896,-0.13059,-0.10771
206,0.06612,-0.55534,1.0944,-0.44065,-0.05116,-0.04192,0.18063,-0.81064,1.43822,-0.53615,-0.13948,-0.11517
207,0.06992,-0.56112,1.10451,-0.44512,-0.05409,-0.04433,0.18918,-0.83292,1.51997,-0.59641,-0.14604,-0.12069
208,0.07223,-0.56378,1.10679,-0.44481,-0.05588,-0.0458,0.19258,-0.81959,1.53793,-0.62802,-0.14866,-0.12289
209,0.07302,-0.56603,1.10826,-0.44407,-0.05649,-0.0463,0.19351,-0.79764,1.54273,-0.65486,-0.14937,-0.1235
210,0.07268,-0.56859,1.11048,-0.44371,-0.05622,-0.04608,0.19321,-0.77446,1.54684,-0.68211,-0.14914,-0.1233
211,0.07106,-0.57158,1.11341,-0.44359,-0.05497,-0.04506,0.19148,-0.75109,1.55006,-0.70855,-0.14781,-0.12218
212,0.06814,-0.57505,1.11687,-0.44348,-0.05272,-0.0432,0.1883,-0.72867,1.5524,-0.733,-0.14537,-0.12012
213,0.06382,-0.57692,1.11513,-0.43974,-0.04938,-0.04046,0.18147,-0.69292,1.51805,-0.73378,-0.14012,-0.11571
214,0.05806,-0.57582,1.10425,-0.42978,-0.04492,-0.0368,0.17008,-0.63462,1.42153,-0.69456,-0.13136,-0.10836
215,0.05089,-0.57388,1.08919,-0.41648,-0.03937,-0.03225,0.1567,-0.56713,1.29214,-0.63158,-0.12107,-0.09975
216,0.04233,-0.57326,1.07534,-0.40304,-0.03276,-0.02682,0.14324,-0.50581,1.16506,-0.56482,-0.1107,-0.09111
217,0.03244,-0.57604,1.06843,-0.39317,-0.0251,-0.02055,0.13091,-0.47227,1.08829,-0.52075,-0.10119,-0.08321
218,0.02134,-0.58258,1.07036,-0.38842,-0.01651,-0.01352,0.11971,-0.47647,1.08562,-0.51319,-0.09255,-0.07604
219,0.00917,-0.5894,1.0726,-0.38375,-0.0071,-0.00581,0.10758,-0.48342,1.08803,-0.50797,-0.08319,-0.0683
220,-0.00386,-0.59608,1.07425,-0.3787,0.00299,0.00245,0.09458,-0.49022,1.08978,-0.50227,-0.07315,-0.06002
221,-0.01753,-0.6025,1.07515,-0.37324,0.01356,0.0111,0.08093,-0.49677,1.09071,-0.49607,-0.0626,-0.05133
222,-0.03159,-0.60855,1.07515,-0.36737,0.02444,0.02001,0.06687,-0.50296,1.09073,-0.48939,-0.05174,-0.0424
223,-0.04582,-0.61415,1.0742,-0.36109,0.03545,0.02903,0.05264,-0.50872,1.08976,-0.48225,-0.04073,-0.03337
224,-0.06047,-0.61941,1.07216,-0.35417,0.04678,0.03833,0.03797,-0.51418,1.08774,-0.47443,-0.02938,-0.02406
225,-0.0745,-0.624,1.0692,-0.34708,0.05763,0.04724,0.02389,-0.51901,1.0848,-0.46645,-0.01849,-0.01514
226,-0.08802,-0.62805,1.06535,-0.33973,0.06807,0.05583,0.01033,-0.52334,1.08104,-0.45824,-0.008,-0.00655
227,-0.10076,-0.63159,1.06077,-0.3322,0.07792,0.06395,-0.00247,-0.52721,1.07662,-0.44993,0.00191,0.00156
228,-0.1125,-0.63467,1.05565,-0.32461,0.08698,0.07143,-0.01427,-0.53068,1.07176,-0.44165,0.01104,0.00903
229,-0.123,-0.63737,1.05022,-0.3171,0.09508,0.07814,-0.02484,-0.53382,1.06672,-0.43357,0.01922,0.01573
230,-0.13284,-0.65233,1.07306,-0.3256,0.10267,0.08443,-0.03399,-0.53752,1.06483,-0.42812,0.0263,0.02153
231,-0.14397,-0.70277,1.17885,-0.38171,0.11125,0.09156,-0.04176,-0.54365,1.07292,-0.43022,0.03231,0.02645
232,-0.15572,-0.7636,1.31639,-0.4593,0.1203,0.09911,-0.04819,-0.55125,1.08669,-0.43653,0.03728,0.03053
233,-0.16669,-0.81311,1.44214,-0.53641,0.12875,0.10617,-0.05326,-0.55884,1.10119,-0.44356,0.0412,0.03375
234,-0.17479,-0.83543,1.52403,-0.59666,0.13498,0.11139,-0.05692,-0.56469,1.11152,-0.44814,0.04404,0.03607
235,-0.17803,-0.82211,1.54214,-0.62838,0.13747,0.11348,-0.05913,-0.56742,1.11397,-0.44793,0.04574,0.03747
236,-0.17908,-0.80012,1.54697,-0.65529,0.13827,0.11415,-0.06001,-0.56966,1.11544,-0.44718,0.04643,0.03803
237,-0.17869,-0.77689,1.55111,-0.68263,0.13798,0.11391,-0.05961,-0.57222,1.11768,-0.44686,0.04611,0.03778
238,-0.17689,-0.75343,1.55431,-0.70912,0.13659,0.11274,-0.05792,-0.57516,1.12055,-0.44673,0.04481,0.03671
239,-0.17313,-0.73092,1.55667,-0.73367,0.13371,0.11032,-0.05449,-0.57864,1.12412,-0.44673,0.04216,0.03453
240,-0.16637,-0.69505,1.5222,-0.7345,0.1285,0.10596,-0.0501,-0.58041,1.1222,-0.44293,0.03876,0.03174
241,-0.15534,-0.63664,1.42554,-0.69537,0.12001,0.09887,-0.04431,-0.57919,1.11108,-0.43289,0.03428,0.02807
242,-0.14243,-0.56905,1.29601,-0.63248,0.11006,0.09058,-0.03715,-0.57708,1.09571,-0.41948,0.02874,0.02353
243,-0.12936,-0.50763,1.16873,-0.56575,0.09999,0.08221,-0.02859,-0.57627,1.08144,-0.40589,0.02212,0.01811
244,-0.11721,-0.4739,1.09156,-0.52156,0.09062,0.07444,-0.01868,-0.57878,1.07398,-0.39581,0.01445,0.01182
245,-0.10597,-0.4778,1.08825,-0.51373,0.08194,0.06727,-0.00754,-0.585,1.07526,-0.39079,0.00583,0.00477
246,-0.09379,-0.48442,1.08993,-0.5082,0.07254,0.05951,0.00467,-0.59147,1.07677,-0.38583,-0.00361,-0.00296
247,-0.08075,-0.49088,1.09091,-0.50216,0.06246,0.05121,0.01773,-0.59777,1.07765,-0.38047,-0.01372,-0.01124
248,-0.06707,-0.49705,1.09104,-0.49562,0.05188,0.04252,0.03142,-0.6038,1.07773,-0.37469,-0.02431,-0.01991
249,-0.05298,-0.50285,1.09022,-0.48858,0.04099,0.03357,0.0455,-0.60944,1.0769,-0.36849,-0.03521,-0.02884
250,-0.03872,-0.50822,1.08841,-0.48108,0.02996,0.02453,0.05974,-0.61461,1.0751,-0.36188,-0.04622,-0.03787
251,-0.02454,-0.51311,1.08563,-0.4732,0.01898,0.01554,0.07388,-0.61928,1.07231,-0.35489,-0.05716,-0.04685
252,-0.01067,-0.5175,1.08195,-0.46501,0.00826,0.00676,0.08769,-0.62341,1.0686,-0.3476,-0.06783,-0.05564
253,0.00262,-0.52141,1.07752,-0.45663,-0.00203,-0.00166,0.10093,-0.62702,1.06407,-0.34007,-0.07805,-0.06406
254,0.01638,-0.52516,1.07197,-0.4474,-0.01268,-0.01038,0.11461,-0.6304,1.05836,-0.33171,-0.08862,-0.07279
255,0.02818,-0.52827,1.06638,-0.43883,-0.02181,-0.01785,0.12633,-0.63311,1.05252,-0.32385,-0.09766,-0.08028
256,0.03874,-0.53109,1.06068,-0.43048,-0.02998,-0.02455,0.13682,-0.63548,1.04644,-0.31609,-0.10575,-0.08699
257,0.0479,-0.53451,1.05824,-0.42481,-0.03706,-0.03035,0.14673,-0.65017,1.06879,-0.32443,-0.11338,-0.09334
258,0.05571,-0.54043,1.0659,-0.42675,-0.0431,-0.03531,0.15819,-0.70051,1.17443,-0.3806,-0.12221,-0.1007
259,0.06219,-0.54787,1.07936,-0.43296,-0.04811,-0.03942,0.17043,-0.76129,1.31194,-0.45834,-0.13163,-0.10858
260,0.06731,-0.55535,1.09364,-0.43992,-0.05207,-0.04267,0.18192,-0.81076,1.43765,-0.53559,-0.14046,-0.11599
261,0.07101,-0.56112,1.1038,-0.44444,-0.05493,-0.04502,0.19038,-0.83305,1.51947,-0.59589,-0.14697,-0.12147
262,0.07323,-0.56377,1.10612,-0.44419,-0.05665,-0.04643,0.19368,-0.81972,1.53748,-0.62755,-0.1495,-0.1236
263,0.07411,-0.56598,1.10754,-0.44342,-0.05733,-0.047,0.19473,-0.79776,1.54226,-0.65439,-0.15031,-0.12428
264,0.07372,-0.56855,1.1098,-0.44311,-0.05703,-0.04674,0.19436,-0.77458,1.54641,-0.68168,-0.15002,-0.12404
265,0.07204,-0.57153,1.11276,-0.44303,-0.05573,-0.04568,0.19257,-0.75122,1.54968,-0.70815,-0.14865,-0.12288
266,0.06908,-0.57501,1.11628,-0.44296,-0.05344,-0.04379,0.18933,-0.72879,1.55206,-0.73264,-0.14616,-0.12079
267,0.06472,-0.57688,1.11458,-0.43925,-0.05007,-0.04103,0.18245,-0.69305,1.51775,-0.73344,-0.14087,-0.11634
268,0.05891,-0.57579,1.10373,-0.42932,-0.04558,-0.03734,0.17099,-0.63473,1.42125,-0.69425,-0.13207,-0.10895
269,0.05091,-0.57401,1.08913,-0.41628,-0.03939,-0.03226,0.15672,-0.56731,1.29214,-0.6314,-0.12108,-0.09976
270,0.04233,-0.5734,1.0753,-0.40287,-0.03275,-0.02682,0.14324,-0.50597,1.16507,-0.56467,-0.11069,-0.0911
271,0.03243,-0.57616,1.06838,-0.39301,-0.0251,-0.02055,0.13091,-0.47242,1.0883,-0.52061,-0.10119,-0.08321
272,0.02136,-0.58269,1.07031,-0.38826,-0.01653,-0.01353,0.11973,-0.4766,1.08562,-0.51307,-0.09257,-0.07606
273,0.00923,-0.58949,1.07254,-0.38359,-0.00714,-0.00585,0.10764,-0.48353,1.08802,-0.50785,-0.08323,-0.06834
274,-0.00376,-0.59616,1.07418,-0.37855,0.00291,0.00238,0.09468,-0.49033,1.08977,-0.50216,-0.07323,-0.06008
275,-0.01738,-0.60257,1.07508,-0.37311,0.01345,0.01101,0.08108,-0.49687,1.09071,-0.49597,-0.06272,-0.05143
276,-0.03141,-0.60861,1.07509,-0.36724,0.0243,0.0199,0.06706,-0.50305,1.09073,-0.4893,-0.05188,-0.04252
277,-0.0456,-0.61421,1.07414,-0.36097,0.03528,0.02889,0.05286,-0.50881,1.08977,-0.48217,-0.0409,-0.0335
278,-0.05972,-0.61929,1.07221,-0.35432,0.0462,0.03785,0.03872,-0.51409,1.08785,-0.47465,-0.02996,-0.02454
279,-0.07352,-0.62384,1.06935,-0.34735,0.05687,0.04662,0.02488,-0.51887,1.08502,-0.46682,-0.01926,-0.01577
280,-0.08676,-0.62786,1.06564,-0.34015,0.0671,0.05504,0.01159,-0.52317,1.0814,-0.45879,-0.00897,-0.00735
281,-0.0992,-0.63138,1.06123,-0.3328,0.07672,0.06296,-0.00091,-0.52701,1.07717,-0.45067,0.0007,0.00057
282,-0.11061,-0.63445,1.05633,-0.32542,0.08552,0.07023,-0.01237,-0.53046,1.07253,-0.44263,0.00957,0.00783
283,-0.12075,-0.63715,1.05117,-0.31813,0.09335,0.0767,-0.02258,-0.53359,1.06776,-0.43481,0.01747,0.0143
284,-0.13019,-0.65209,1.07427,-0.32687,0.10063,0.08274,-0.03134,-0.5373,1.06618,-0.42964,0.02425,0.01985
285,-0.14085,-0.70247,1.18026,-0.3832,0.10885,0.08956,-0.0387,-0.54343,1.07458,-0.43204,0.02994,0.02451
286,-0.15204,-0.76316,1.31796,-0.46102,0.11747,0.09675,-0.04469,-0.55103,1.08867,-0.43866,0.03457,0.02831
287,-0.1624,-0.81251,1.44387,-0.53838,0.12544,0.1034,-0.04929,-0.55861,1.10351,-0.44602,0.03813,0.03123
288,-0.16986,-0.83466,1.52591,-0.59889,0.13118,0.1082,-0.05246,-0.56445,1.11419,-0.45093,0.04058,0.03324
289,-0.1725,-0.82118,1.54418,-0.63087,0.13322,0.10991,-0.05414,-0.56717,1.117,-0.45108,0.04189,0.03431
290,-0.17292,-0.799,1.54915,-0.65805,0.13354,0.11018,-0.05447,-0.56939,1.11884,-0.4507,0.04214,0.03451
291,-0.17187,-0.77554,1.55339,-0.68565,0.13273,0.1095,-0.05346,-0.57191,1.12144,-0.45075,0.04136,0.03387
292,-0.16933,-0.75182,1.55664,-0.71242,0.13078,0.10787,-0.05112,-0.5748,1.12466,-0.45103,0.03955,0.03239
293,-0.16528,-0.72897,1.55889,-0.73718,0.12766,0.10526,-0.04742,-0.57811,1.12833,-0.4513,0.03669,0.03004
294,-0.15778,-0.69282,1.5244,-0.73825,0.12189,0.10043,-0.04229,-0.57977,1.12672,-0.44792,0.03272,0.02679
295,-0.1461,-0.63421,1.42774,-0.69931,0.11289,0.09293,-0.03569,-0.57841,1.1159,-0.43832,0.02761,0.0226
296,-0.13255,-0.56645,1.2982,-0.63659,0.10245,0.08425,-0.02764,-0.57614,1.1008,-0.42537,0.02138,0.0175
297,-0.11877,-0.50481,1.17086,-0.57004,0.09182,0.07544,-0.01812,-0.5751,1.08674,-0.41224,0.01402,0.01147
298,-0.10577,-0.47075,1.09352,-0.52604,0.08178,0.06714,-0.00718,-0.57731,1.07938,-0.4026,0.00555,0.00454
299,-0.09353,-0.47415,1.08983,-0.51835,0.07233,0.05934,0.00496,-0.58315,1.08057,-0.39794,-0.00385,-0.00315
300,-0.08045,-0.48024,1.09099,-0.51287,0.06222,0.05102,0.01806,-0.58919,1.0818,-0.39321,-0.01398,-0.01145
301,-0.06667,-0.48618,1.09132,-0.50676,0.05157,0.04226,0.03185,-0.59505,1.08222,-0.38794,-0.02465,-0.02019
302,-0.05244,-0.49188,1.09069,-0.50002,0.04057,0.03323,0.04607,-0.60064,1.08168,-0.38208,-0.03565,-0.0292
303,-0.03804,-0.49728,1.08906,-0.49267,0.02943,0.0241,0.06045,-0.60588,1.0801,-0.37564,-0.04677,-0.03832
304,-0.02368,-0.50233,1.08643,-0.48476,0.01832,0.015,0.07477,-0.61071,1.07746,-0.36863,-0.05784,-0.04742
305,-0.00961,-0.50702,1.08285,-0.47638,0.00743,0.00609,0.08879,-0.61512,1.07379,-0.36113,-0.06868,-0.05633
306,0.00395,-0.51134,1.07845,-0.46763,-0.00306,-0.00251,0.10229,-0.61909,1.06921,-0.3532,-0.0791,-0.06493
307,0.0168,-0.5153,1.07337,-0.45866,-0.013,-0.01064,0.11506,-0.62264,1.06384,-0.34498,-0.08896,-0.07308
308,0.02874,-0.51894,1.06783,-0.44962,-0.02224,-0.01821,0.12692,-0.6258,1.0579,-0.33658,-0.09811,-0.08066
309,0.03959,-0.52229,1.06206,-0.44068,-0.03064,-0.02509,0.13769,-0.62862,1.0516,-0.32817,-0.10642,-0.08755
310,0.04919,-0.52542,1.05631,-0.43201,-0.03806,-0.03118,0.14721,-0.63116,1.0452,-0.3199,-0.11376,-0.09365
311,0.05745,-0.52918,1.05394,-0.42609,-0.04445,-0.03641,0.15627,-0.64606,1.06736,-0.32784,-0.12073,-0.09947
312,0.06445,-0.53545,1.06177,-0.42786,-0.04986,-0.04086,0.16711,-0.69654,1.17294,-0.38381,-0.12908,-0.10644
313,0.07021,-0.54324,1.07545,-0.43394,-0.05432,-0.04452,0.17887,-0.75742,1.31044,-0.46144,-0.13812,-0.11402
314,0.07464,-0.55107,1.09001,-0.44083,-0.05774,-0.04733,0.18986,-0.80699,1.43617,-0.5386,-0.14657,-0.12113
315,0.07773,-0.55716,1.10044,-0.44529,-0.06013,-0.04929,0.19781,-0.82942,1.51797,-0.59873,-0.15267,-0.12628
316,0.07939,-0.56013,1.10302,-0.44496,-0.06141,-0.05035,0.20052,-0.81631,1.53595,-0.6301,-0.15475,-0.12804
317,0.07977,-0.56263,1.10468,-0.44413,-0.06171,-0.05059,0.20101,-0.79458,1.54072,-0.65665,-0.15513,-0.12836
318,0.07893,-0.56547,1.10719,-0.44378,-0.06106,-0.05006,0.20014,-0.77162,1.54489,-0.68369,-0.15446,-0.12779
319,0.07685,-0.56871,1.11041,-0.44367,-0.05945,-0.04874,0.19791,-0.74846,1.5482,-0.70995,-0.15275,-0.12634
320,0.07352,-0.57243,1.11417,-0.44359,-0.05688,-0.04662,0.19427,-0.72623,1.55065,-0.73426,-0.14996,-0.12399
321,0.06884,-0.57452,1.11271,-0.43987,-0.05325,-0.04364,0.18699,-0.69069,1.51642,-0.73488,-0.14436,-0.11927
322,0.06274,-0.57363,1.10208,-0.42994,-0.04854,-0.03977,0.1751,-0.63261,1.42,-0.69548,-0.13522,-0.11159
323,0.05528,-0.57188,1.08727,-0.41667,-0.04277,-0.03504,0.16127,-0.56531,1.29073,-0.63234,-0.12458,-0.10268
324,0.04648,-0.57145,1.07367,-0.40327,-0.03596,-0.02945,0.14743,-0.50416,1.16377,-0.56548,-0.11393,-0.09379
325,0.03637,-0.57441,1.06702,-0.39346,-0.02814,-0.02304,0.13483,-0.47078,1.08717,-0.52138,-0.10421,-0.08572
326,0.0251,-0.58112,1.06922,-0.38878,-0.01942,-0.0159,0.12345,-0.47513,1.08475,-0.51389,-0.09543,-0.07843
327,0.01276,-0.5881,1.07171,-0.38418,-0.00988,-0.00808,0.11116,-0.48223,1.08741,-0.50873,-0.08595,-0.07058
328,-0.00043,-0.59494,1.07362,-0.3792,0.00033,0.00027,0.098,-0.48919,1.0894,-0.50309,-0.07579,-0.0622
329,-0.01437,-0.60157,1.07476,-0.37377,0.01112,0.0091,0.08409,-0.49593,1.09056,-0.49689,-0.06504,-0.05334
330,-0.02869,-0.6078,1.07499,-0.36791,0.0222,0.01817,0.06977,-0.50229,1.09078,-0.4902,-0.05398,-0.04424
331,-0.04322,-0.61358,1.07421,-0.36162,0.03344,0.02738,0.05524,-0.50822,1.08998,-0.48303,-0.04274,-0.03501
332,-0.05772,-0.61884,1.0724,-0.35491,0.04466,0.03658,0.04072,-0.51366,1.08816,-0.47542,-0.03151,-0.02581
333,-0.07194,-0.62355,1.0696,-0.34785,0.05565,0.04561,0.02646,-0.5186,1.08537,-0.46746,-0.02048,-0.01677
334,-0.08565,-0.6277,1.06588,-0.3405,0.06624,0.05433,0.01271,-0.52303,1.08172,-0.45925,-0.00984,-0.00806
335,-0.09858,-0.63133,1.06139,-0.33297,0.07623,0.06256,-0.00028,-0.52698,1.07738,-0.45091,0.00021,0.00017
336,-0.1105,-0.63449,1.05633,-0.32536,0.08544,0.07016,-0.01227,-0.53052,1.07257,-0.4426,0.00949,0.00776
337,-0.12118,-0.63726,1.05094,-0.31782,0.09368,0.07698,-0.02301,-0.53372,1.06755,-0.43447,0.0178,0.01457
338,-0.13117,-0.65225,1.07377,-0.32628,0.10139,0.08337,-0.03232,-0.53747,1.06567,-0.42898,0.02501,0.02047
339,-0.14242,-0.7027,1.17951,-0.38233,0.11006,0.09057,-0.04024,-0.54364,1.07374,-0.43102,0.03113,0.02549
340,-0.15426,-0.76351,1.31698,-0.45986,0.11918,0.09817,-0.04679,-0.55125,1.08747,-0.43728,0.0362,0.02964
341,-0.16531,-0.81301,1.44267,-0.53693,0.12769,0.10528,-0.05198,-0.55886,1.10193,-0.44426,0.04022,0.03294
342,-0.1735,-0.83532,1.5245,-0.59713,0.13399,0.11055,-0.05575,-0.56472,1.11222,-0.44878,0.04313,0.03533
343,-0.17684,-0.822,1.54257,-0.62881,0.13656,0.11271,-0.05806,-0.56744,1.11462,-0.44852,0.04491,0.03679
344,-0.17778,-0.80002,1.54741,-0.65572,0.13728,0.11332,-0.05885,-0.56972,1.11615,-0.4478,0.04552,0.03729
345,-0.17747,-0.77678,1.55151,-0.68302,0.13704,0.11311,-0.05851,-0.57228,1.11835,-0.44743,0.04526,0.03708
346,-0.17573,-0.75332,1.55466,-0.70949,0.1357,0.11199,-0.05688,-0.57522,1.12117,-0.44727,0.044,0.03604
347,-0.17253,-0.73078,1.55686,-0.73395,0.13324,0.10993,-0.05395,-0.57861,1.12446,-0.44708,0.04174,0.03419
348,-0.16586,-0.69491,1.52235,-0.73474,0.12811,0.10563,-0.04964,-0.58037,1.12249,-0.44324,0.0384,0.03145
349,-0.1549,-0.63651,1.42566,-0.69559,0.11967,0.09858,-0.0439,-0.57915,1.11133,-0.43317,0.03396,0.02781
350,-0.14204,-0.56894,1.29612,-0.63267,0.10976,0.09033,-0.03677,-0.57704,1.09593,-0.41974,0.02845,0.02329
351,-0.12901,-0.50753,1.16882,-0.56591,0.09972,0.08198,-0.02825,-0.57623,1.08164,-0.40613,0.02185,0.01789
352,-0.1169,-0.47381,1.09163,-0.52171,0.09038,0.07424,-0.01836,-0.57874,1.07416,-0.39602,0.01421,0.01162
353,-0.10568,-0.47771,1.0883,-0.51386,0.08172,0.06709,-0.00725,-0.58496,1.07541,-0.39098,0.00561,0.00459
354,-0.09353,-0.48434,1.08997,-0.50831,0.07233,0.05934,0.00493,-0.59142,1.07689,-0.386,-0.00382,-0.00313
355,-0.0805,-0.49079,1.09094,-0.50226,0.06227,0.05105,0.01798,-0.59772,1.07775,-0.38062,-0.01391,-0.01139
356,-0.06684,-0.49697,1.09105,-0.49571,0.05171,0.04237,0.03165,-0.60375,1.07781,-0.37483,-0.02449,-0.02005
357,-0.05277,-0.50277,1.09022,-0.48866,0.04082,0.03344,0.04571,-0.60939,1.07697,-0.36862,-0.03537,-0.02897
358,-0.03853,-0.50814,1.0884,-0.48115,0.02981,0.02441,0.05993,-0.61456,1.07515,-0.36199,-0.04637,-0.03799
359,-0.02384,-0.5132,1.0855,-0.47296,0.01845,0.0151,0.07457,-0.61939,1.07223,-0.35472,-0.05769,-0.04729
360,-0.00978,-0.51763,1.08171,-0.46463,0.00756,0.00619,0.08859,-0.62356,1.06841,-0.3473,-0.06852,-0.05621
361,0.00378,-0.52158,1.07713,-0.45608,-0.00292,-0.00239,0.10208,-0.6272,1.06374,-0.33962,-0.07894,-0.0648
362,0.01657,-0.52508,1.07192,-0.44744,-0.01282,-0.01049,0.1148,-0.63034,1.05837,-0.33179,-0.08876,-0.07291
363,0.02836,-0.52819,1.06633,-0.43886,-0.02194,-0.01796,0.12651,-0.63305,1.05252,-0.32392,-0.0978,-0.08039
364,0.03891,-0.53101,1.06062,-0.43051,-0.03011,-0.02465,0.13698,-0.63542,1.04643,-0.31615,-0.10587,-0.0871
365,0.04805,-0.53444,1.05818,-0.42483,-0.03718,-0.03045,0.14688,-0.65012,1.06878,-0.32449,-0.1135,-0.09344
366,0.05584,-0.54037,1.06585,-0.42677,-0.04321,-0.03539,0.15833,-0.70046,1.17442,-0.38065,-0.12232,-0.10079
367,0.06231,-0.54781,1.07931,-0.43297,-0.04821,-0.0395,0.17056,-0.76124,1.31193,-0.45838,-0.13173,-0.10867
368,0.06742,-0.55529,1.09359,-0.43994,-0.05216,-0.04275,0.18204,-0.81071,1.43764,-0.53563,-0.14056,-0.11608
369,0.07111,-0.56106,1.10376,-0.44446,-0.05501,-0.04509,0.19049,-0.833,1.51945,-0.59594,-0.14705,-0.12154
370,0.07332,-0.56372,1.10609,-0.44421,-0.05672,-0.04649,0.19379,-0.81967,1.53747,-0.62759,-0.14958,-0.12367
371,0.0742,-0.56594,1.1075,-0.44344,-0.0574,-0.04705,0.19483,-0.79772,1.54225,-0.65443,-0.15038,-0.12435
372,0.0738,-0.56851,1.10977,-0.44312,-0.05709,-0.0468,0.19445,-0.77454,1.54639,-0.68171,-0.15009,-0.1241
373,0.07212,-0.5715,1.11274,-0.44304,-0.05579,-0.04573,0.19265,-0.75118,1.54967,-0.70817,-0.14871,-0.12294
374,0.0687,-0.57507,1.11652,-0.44313,-0.05315,-0.04355,0.18891,-0.7288,1.5522,-0.73273,-0.14584,-0.12052
375,0.0643,-0.57695,1.11484,-0.43942,-0.04974,-0.04076,0.18199,-0.69305,1.5179,-0.73354,-0.14052,-0.11604
376,0.05848,-0.57586,1.10399,-0.4295,-0.04525,-0.03707,0.17053,-0.63474,1.4214,-0.69435,-0.13171,-0.10865
377,0.05127,-0.57391,1.08896,-0.41622,-0.03967,-0.03249,0.1571,-0.56724,1.29204,-0.6314,-0.12138,-0.10001
378,0.04269,-0.5733,1.07514,-0.40281,-0.03303,-0.02705,0.1436,-0.50591,1.16497,-0.56466,-0.11097,-0.09134
379,0.03276,-0.57608,1.06826,-0.39296,-0.02535,-0.02076,0.13124,-0.47236,1.08822,-0.52061,-0.10144,-0.08342
380,0.02164,-0.58263,1.07022,-0.38824,-0.01675,-0.01371,0.12001,-0.47656,1.08557,-0.51307,-0.09278,-0.07624
381,0.00945,-0.58944,1.07248,-0.38358,-0.00731,-0.00598,0.10785,-0.48351,1.088,-0.50787,-0.0834,-0.06848
382,-0.00361,-0.59613,1.07416,-0.37855,0.00279,0.00228,0.09483,-0.49031,1.08976,-0.50218,-0.07334,-0.06018
383,-0.01729,-0.60255,1.07507,-0.37312,0.01338,0.01095,0.08117,-0.49686,1.09071,-0.49599,-0.06279,-0.05149
384,-0.03137,-0.60861,1.0751,-0.36726,0.02427,0.01987,0.06709,-0.50304,1.09074,-0.48932,-0.05191,-0.04254
385,-0.04561,-0.61421,1.07416,-0.36099,0.03529,0.0289,0.05284,-0.5088,1.08979,-0.48219,-0.04089,-0.0335
386,-0.05977,-0.61929,1.07223,-0.35434,0.04624,0.03788,0.03866,-0.51408,1.08786,-0.47466,-0.02992,-0.0245
387,-0.0736,-0.62384,1.06936,-0.34737,0.05693,0.04667,0.0248,-0.51886,1.08502,-0.46683,-0.01919,-0.01572
388,-0.08686,-0.62786,1.06564,-0.34016,0.06718,0.0551,0.0115,-0.52316,1.08139,-0.45879,-0.0089,-0.00729
389,-0.10056,-0.63165,1.06078,-0.33213,0.07777,0.06382,-0.00227,-0.5273,1.07669,-0.4499,0.00176,0.00143
390,-0.11231,-0.63473,1.05567,-0.32456,0.08684,0.07132,-0.01409,-0.53077,1.07183,-0.44163,0.0109,0.00892
391,-0.12283,-0.63743,1.05025,-0.31705,0.09495,0.07803,-0.02467,-0.5339,1.06679,-0.43355,0.01909,0.01562
392,-0.13321,-0.65424,1.07676,-0.32741,0.10296,0.08467,-0.03426,-0.53785,1.0651,-0.42805,0.0265,0.0217
393,-0.14499,-0.70886,1.19206,-0.38889,0.11204,0.09222,-0.04232,-0.54445,1.0742,-0.43071,0.03274,0.02681
394,-0.15732,-0.77224,1.33691,-0.47129,0.12154,0.10014,-0.04891,-0.5525,1.08901,-0.43761,0.03784,0.03099
395,-0.1685,-0.82025,1.46299,-0.55026,0.13014,0.10733,-0.05399,-0.56028,1.10382,-0.44477,0.04177,0.03421
396,-0.17595,-0.83526,1.53429,-0.60719,0.13587,0.11214,-0.0575,-0.56573,1.11292,-0.44853,0.04449,0.03644
397,-0.17839,-0.81575,1.54367,-0.6363,0.13775,0.11371,-0.05943,-0.56812,1.11438,-0.44765,0.04598,0.03766
398,-0.17901,-0.79213,1.54855,-0.66485,0.13822,0.11411,-0.05993,-0.57057,1.1162,-0.44703,0.04636,0.03798
399,-0.17805,-0.76751,1.55254,-0.69337,0.13749,0.11349,-0.05901,-0.57339,1.11881,-0.44679,0.04565,0.0374
400,-0.17552,-0.74314,1.55545,-0.72044,0.13554,0.11186,-0.05667,-0.57668,1.12205,-0.44668,0.04384,0.03591
401,-0.17089,-0.7167,1.54889,-0.73992,0.13198,0.10887,-0.05288,-0.57998,1.1244,-0.44563,0.04091,0.0335
402,-0.16113,-0.66486,1.4748,-0.71687,0.12447,0.10259,-0.04752,-0.57993,1.11671,-0.43785,0.03676,0.0301
403,-0.14815,-0.59632,1.34964,-0.65925,0.11448,0.09425,-0.04062,-0.57785,1.10183,-0.4249,0.03142,0.02573
404,-0.1321,-0.52743,1.21078,-0.58817,0.10211,0.08396,-0.03001,-0.57662,1.08671,-0.41082,0.02322,0.019
405,-0.11905,-0.47972,1.10644,-0.53073,0.09204,0.07562,-0.02013,-0.57787,1.07582,-0.39856,0.01557,0.01274
406,-0.10734,-0.47626,1.08801,-0.51511,0.083,0.06814,-0.00891,-0.58363,1.07534,-0.39225,0.00689,0.00563
407,-0.09495,-0.48319,1.08982,-0.50937,0.07343,0.06025,0.00351,-0.59037,1.07691,-0.38706,-0.00272,-0.00223
408,-0.08158,-0.48997,1.0909,-0.50309,0.0631,0.05174,0.01689,-0.59697,1.07784,-0.38145,-0.01308,-0.01071
409,-0.06748,-0.49646,1.09108,-0.49626,0.0522,0.04278,0.03101,-0.6033,1.07793,-0.37539,-0.024,-0.01965
410,-0.05288,-0.50257,1.09025,-0.48889,0.04091,0.03351,0.04559,-0.60921,1.07706,-0.36887,-0.03528,-0.0289
411,-0.03808,-0.5082,1.08834,-0.48102,0.02946,0.02412,0.06038,-0.61464,1.07513,-0.36191,-0.04671,-0.03828
412,-0.02333,-0.51331,1.08539,-0.47273,0.01805,0.01478,0.07509,-0.61951,1.07214,-0.35454,-0.05809,-0.04762
413,-0.00892,-0.51788,1.08146,-0.46412,0.0069,0.00565,0.08944,-0.62379,1.06816,-0.34685,-0.06918,-0.05675
414,0.00486,-0.52193,1.07672,-0.45531,-0.00377,-0.00308,0.10316,-0.62752,1.0633,-0.33892,-0.07978,-0.06549
415,0.01774,-0.52551,1.07138,-0.44647,-0.01373,-0.01124,0.11597,-0.63072,1.05776,-0.33087,-0.08966,-0.07366
416,0.02945,-0.5287,1.06573,-0.43776,-0.02279,-0.01866,0.12759,-0.63347,1.05179,-0.32284,-0.09863,-0.08109
417,0.0397,-0.53161,1.06008,-0.42939,-0.03072,-0.02516,0.13777,-0.63589,1.0457,-0.31499,-0.10648,-0.0876
418,0.04838,-0.53607,1.0614,-0.42642,-0.03744,-0.03066,0.14818,-0.66468,1.10008,-0.34133,-0.1145,-0.09427
419,0.05557,-0.54306,1.07269,-0.43091,-0.043,-0.03522,0.16009,-0.72461,1.22998,-0.41221,-0.12368,-0.10193
420,0.06127,-0.55112,1.08819,-0.43852,-0.0474,-0.03883,0.1722,-0.78552,1.37381,-0.49613,-0.13299,-0.10972
421,0.0654,-0.55836,1.10217,-0.44538,-0.0506,-0.04146,0.18238,-0.8255,1.48779,-0.57102,-0.14082,-0.1163
422,0.0679,-0.56268,1.10884,-0.44782,-0.05253,-0.04305,0.18775,-0.82815,1.53738,-0.61846,-0.14495,-0.11977
423,0.06881,-0.56489,1.11034,-0.44714,-0.05323,-0.04362,0.18883,-0.80578,1.54274,-0.64629,-0.14577,-0.12046
424,0.06825,-0.56743,1.11284,-0.44707,-0.0528,-0.04327,0.18828,-0.78161,1.54755,-0.67521,-0.14535,-0.12011
425,0.06623,-0.57039,1.11616,-0.44737,-0.05124,-0.04199,0.18611,-0.75677,1.55141,-0.70371,-0.14369,-0.1187
426,0.06273,-0.57385,1.12013,-0.44777,-0.04853,-0.03976,0.18229,-0.73255,1.55423,-0.73041,-0.14075,-0.11623
427,0.05767,-0.57649,1.12098,-0.44583,-0.04462,-0.03655,0.17543,-0.70045,1.53323,-0.74089,-0.13548,-0.11181
428,0.05096,-0.57564,1.11131,-0.43684,-0.03943,-0.03229,0.16331,-0.6422,1.44135,-0.70624,-0.12615,-0.104
429,0.04263,-0.57346,1.09617,-0.42369,-0.03299,-0.02701,0.14867,-0.57166,1.30823,-0.64253,-0.11488,-0.09459
430,0.0327,-0.57245,1.08169,-0.41002,-0.0253,-0.02072,0.1337,-0.50601,1.17334,-0.57225,-0.10334,-0.08499
431,0.02121,-0.57499,1.0744,-0.40005,-0.01642,-0.01344,0.11975,-0.46954,1.09088,-0.52539,-0.09258,-0.07607
432,0.00843,-0.5815,1.07645,-0.39549,-0.00652,-0.00534,0.10687,-0.47358,1.08803,-0.51778,-0.08264,-0.06785
433,-0.0054,-0.58823,1.07853,-0.39083,0.00418,0.00342,0.09308,-0.48034,1.09002,-0.51233,-0.07199,-0.05906
434,-0.01996,-0.59477,1.07973,-0.38558,0.01544,0.01264,0.07854,-0.48693,1.09111,-0.50622,-0.06076,-0.04981
435,-0.03494,-0.60101,1.07987,-0.37969,0.02703,0.02214,0.06356,-0.49327,1.09117,-0.49941,-0.04917,-0.0403
436,-0.05007,-0.60686,1.07887,-0.37315,0.03874,0.03173,0.04842,-0.49927,1.09012,-0.49194,-0.03747,-0.03069
437,-0.06505,-0.61226,1.07669,-0.366,0.05032,0.04124,0.03341,-0.50489,1.08796,-0.48387,-0.02585,-0.02117
438,-0.07964,-0.61717,1.07339,-0.35831,0.0616,0.0505,0.01878,-0.51009,1.08479,-0.4753,-0.01453,-0.0119
439,-0.09357,-0.62159,1.0691,-0.35019,0.07236,0.05937,0.00479,-0.51488,1.08072,-0.46637,-0.00371,-0.00304
440,-0.10662,-0.62553,1.06398,-0.34177,0.08244,0.06768,-0.00833,-0.51927,1.07596,-0.45723,0.00644,0.00527
441,-0.11857,-0.62904,1.05827,-0.33321,0.09167,0.07531,-0.02035,-0.52329,1.07074,-0.44807,0.01575,0.01289
442,-0.12923,-0.63218,1.05224,-0.32469,0.09989,0.08212,-0.03109,-0.527,1.06533,-0.43909,0.02405,0.01969
443,-0.13857,-0.63743,1.0516,-0.31942,0.10709,0.08811,-0.04036,-0.53062,1.06062,-0.43092,0.03122,0.02556
444,-0.14904,-0.67889,1.13455,-0.36165,0.11516,0.09482,-0.04817,-0.53649,1.06559,-0.43018,0.03727,0.03052
445,-0.16075,-0.74207,1.27365,-0.43847,0.12418,0.10235,-0.05461,-0.54446,1.07882,-0.43562,0.04224,0.0346
446,-0.17222,-0.79918,1.41257,-0.52123,0.133,0.10973,-0.05963,-0.55293,1.09454,-0.443,0.04613,0.03779
447,-0.18109,-0.83036,1.51138,-0.58964,0.13982,0.11545,-0.06315,-0.55998,1.10704,-0.44856,0.04885,0.04002
448,-0.18471,-0.82201,1.54016,-0.6271,0.14261,0.11779,-0.06514,-0.56364,1.11107,-0.44899,0.05039,0.04129
449,-0.1854,-0.79938,1.54526,-0.65489,0.14314,0.11824,-0.06571,-0.56625,1.11273,-0.44805,0.05083,0.04165
450,-0.18459,-0.77526,1.54966,-0.68334,0.14251,0.11771,-0.06491,-0.56918,1.11526,-0.44763,0.05021,0.04114
451,-0.18226,-0.75082,1.55307,-0.71097,0.14072,0.11621,-0.06275,-0.57252,1.11849,-0.44745,0.04854,0.03977
452,-0.17839,-0.7274,1.55545,-0.73643,0.13775,0.11371,-0.05921,-0.57634,1.12223,-0.44728,0.04581,0.03752
453,-0.17048,-0.68777,1.51362,-0.73353,0.13166,0.10861,-0.05418,-0.57812,1.11958,-0.4427,0.04192,0.03433
454,-0.15808,-0.62477,1.40629,-0.6882,0.12212,0.10062,-0.04763,-0.57681,1.10728,-0.43155,0.03685,0.03017
455,-0.14396,-0.55392,1.26799,-0.6197,0.11125,0.09156,-0.03959,-0.57488,1.09117,-0.41719,0.03063,0.02508
456,-0.13005,-0.49401,1.14161,-0.55228,0.10052,0.08265,-0.03006,-0.57483,1.07752,-0.40343,0.02325,0.01903
457,-0.1175,-0.47172,1.08599,-0.51819,0.09084,0.07462,-0.0191,-0.57896,1.07299,-0.39464,0.01478,0.01209
458,-0.1053,-0.47888,1.08839,-0.51276,0.08142,0.06684,-0.00686,-0.58594,1.07514,-0.38973,0.00531,0.00434
459,-0.092,-0.48594,1.09014,-0.5068,0.07115,0.05837,0.00646,-0.59285,1.07673,-0.38441,-0.00501,-0.0041
460,-0.07784,-0.49275,1.09102,-0.50028,0.06021,0.04936,0.02064,-0.59952,1.07755,-0.37865,-0.01597,-0.01308
461,-0.0629,-0.49928,1.0909,-0.49312,0.04866,0.03987,0.03558,-0.60589,1.07741,-0.37235,-0.02754,-0.02255
462,-0.04769,-0.50531,1.08965,-0.48543,0.0369,0.03022,0.05078,-0.61175,1.07618,-0.36559,-0.03929,-0.03219
463,-0.03239,-0.51082,1.08728,-0.47724,0.02506,0.02052,0.06605,-0.61705,1.07382,-0.35836,-0.0511,-0.04188
464,-0.01728,-0.51578,1.08381,-0.46862,0.01337,0.01095,0.08111,-0.62176,1.07034,-0.35072,-0.06274,-0.05145
465,-0.00265,-0.52019,1.07936,-0.4597,0.00205,0.00168,0.09568,-0.62587,1.06585,-0.34274,-0.074,-0.06072
466,0.01122,-0.52408,1.07414,-0.45062,-0.00868,-0.00711,0.10948,-0.6294,1.06049,-0.33455,-0.08466,-0.06952
467,0.02405,-0.52751,1.06839,-0.44155,-0.01861,-0.01524,0.12223,-0.63243,1.0545,-0.32627,-0.0945,-0.07766
468,0.03556,-0.53058,1.06242,-0.43268,-0.02752,-0.02253,0.13366,-0.63503,1.04817,-0.31805,-0.10331,-0.08497
469,0.04551,-0.53399,1.05887,-0.42591,-0.03522,-0.02884,0.14414,-0.64671,1.06295,-0.32187,-0.11139,-0.09168
470,0.05395,-0.54006,1.0662,-0.42737,-0.04174,-0.03419,0.15617,-0.69747,1.16869,-0.37775,-0.12066,-0.09941
471,0.06091,-0.54787,1.08018,-0.43374,-0.04713,-0.03861,0.16909,-0.7612,1.31259,-0.45896,-0.1306,-0.10772
472,0.06636,-0.5557,1.09506,-0.44096,-0.05134,-0.04207,0.18117,-0.81253,1.4436,-0.5397,-0.13989,-0.11551
473,0.07023,-0.56154,1.10512,-0.44531,-0.05433,-0.04453,0.18977,-0.83315,1.52464,-0.6009,-0.1465,-0.12108
474,0.07247,-0.56411,1.10695,-0.44466,-0.05606,-0.04595,0.19285,-0.81642,1.53868,-0.63197,-0.14886,-0.12307
475,0.0731,-0.56653,1.10863,-0.44393,-0.05655,-0.04635,0.19362,-0.7931,1.54361,-0.66029,-0.14946,-0.12357
476,0.07244,-0.56932,1.11115,-0.44364,-0.05604,-0.04593,0.19295,-0.76863,1.54773,-0.68882,-0.14894,-0.12313
477,0.07036,-0.57259,1.11439,-0.44354,-0.05443,-0.04461,0.19072,-0.74425,1.55086,-0.71611,-0.14722,-0.12168
478,0.06683,-0.57619,1.11759,-0.44302,-0.0517,-0.04237,0.18664,-0.71964,1.54923,-0.73871,-0.14409,-0.11905
479,0.06172,-0.57675,1.11161,-0.43632,-0.04775,-0.03912,0.17734,-0.67158,1.48531,-0.72201,-0.13694,-0.11304
480,0.05503,-0.57495,1.09768,-0.424,-0.04258,-0.03488,0.1642,-0.60461,1.3655,-0.66806,-0.12684,-0.10457
481,0.04681,-0.5733,1.08177,-0.40953,-0.03622,-0.02966,0.14993,-0.53456,1.22568,-0.59718,-0.11585,-0.09539
482,0.03707,-0.57428,1.07031,-0.39689,-0.02869,-0.02349,0.13629,-0.48229,1.11299,-0.53579,-0.10534,-0.08665
483,0.02594,-0.57988,1.06937,-0.39017,-0.02008,-0.01643,0.12429,-0.47371,1.08454,-0.51514,-0.09609,-0.07898
484,0.01356,-0.58705,1.07188,-0.3854,-0.0105,-0.00859,0.11196,-0.48103,1.08727,-0.50984,-0.08657,-0.0711
485,0.00015,-0.59413,1.07383,-0.38023,-0.00012,-9e-05,0.09858,-0.48824,1.08935,-0.50402,-0.07624,-0.06257
486,-0.01404,-0.60096,1.07501,-0.37463,0.01086,0.00889,0.08441,-0.4952,1.09059,-0.49766,-0.0653,-0.05355
487,-0.02874,-0.60741,1.07524,-0.36856,0.02223,0.0182,0.06973,-0.50179,1.09083,-0.49075,-0.05395,-0.04422
488,-0.04366,-0.61337,1.07441,-0.36203,0.03378,0.02766,0.0548,-0.50792,1.09,-0.48333,-0.0424,-0.03474
489,-0.05853,-0.61878,1.07251,-0.35509,0.04528,0.0371,0.03991,-0.51353,1.08809,-0.47547,-0.03088,-0.02529
490,-0.07392,-0.62382,1.06938,-0.34743,0.05718,0.04687,0.02448,-0.51881,1.08497,-0.46683,-0.01895,-0.01551
491,-0.08813,-0.62808,1.06536,-0.33971,0.06816,0.0559,0.01022,-0.52337,1.08104,-0.45821,-0.00792,-0.00648
492,-0.10148,-0.63178,1.06052,-0.3318,0.07847,0.0644,-0.00319,-0.52742,1.07638,-0.44948,0.00246,0.00201
493,-0.1137,-0.63497,1.05511,-0.32384,0.08791,0.0722,-0.01548,-0.53102,1.07125,-0.4408,0.01198,0.0098
494,-0.12454,-0.63777,1.0494,-0.31597,0.09627,0.07912,-0.02639,-0.53428,1.06595,-0.43236,0.02042,0.01671
495,-0.13504,-0.66031,1.08903,-0.33373,0.10437,0.08584,-0.03573,-0.53858,1.06575,-0.428,0.02764,0.02263
496,-0.14696,-0.71799,1.21223,-0.40008,0.11356,0.09348,-0.04356,-0.54548,1.07602,-0.43152,0.0337,0.02759
497,-0.15923,-0.78046,1.35696,-0.48327,0.12301,0.10137,-0.04991,-0.55362,1.09118,-0.43869,0.03861,0.03162
498,-0.17003,-0.82473,1.47727,-0.56019,0.13132,0.10832,-0.05475,-0.5612,1.10553,-0.44559,0.04236,0.03469
499,-0.1767,-0.8338,1.53802,-0.61245,0.13645,0.11262,-0.05802,-0.56614,1.11336,-0.44857,0.04488,0.03676
