YechanE/asmr2025-Humanoid-Lowlevel/scripts/motor/20251212_joints_timeseries_1_zero.csv
Frame_Index,leg_left_ankle_roll_joint,leg_left_ankle_pitch_joint,leg_left_knee_pitch_joint,leg_left_hip_pitch_joint,leg_left_hip_yaw_joint,leg_left_hip_roll_joint,leg_right_ankle_roll_joint,leg_right_ankle_pitch_joint,leg_right_knee_pitch_joint,leg_right_hip_pitch_joint,leg_right_hip_yaw_joint,leg_right_hip_roll_joint
0,-0.00351307692307692,-0.000557692307692332,0.00114923076923076,-0.00058230769230769,0.00271230769230769,0.00222153846153846,-0.00351307692307692,0.00050461538461542,-0.00102692307692303,0.000526923076923091,0.00272,0.00222538461538462
1,-0.00404857142857143,-0.000639285714285739,0.00131571428571428,-0.000667142857142854,0.00312714285714286,0.00256071428571429,-0.00404857142857143,0.000585714285714324,-0.0011928571428571,0.000612142857142871,0.00313428571428571,0.00256428571428571
2,-0.004624,-0.000725333333333356,0.00149133333333333,-0.000757333333333332,0.00357266666666667,0.00292533333333333,-0.004624,0.000674666666666705,-0.00137399999999996,0.000704666666666679,0.00357933333333333,0.00292866666666667
3,-0.00524125,-0.000816250000000025,0.00167687499999999,-0.000852499999999999,0.00405,0.00331625,-0.00524125,0.000771250000000036,-0.00157187499999996,0.000805000000000014,0.004056875,0.003319375
4,-0.00590235294117647,-0.000911764705882377,0.00187176470588234,-0.000952941176470588,0.00456176470588235,0.00373529411764706,-0.00590235294117647,0.000876470588235328,-0.00178705882352937,0.000914117647058837,0.00456823529411765,0.00373823529411765
5,-0.00661,-0.00101222222222225,0.00207611111111111,-0.00105833333333333,0.00510944444444444,0.00418333333333333,-0.00660944444444445,0.000991111111111146,-0.00202166666666663,0.00103277777777779,0.00511555555555556,0.00418611111111111
6,-0.00736736842105263,-0.00111736842105266,0.00228947368421053,-0.00116894736842105,0.00569526315789474,0.00466263157894737,-0.00736578947368421,0.00111631578947372,-0.00227789473684206,0.00116157894736843,0.00570105263157895,0.00466526315789474
7,-0.008177,-0.00122700000000003,0.002512,-0.001285,0.006322,0.0051755,-0.008175,0.00125300000000004,-0.00255799999999996,0.00130200000000001,0.006327,0.0051775
8,-0.00904285714285714,-0.00134095238095241,0.00274333333333334,-0.00140619047619048,0.00699190476190476,0.00572380952380952,-0.00904,0.00140238095238099,-0.00286428571428567,0.00145523809523811,0.00699619047619048,0.0057252380952381
9,-0.00996909090909091,-0.00145909090909094,0.00298272727272727,-0.00153227272727273,0.00770863636363636,0.00631045454545455,-0.009965,0.00156590909090913,-0.00319999999999996,0.00162227272727274,0.00771181818181818,0.00631090909090909
10,-0.0109595652173913,-0.00158130434782612,0.0032295652173913,-0.00166347826086957,0.00847521739130435,0.00693782608695652,-0.0109539130434783,0.00174521739130438,-0.00356826086956518,0.00180521739130436,0.00847695652173913,0.00693739130434783
11,-0.0120275,-0.00170750000000003,0.00348458333333334,-0.0018,0.00930166666666667,0.00761416666666667,-0.0120195833333333,0.00194375000000004,-0.00397666666666663,0.00200708333333334,0.00930166666666667,0.0076125
12,-0.01317,-0.00183680000000003,0.00374480000000001,-0.0019408,0.0101856,0.008338,-0.0131596,0.00216240000000004,-0.00442679999999996,0.00222880000000001,0.010184,0.0083348
13,-0.0149688,-0.00204680000000003,0.00416880000000001,-0.0021684,0.0115772,0.0094776,-0.0149548,0.00249960000000004,-0.00512079999999996,0.00257160000000001,0.0115732,0.009472
14,-0.0169524,-0.00226800000000003,0.00461320000000001,-0.0024096,0.0131124,0.0107344,-0.016934,0.00288280000000004,-0.00590999999999996,0.00296000000000001,0.0131048,0.0107256
15,-0.019134,-0.00249800000000004,0.00507440000000001,-0.0026632,0.0148004,0.0121168,-0.01911,0.00331840000000004,-0.00680679999999996,0.00339960000000001,0.0147884,0.0121044
16,-0.0215288,-0.00273400000000004,0.00554600000000001,-0.0029268,0.0166532,0.0136344,-0.0214976,0.00381320000000004,-0.00782759999999996,0.00389760000000001,0.016636,0.0136176
17,-0.024154,-0.00297320000000004,0.00602120000000001,-0.003198,0.018684,0.015298,-0.0241136,0.00437640000000004,-0.00898999999999996,0.00446200000000001,0.01866,0.0152756
18,-0.0270272,-0.00321120000000004,0.00649120000000001,-0.003474,0.0209064,0.0171196,-0.0269756,0.00501760000000004,-0.0103152,0.00510280000000001,0.0208744,0.01709
19,-0.030154,-0.00344360000000004,0.00694600000000001,-0.0037496,0.0233252,0.019102,-0.0300892,0.00574360000000004,-0.0118184,0.00582640000000001,0.0232828,0.019064
20,-0.0335152,-0.00369000000000004,0.00742720000000001,-0.0040488,0.0259252,0.0212336,-0.0334336,0.00655160000000003,-0.0134908,0.00662680000000001,0.02587,0.0211852
21,-0.0370924,-0.00446520000000005,0.00902840000000001,-0.0049492,0.0286924,0.0235028,-0.0369736,0.00738920000000003,-0.0151824,0.00740800000000001,0.0286084,0.0234308
22,-0.0408732,-0.00628560000000004,0.012848,-0.0070336,0.0316164,0.0259016,-0.040674,0.00819560000000004,-0.01673,0.00806720000000001,0.0314704,0.0257784
23,-0.04484,-0.00941800000000004,0.0194544,-0.010604,0.034684,0.0284188,-0.0444992,0.00892760000000004,-0.0180236,0.00853840000000001,0.0344288,0.0282056
24,-0.0489664,-0.0139156,0.0289632,-0.0157228,0.0378748,0.0310384,-0.048412,0.00955800000000004,-0.0190044,0.00879200000000001,0.0374544,0.0306888
25,-0.0532224,-0.0196588,0.0411244,-0.0222576,0.0411656,0.0337404,-0.0523796,0.01008,-0.0196676,0.00883120000000001,0.0405224,0.0332068
26,-0.0575624,-0.0263844,0.05538,-0.0299124,0.0445208,0.0364964,-0.0563664,0.0105052,-0.020058,0.00869040000000001,0.0436052,0.035738
27,-0.0619272,-0.0336988,0.0708928,-0.0382404,0.0478952,0.0392688,-0.060336,0.0108644,-0.02027,0.00843440000000001,0.0466748,0.038258
28,-0.0662464,-0.0411188,0.0866312,-0.04669,0.0512344,0.0420124,-0.0642504,0.011204,-0.0204328,0.00814880000000001,0.0497016,0.0407436
29,-0.070474,-0.0485292,0.1023504,-0.0551284,0.0545024,0.0446976,-0.0680744,0.0115256,-0.0205588,0.00784520000000001,0.0526584,0.0431716
30,-0.0745712,-0.0559312,0.1180528,-0.063556,0.05767,0.0473004,-0.0717728,0.0118164,-0.0206216,0.00751120000000001,0.0555176,0.0455196
31,-0.0784988,-0.063326,0.1337416,-0.071972,0.0607064,0.0497956,-0.0753084,0.012064,-0.0205944,0.00713520000000001,0.0582512,0.0477644
32,-0.082216,-0.0707144,0.1494184,-0.080376,0.06358,0.0521568,-0.0786436,0.0122552,-0.0204503999999999,0.00670440000000001,0.06083,0.049882
33,-0.08568,-0.0780972,0.1650856,-0.0887676,0.0662584,0.0543572,-0.0817388,0.0123772,-0.0201627999999999,0.00620600000000001,0.0632236,0.0518472
34,-0.088846,-0.0854744,0.180744,-0.0971456,0.068706,0.0563676,-0.0845524,0.0124168,-0.0197039999999999,0.00562800000000001,0.0653992,0.0536336
35,-0.0916596,-0.0927332,0.1961524,-0.1053796,0.0708812,0.0581544,-0.0870396,0.0123748,-0.0190835999999999,0.00497960000000001,0.0673228,0.0552124
36,-0.0940212,-0.0993476,0.21019,-0.112872,0.0727072,0.0596536,-0.0891308,0.012294,-0.0184279999999999,0.00434760000000001,0.06894,0.0565396
37,-0.0958668,-0.1048872,0.2219416,-0.1191356,0.0741344,0.0608248,-0.0907764,0.0122076,-0.0178379999999999,0.00380040000000001,0.0702128,0.057584
38,-0.0971372,-0.1090716,0.2308136,-0.1238572,0.0751168,0.0616308,-0.0919184,0.0121252,-0.0173551999999999,0.00337080000000001,0.071096,0.0583088
39,-0.0977816,-0.1117872,0.2365692,-0.1269132,0.0756148,0.0620396,-0.0924948,0.012034,-0.0169639999999999,0.00305640000000001,0.0715416,0.0586748
40,-0.0977512,-0.1131256,0.2394052,-0.1284104,0.0755912,0.06202,-0.0924396,0.0119012,-0.0165911999999999,0.00281720000000001,0.0714988,0.05864
41,-0.0969992,-0.1134324,0.2400592,-0.1287412,0.0750096,0.0615432,-0.0916872,0.011678,-0.0161083999999999,0.00257360000000001,0.0709168,0.0581628
42,-0.0954856,-0.1133444,0.2398828,-0.1286224,0.0738388,0.0605836,-0.0901816,0.011302,-0.0153371999999999,0.00220880000000001,0.069752,0.057208
43,-0.09317,-0.113192,0.2395784,-0.1284272,0.072048,0.0591156,-0.0878772,0.0107444,-0.0141923999999999,0.00166440000000001,0.0679692,0.0557468
44,-0.0900328,-0.1129624,0.2391188,-0.1281432,0.0696212,0.0571264,-0.0847532,0.010012,-0.0126879999999999,0.000945600000000011,0.0655528,0.0537664
45,-0.086092,-0.11262,0.2384268,-0.1277324,0.0665728,0.0546276,-0.0808284,0.00912320000000005,-0.0108659999999999,7.3200000000011e-05,0.0625164,0.0512776
46,-0.0813768,-0.1116364,0.2363804,-0.126604,0.0629252,0.0516376,-0.076148,0.00814720000000005,-0.00891159999999993,-0.000841599999999989,0.0588956,0.0483096
47,-0.0759236,-0.109486,0.2318604,-0.1241668,0.0587072,0.0481792,-0.0707708,0.00715960000000005,-0.00702079999999993,-0.00168079999999999,0.054736,0.0448992
48,-0.0697848,-0.1058984,0.2242892,-0.120116,0.0539592,0.0442852,-0.0647664,0.00621760000000005,-0.00533359999999993,-0.00236479999999999,0.0500916,0.0410908
49,-0.0630292,-0.1008376,0.213602,-0.1144228,0.0487344,0.0399992,-0.0582096,0.00517200000000005,-0.00353239999999993,-0.00306479999999999,0.0450204,0.0369316
50,-0.0557344,-0.0944892000000001,0.2002384,-0.1073428,0.0430928,0.0353704,-0.0511596,0.00336720000000005,-0.000207999999999933,-0.00453639999999999,0.039568,0.0324592
51,-0.0479872,-0.0871712000000001,0.1849012,-0.0992628,0.037102,0.0304532,-0.0436712,0.000369200000000047,0.00558960000000007,-0.00729799999999999,0.0337768,0.0277076
52,-0.0398852,-0.0793136000000001,0.168514,-0.0906784,0.0308372,0.02531,-0.035802,-0.00400799999999995,0.0142932000000001,-0.011598,0.0276908,0.0227144
53,-0.0315356,-0.0714152000000001,0.152136,-0.0821516,0.0243812,0.0200092,-0.0276172,-0.00974759999999995,0.0259088000000001,-0.0174608,0.0213608,0.01752
54,-0.02302,-0.0635860000000001,0.1359812,-0.0737888,0.0177972,0.0146028,-0.01919,-0.0166128,0.0399492000000001,-0.0246364,0.0148436,0.0121716
55,-0.0144116,-0.0557968,0.1199604,-0.0655284,0.0111412,0.0091368,-0.010608,-0.0241992,0.0555604000000001,-0.0326732,0.0082068,0.0067252
56,-0.0057832,-0.0479964000000001,0.1039284,-0.0572772,0.0044704,0.003658,-0.001976,-0.0319616,0.0715820000000001,-0.0409548,0.0015308,0.0012472
57,0.0027932,-0.0401712,0.0878404,-0.0490032,-0.0021604,-0.001788,0.0066204,-0.0396675999999999,0.0875208000000001,-0.0492184,-0.005118,-0.0042076
58,0.0112476,-0.0323344,0.0717224,-0.0407192,-0.0086968,-0.0071564,0.01511,-0.0473087999999999,0.1033604,-0.0574548,-0.0116852,-0.0095944
59,0.0195088,-0.0245004,0.0556028,-0.0324396,-0.0150836,-0.0124016,0.0234212,-0.0548771999999999,0.119084,-0.0656548,-0.0181144,-0.0148668
60,0.0274964,-0.0167956,0.039752,-0.0243072,-0.0212588,-0.0174732,0.0314788,-0.0623796,0.1347128,-0.0738312,-0.0243488,-0.0199776
61,0.0350936,-0.00976040000000004,0.0253184,-0.0169312,-0.0271324,-0.022296,0.0391924,-0.0698663999999999,0.1503892,-0.0820752,-0.0303176,-0.0248688
62,0.0422044,-0.00383960000000004,0.0132476,-0.0108116,-0.03263,-0.0268096,0.0464768,-0.0773771999999999,0.1662232,-0.0904568,-0.0359552,-0.0294864
63,0.0487436,0.000692399999999962,0.00410559999999999,-0.0062392,-0.0376856,-0.03096,0.0532336,-0.0847576,0.1819024,-0.0988148,-0.0411852,-0.033768
64,0.054594,0.00375799999999996,-0.00198440000000001,-0.0032548,-0.0422084,-0.0346728,0.0593,-0.0914712,0.1962836,-0.1065376,-0.0458816,-0.0376104
65,0.0597268,0.00549519999999997,-0.00534760000000001,-0.00167,-0.0461764,-0.03793,0.0646184,-0.0970852,0.2084344,-0.1131256,-0.0500004,-0.0409776
66,0.0640716,0.00625639999999997,-0.00675840000000001,-0.0010612,-0.0495348,-0.040688,0.0690992,-0.1013052,0.2176996,-0.1182168,-0.0534716,-0.0438124
67,0.067564,0.00666399999999996,-0.00754760000000001,-0.000715600000000003,-0.0522336,-0.0429052,0.072672,-0.1039968,0.2237428,-0.1216076,-0.0562408,-0.0460708
68,0.0701364,0.00701239999999996,-0.00833760000000001,-0.000302800000000001,-0.0542208,-0.0445396,0.075282,-0.1052704,0.2267716,-0.1233932,-0.0582652,-0.0477192
69,0.0717316,0.00723679999999996,-0.00896560000000001,8.15999999999994e-05,-0.0554516,-0.0455548,0.0768912,-0.10553,0.2276408,-0.124022,-0.0595152,-0.0487332
70,0.0723156,0.00726359999999997,-0.00922920000000001,0.000311199999999998,-0.0559,-0.0459292,0.077482,-0.10545,0.2277788,-0.1242472,-0.0599768,-0.0491016
71,0.0718764,0.00706639999999997,-0.00905480000000001,0.000339599999999998,-0.0555564,-0.0456556,0.077046,-0.1052816,0.2277164,-0.124348,-0.059644,-0.0488196
72,0.0704256,0.00664759999999997,-0.00844880000000001,0.000169999999999997,-0.05443,-0.0447412,0.075596,-0.1050252,0.227454,-0.1243244,-0.0585264,-0.0478952
73,0.0680004,0.00601959999999997,-0.00743520000000001,-0.000186800000000005,-0.0525496,-0.0432092,0.0731684,-0.10468,0.2269904,-0.1241772,-0.0566524,-0.0463516
74,0.0646608,0.00521639999999997,-0.0061012,-0.000680800000000004,-0.049962,-0.0410976,0.0698196,-0.1040576,0.2259236,-0.1236952,-0.054066,-0.044224
75,0.0604808,0.00432159999999997,-0.0046708,-0.0011736,-0.046724,-0.0384528,0.0656032,-0.1024864,0.2228208,-0.1221192,-0.0508084,-0.0415464
76,0.0555448,0.00340559999999997,-0.0033216,-0.0015604,-0.0429016,-0.035328,0.060582,-0.09954,0.2167696,-0.1189636,-0.0469284,-0.038358
77,0.0499408,0.00224759999999997,-0.0015876,-0.002088,-0.0385632,-0.0317792,0.0548328,-0.0950888,0.2075064,-0.1140956,-0.0424848,-0.0347076
78,0.0437428,0.000210399999999966,0.0019016,-0.0034928,-0.0337656,-0.0278528,0.048438,-0.08926,0.1953428,-0.1077008,-0.037542,-0.0306472
79,0.0370204,-0.00308760000000003,0.00798919999999999,-0.0062384,-0.0285632,-0.0235928,0.0414888,-0.0823432,0.1809152,-0.1001268,-0.0321704,-0.0262344
80,0.029844,-0.00778840000000003,0.0170212,-0.0105304,-0.0230104,-0.0190432,0.0340884,-0.0747628,0.1651304,-0.0918576,-0.02645,-0.0215352
81,0.0222904,-0.013846,0.028952,-0.0163712,-0.0171668,-0.0142524,0.0263548,-0.0670656,0.1491436,-0.0835052,-0.0204716,-0.0166248
82,0.014444,-0.0210052,0.0432708,-0.023506,-0.0110976,-0.0092744,0.0183868,-0.0594628,0.1333868,-0.0752916,-0.0143112,-0.011566
83,0.0064,-0.028832,0.05907,-0.0314608,-0.0048768,-0.0041696,0.010266,-0.0519208,0.1177584,-0.0671504,-0.00803160000000001,-0.0064104
84,-0.0017336,-0.0367724,0.0751824,-0.0396208,0.0014124,0.000993599999999999,0.00207359999999999,-0.0443872,0.1021124,-0.058988,-0.00169680000000001,-0.0012108
85,-0.0098576,-0.0446564,0.0912516,-0.0477988,0.0076928,0.0061516,-0.00609960000000001,-0.0368564,0.0864288000000001,-0.05079,0.0046248,0.0039764
86,-0.0179044,-0.0524688,0.1072512,-0.0559844,0.0139128,0.0112616,-0.014186,-0.0293356,0.0707224000000001,-0.042566,0.01088,0.0091072
87,-0.0257952,-0.0601964,0.123156,-0.0641656,0.0200116,0.0162736,-0.0221064,-0.0218348,0.0550180000000001,-0.03433,0.0170076,0.0141308
88,-0.0334484,-0.0678472,0.1389976,-0.0723648,0.025926,0.0211352,-0.0297692,-0.0145352,0.0397060000000001,-0.0262932,0.0229368,0.0189892
89,-0.04074,-0.0754596,0.154894,-0.0806632,0.03156,0.0257676,-0.0370192,-0.00797959999999995,0.0259528000000001,-0.019082,0.0285476,0.023584
90,-0.0476292,-0.0830836,0.1709768,-0.08914,0.0368824,0.0301452,-0.0438084,-0.00258799999999995,0.0146572000000001,-0.013174,0.0338036,0.0278852
91,-0.0540152,-0.0904888,0.1867692,-0.0975472,0.0418148,0.034204,-0.0500516,0.00140320000000004,0.00631040000000006,-0.00882159999999999,0.038638,0.031838
92,-0.0597824,-0.0971352,0.201118,-0.1052704,0.0462684,0.03787,-0.0556692,0.00396240000000004,0.000946000000000065,-0.0060252,0.0429896,0.0353924
93,-0.0648256,-0.1026072,0.2131244,-0.1118244,0.0501616,0.0410772,-0.0605844,0.00524640000000004,-0.00179639999999994,-0.00457959999999999,0.0467988,0.0385008
94,-0.069054,-0.1066272,0.2221628,-0.1168608,0.0534244,0.043768,-0.064724,0.00565160000000004,-0.00277599999999994,-0.00401999999999999,0.0500084,0.0411164
95,-0.072394,-0.1090832,0.2279404,-0.1201976,0.0559996,0.0458956,-0.06802,0.00582280000000004,-0.00336639999999994,-0.00361479999999999,0.0525652,0.0431964
96,-0.0747856,-0.1101248,0.2307476,-0.1219752,0.0578408,0.047422,-0.0703988,0.00596080000000004,-0.00398599999999995,-0.00314439999999999,0.0544128,0.0446948
97,-0.0761844,-0.110194,0.2315148,-0.1226808,0.058914,0.0483196,-0.0718004,0.00600280000000004,-0.00447359999999994,-0.00270599999999999,0.0555048,0.0455736
98,-0.0765668,-0.1099656,0.2316636,-0.12306,0.0592004,0.0485732,-0.0721884,0.00588000000000004,-0.00463719999999995,-0.00242159999999999,0.055812,0.0458104
99,-0.0759228,-0.1096076,0.2315484,-0.1232992,0.0586932,0.048176,-0.0715512,0.00557440000000004,-0.00442879999999995,-0.00232119999999999,0.0553268,0.0453972
100,-0.0742668,-0.1091208,0.231168,-0.1233972,0.0574028,0.0471376,-0.0699036,0.00509040000000004,-0.00385719999999995,-0.00239999999999999,0.0540596,0.044344
101,-0.0716404,-0.1085052,0.2305224,-0.1233544,0.055362,0.045484,-0.0672864,0.00443840000000004,-0.00294679999999995,-0.00264639999999999,0.0520424,0.042676
102,-0.068104,-0.1074912,0.2290328,-0.1228644,0.0526176,0.0432532,-0.0637652,0.00365920000000004,-0.00180399999999995,-0.00299599999999999,0.049326,0.0404348
103,-0.063718,-0.1054176,0.225284,-0.121174,0.0492164,0.0404832,-0.059418,0.00283160000000004,-0.000646399999999949,-0.00331199999999999,0.0459708,0.03767
104,-0.0585512,-0.1019052,0.2184584,-0.1178452,0.0452116,0.0372176,-0.0543324,0.00201960000000004,0.000363600000000055,-0.00349759999999999,0.0420444,0.034436
105,-0.0526824,-0.0968736,0.2083992,-0.1128028,0.0406644,0.0335056,-0.0485924,0.00089480000000004,0.00191960000000006,-0.00392079999999999,0.037612,0.0307872
106,-0.0461952,-0.0904836,0.1954808,-0.1062596,0.0356396,0.0293992,-0.042266,-0.00115999999999996,0.00535480000000005,-0.00529759999999999,0.032726,0.026766
107,-0.0391812,-0.0830524,0.1803868,-0.0985832,0.0302088,0.0249572,-0.0354204,-0.00449399999999995,0.0114408000000001,-0.00805359999999999,0.027438,0.0224156
108,-0.0317424,-0.0750296,0.1640664,-0.0902748,0.0244504,0.0202436,-0.0281248,-0.00922239999999996,0.0204684,-0.0123648,0.0218012,0.0177796
109,-0.0239912,-0.0669644,0.14767,-0.0819368,0.018452,0.01533,-0.0204548,-0.0152744,0.0323384,-0.0182048,0.0158752,0.0129064
110,-0.0160312,-0.0590012,0.1314792,-0.0737084,0.0122936,0.0102824,-0.012508,-0.0223636,0.0464672,-0.0252768,0.009734,0.0078576
111,-0.007934,-0.0511056,0.1153896,-0.0655188,0.00603,0.005146,-0.0043752,-0.0300408,0.0619128,-0.0330864,0.003448,0.0026916
112,0.000219200000000002,-0.0432288,0.0992616,-0.0572772,-0.000276000000000003,-2.75999999999976e-05,0.0038312,-0.0377699999999999,0.0775444,-0.0410364,-0.002896,-0.00252
113,0.00835,-0.0353712,0.08309,-0.0489784,-0.0065636,-0.0051884,0.0120268,-0.0454392,0.0931292,-0.0490048,-0.0092324,-0.0077232
114,0.0163808,-0.0275448,0.066902,-0.0406376,-0.0127728,-0.0102864,0.0201336,-0.0530364,0.108646,-0.056982,-0.0155012,-0.0128684
115,0.024232,-0.0197616,0.0507268,-0.0322716,-0.0188424,-0.015272,0.0280724,-0.0605508,0.1240752,-0.064958,-0.0216416,-0.0179056
116,0.0318096,-0.0122748,0.0351112,-0.0241744,-0.0246996,-0.0200844,0.0357608,-0.0680012,0.1394744,-0.0729712,-0.02759,-0.022782
117,0.0390064,-0.00562680000000003,0.021222,-0.0169712,-0.0302616,-0.0246556,0.0431136,-0.0754408,0.1549912,-0.0811156,-0.03328,-0.0274428
118,0.045728,-0.00021400000000003,0.00991359999999998,-0.0111188,-0.0354552,-0.0289256,0.0500424,-0.0829003999999999,0.1707184,-0.0894504,-0.038644,-0.0318332
119,0.0518884,0.00375959999999997,0.00160719999999998,-0.0068332,-0.0402144,-0.0328396,0.0564364,-0.090068,0.1860016,-0.0976316,-0.0435956,-0.035882
120,0.0574064,0.00628679999999997,-0.00370800000000001,-0.0040932,-0.0444764,-0.0363464,0.0621752,-0.0964196,0.1997208,-0.1050612,-0.0480412,-0.0395132
121,0.062204,0.00755479999999997,-0.00644880000000001,-0.0026672,-0.0481808,-0.0393964,0.067152,-0.1015616,0.211022,-0.1112756,-0.0518984,-0.0426596
122,0.0662064,0.00799679999999997,-0.00754360000000001,-0.0020568,-0.05127,-0.0419424,0.0712776,-0.1052424,0.219332,-0.1159524,-0.0550984,-0.0452648
123,0.069344,0.00825399999999997,-0.00835080000000001,-0.0015424,-0.0536896,-0.04394,0.0744832,-0.1073844,0.2244308,-0.1189476,-0.0575868,-0.047286
124,0.071546,0.00844119999999996,-0.00910280000000001,-0.001004,-0.055386,-0.0453444,0.0767152,-0.1081836,0.2267152,-0.12046,-0.0593228,-0.0486892
125,0.0727592,0.00849119999999996,-0.00962600000000001,-0.000545600000000002,-0.0563172,-0.0461224,0.0779404,-0.1081288,0.2272116,-0.1210264,-0.0602796,-0.0494544
126,0.0729552,0.00833719999999996,-0.00973480000000001,-0.000285600000000001,-0.0564612,-0.046256,0.0781432,-0.1078744,0.2272996,-0.1213716,-0.0604452,-0.049572
127,0.0721288,0.00796839999999996,-0.00940040000000001,-0.000240800000000001,-0.055814,-0.0457416,0.0773204,-0.1075228,0.2271936,-0.1216072,-0.0598172,-0.0490396
128,0.0703004,0.00739119999999996,-0.00863680000000001,-0.000404800000000003,-0.0543916,-0.0445924,0.0754924,-0.1070736,0.2268912,-0.121732,-0.0584116,-0.0478708
129,0.0675156,0.00661919999999995,-0.00747400000000001,-0.000763200000000002,-0.0522288,-0.0428372,0.0727052,-0.1065264,0.2263896,-0.1217452,-0.056264,-0.046094
130,0.0638412,0.00570399999999995,-0.00605080000000001,-0.0012308,-0.0493776,-0.0405184,0.0690172,-0.1055096,0.224894,-0.1212256,-0.0534188,-0.0437464
131,0.059356,0.00472719999999995,-0.00458880000000001,-0.0016712,-0.0458992,-0.0376848,0.0644844,-0.1033856,0.2210376,-0.119446,-0.0499204,-0.0408628
132,0.0541488,0.00374999999999996,-0.00324080000000001,-0.001994,-0.0418632,-0.0343932,0.0591748,-0.0998131999999999,0.214084,-0.116012,-0.0458212,-0.0374868
133,0.0483036,0.00233999999999996,-0.00108760000000001,-0.0026884,-0.037334,-0.0306956,0.0531676,-0.0947511999999999,0.2039664,-0.1108988,-0.041182,-0.033668
134,0.0418904,-7.96000000000419e-05,0.0031168,-0.004426,-0.0323668,-0.0266368,0.0465456,-0.0883811999999999,0.1910996,-0.1043404,-0.0360672,-0.0294592
135,0.0349776,-0.00381760000000004,0.0100628,-0.0075904,-0.027014,-0.0222596,0.0394024,-0.0810371999999999,0.1762,-0.0967208,-0.0305492,-0.0249196
136,0.0276372,-0.00895880000000004,0.0199748,-0.0123232,-0.0213312,-0.0176092,0.0318456,-0.0731844,0.1602492,-0.0885576,-0.0247104,-0.020118
137,0.0199472,-0.0154032,0.0326912,-0.0185644,-0.0153788,-0.0127352,0.0239928,-0.0653516,0.144352,-0.0804304,-0.0186416,-0.0151288
138,0.011994,-0.0228368,0.0475664,-0.0259824,-0.0092244,-0.0076924,0.0159332,-0.0576223999999999,0.12866,-0.0724088,-0.0124124,-0.0100092
139,0.0038772,-0.030784,0.0636004,-0.0340532,-0.0029444,-0.0025444,0.007748,-0.0499576,0.113056,-0.0644156,-0.0060848,-0.0048108
140,-0.0042968,-0.038738,0.079724,-0.0422124,0.0033788,0.0026416,-0.000481999999999996,-0.0423091999999999,0.097406,-0.0563648,0.000278,0.000414400000000001
141,-0.0124472,-0.0466284,0.0957936,-0.0503864,0.0096824,0.0078136,-0.008678,-0.0346816,0.0817148,-0.048258,0.0066164,0.0056168
142,-0.0204956,-0.0544412000000001,0.1117836,-0.0585632,0.015906,0.0129224,-0.0167624,-0.0270843999999999,0.0660056000000001,-0.0401088,0.0128692,0.0107464
143,-0.0283628,-0.0621636000000001,0.1276696,-0.0667316,0.0219884,0.0179172,-0.0246556,-0.0195279999999999,0.0503028000000001,-0.0319328,0.0189756,0.0157528
144,-0.035966,-0.0698232,0.143532,-0.0749436,0.0278656,0.0227452,-0.0322556,-0.012344,0.0353224000000001,-0.0241144,0.0248568,0.0205712
145,-0.0432184,-0.0774684,0.159508,-0.0832884,0.0334708,0.0273512,-0.0394524,-0.00605559999999995,0.0221904000000001,-0.017258,0.0304272,0.0251316
146,-0.0500316,-0.0851172000000001,0.1756596,-0.0918096,0.0387356,0.0316792,-0.0461512,-0.00103439999999995,0.0117072,-0.0117928,0.0356136,0.029374
147,-0.056294,-0.0923776,0.1911608,-0.1000708,0.0435736,0.035658,-0.0522652,0.00255000000000005,0.00421600000000005,-0.00789039999999999,0.0403492,0.033244
148,-0.0618912,-0.0987416000000001,0.2049252,-0.107492,0.047896,0.0392152,-0.0577156,0.00471800000000005,-0.000352399999999955,-0.00549999999999999,0.044572,0.0366916
149,-0.0667208,-0.1038324,0.21613,-0.113626,0.0516248,0.042286,-0.0624264,0.00569200000000005,-0.00248879999999996,-0.00435159999999999,0.0482236,0.0396688
150,-0.070738,-0.1074164,0.2242404,-0.1181716,0.0547248,0.044842,-0.0663656,0.00595880000000005,-0.00323159999999997,-0.00389239999999999,0.0512784,0.0421564
151,-0.0738812,-0.1094476,0.2291024,-0.1210196,0.057148,0.0468444,-0.0694728,0.00613800000000005,-0.00389199999999996,-0.00342719999999999,0.05369,0.0441164
152,-0.076104,-0.1101644,0.2312068,-0.1224208,0.0588588,0.0482636,-0.0716876,0.00627720000000005,-0.00455879999999996,-0.00291319999999999,0.0554108,0.0455104
153,-0.077374,-0.1100988,0.2316724,-0.1229608,0.0598324,0.0490792,-0.0729608,0.00630760000000005,-0.00505079999999996,-0.00245999999999999,0.0564036,0.046308
154,-0.077668,-0.1098636,0.2317912,-0.1233168,0.0600508,0.049276,-0.07326,0.00616440000000006,-0.00518959999999995,-0.00217999999999999,0.0566428,0.0464884
155,-0.0769716,-0.1095116,0.2316732,-0.123546,0.0595032,0.048846,-0.0725712,0.00583760000000006,-0.00495159999999995,-0.00208599999999999,0.0561176,0.0460428
156,-0.0752944,-0.1090424,0.2313168,-0.1236468,0.0581964,0.047794,-0.0709032,0.00532880000000006,-0.00434239999999996,-0.00217479999999999,0.0548348,0.0449764
157,-0.0726696,-0.1084512,0.23071,-0.1236136,0.0561568,0.0461416,-0.0682888,0.00464920000000006,-0.00338679999999995,-0.00243359999999999,0.0528204,0.0433104
158,-0.069144,-0.107262,0.2288332,-0.1229052,0.0534208,0.0439176,-0.0647848,0.00385680000000006,-0.00224479999999995,-0.00276319999999999,0.0501176,0.04108
159,-0.06477,-0.104878,0.2244076,-0.1208412,0.0500288,0.0411552,-0.060462,0.00302880000000006,-0.00112359999999994,-0.00303519999999999,0.0467812,0.0383304
160,-0.059616,-0.1010008,0.2167888,-0.1170764,0.046034,0.0378972,-0.0554064,0.00220040000000006,-0.000118799999999948,-0.00319159999999999,0.0428784,0.035116
161,-0.0537644,-0.0956312000000001,0.2060056,-0.1116396,0.0415004,0.0341956,-0.0496992,0.000851200000000061,0.00187880000000005,-0.00382399999999999,0.0384712,0.031488
162,-0.047302,-0.0889764000000001,0.1925252,-0.1047912,0.0364952,0.0301048,-0.04341,-0.00155719999999994,0.00603680000000005,-0.00556359999999999,0.0336132,0.0274908
163,-0.040324,-0.0813924,0.1771072,-0.096936,0.0310924,0.0256852,-0.0366068,-0.00529999999999994,0.0129764,-0.00875759999999999,0.0283576,0.0231672
164,-0.032938,-0.0733652000000001,0.1607748,-0.0886128,0.0253752,0.0210048,-0.029362,-0.0104347999999999,0.0228676,-0.0135196,0.0227596,0.0185636
165,-0.0252572,-0.0653904000000001,0.1445632,-0.0803628,0.0194308,0.0161356,-0.0217556,-0.0168355999999999,0.0354888,-0.019756,0.016882,0.0137312
166,-0.0173684,-0.0575064,0.128526,-0.072202,0.0133272,0.0111328,-0.0138788,-0.0241619999999999,0.0501372,-0.0271036,0.0107944,0.0087276
167,-0.0093548,-0.0496724,0.112542,-0.0640504,0.0071284,0.0060492,-0.00583680000000001,-0.0319183999999999,0.0657700000000001,-0.035014,0.0045784,0.00362
168,-0.0012988,-0.041848,0.0964956,-0.0558328,0.000897600000000001,0.000937200000000003,0.00226159999999999,-0.0396467999999999,0.08142,-0.0429764,-0.0016824,-0.001522
169,0.0067208,-0.0340424,0.0804056,-0.0475592,-0.005304,-0.00415319999999999,0.010336,-0.0473103999999999,0.0970148000000001,-0.0509544,-0.0079256,-0.0066476
170,0.0146244,-0.026268,0.0643004,-0.0392452,-0.0114148,-0.00917079999999999,0.0183068,-0.0548972,0.1125336,-0.058938,-0.01409,-0.011706
171,0.022268,-0.0185688,0.0482784,-0.0309416,-0.0173236,-0.014024,0.0260244,-0.0624011999999999,0.1279676,-0.06692,-0.02006,-0.0166012
172,0.0296104,-0.01133,0.0331696,-0.0230968,-0.0229988,-0.0186868,0.0334724,-0.0698563999999999,0.1434152,-0.074968,-0.0258232,-0.021324
173,0.0365492,-0.00505440000000005,0.0200556,-0.0162904,-0.0283608,-0.023094,0.040566,-0.0773103999999999,0.1590096,-0.0831668,-0.0313136,-0.0258196
174,0.0429936,-9.12000000000424e-05,0.0096888,-0.010924,-0.0333404,-0.027188,0.0472156,-0.0847571999999999,0.1747612,-0.0915312,-0.036462,-0.0300316
175,0.0488992,0.00341759999999996,0.0023464,-0.0071308,-0.0379024,-0.03094,0.0533408,-0.0917575999999999,0.1897384,-0.0995648,-0.0412056,-0.0339092
176,0.05419,0.00551799999999996,-0.0020912,-0.004834,-0.0419888,-0.0343024,0.0588308,-0.0978251999999999,0.2029,-0.1067104,-0.0454596,-0.037382
177,0.0587948,0.00646439999999996,-0.0041812,-0.0037292,-0.045544,-0.03723,0.0635912,-0.1026048,0.2134672,-0.1125436,-0.04915,-0.0403904
178,0.062642,0.00677119999999995,-0.00502079999999999,-0.0032312,-0.0485132,-0.0396772,0.0675396,-0.1058868,0.2209504,-0.1167828,-0.0522132,-0.0428828
179,0.065654,0.00701119999999996,-0.00582,-0.0027004,-0.050836,-0.0415944,0.0706036,-0.107656,0.2252664,-0.11936,-0.0545924,-0.0448136
180,0.0677704,0.00718079999999996,-0.0065508,-0.0021596,-0.0524664,-0.0429448,0.0727424,-0.108232,0.2270824,-0.1206212,-0.0562568,-0.046158
181,0.0689332,0.00721439999999996,-0.0070428,-0.0017132,-0.0533584,-0.0436908,0.0739148,-0.1081192,0.2274592,-0.1211228,-0.0571728,-0.0468896
182,0.069106,0.00705479999999996,-0.0071376,-0.0014612,-0.0534844,-0.0438096,0.0740944,-0.1078628,0.2275468,-0.1214688,-0.0573208,-0.0469924
183,0.0682784,0.00669519999999996,-0.0068176,-0.0014124,-0.0528364,-0.0432948,0.0732708,-0.107502,0.2274264,-0.1217004,-0.0566924,-0.0464596
184,0.066468,0.00613799999999996,-0.0060904,-0.0015632,-0.0514276,-0.0421576,0.0714616,-0.1070388,0.2271004,-0.1218188,-0.0553012,-0.0453024
185,0.0637216,0.00539679999999996,-0.0049872,-0.0018964,-0.0492944,-0.0404272,0.068714,-0.1064512,0.2265192,-0.1217976,-0.053184,-0.0435508
186,0.0601076,0.00453719999999996,-0.00369159999999999,-0.0022972,-0.0464904,-0.0381468,0.065082,-0.1051824,0.2244928,-0.121004,-0.0503824,-0.0412388
187,0.0557032,0.00363359999999996,-0.00240279999999999,-0.0026424,-0.0430748,-0.0353648,0.0606216,-0.1026812,0.219838,-0.1188076,-0.0469396,-0.0384016
188,0.0505924,0.00274279999999996,-0.00125879999999999,-0.0028528,-0.0391132,-0.0321344,0.0553976,-0.0986859999999999,0.2119844,-0.1149008,-0.042906,-0.0350796
189,0.0448576,0.00156439999999996,0.00038320000000001,-0.00327200000000001,-0.0346696,-0.0285072,0.049486,-0.0932071999999999,0.2009648,-0.1093068,-0.0383404,-0.031322
190,0.0385688,-0.000480800000000041,0.00377560000000001,-0.00457600000000001,-0.0297976,-0.0245272,0.0429708,-0.0864747999999999,0.1872976,-0.1023148,-0.0333076,-0.0271812
191,0.0317924,-0.00374040000000004,0.00969200000000001,-0.00719280000000001,-0.0245496,-0.0202368,0.035946,-0.0788672,0.171796,-0.0943612,-0.0278804,-0.0227172
192,0.0245964,-0.00835960000000005,0.0184864,-0.0113336,-0.0189784,-0.0156788,0.02852,-0.070896,0.1555448,-0.0860216,-0.0221424,-0.0179992
193,0.017062,-0.0142992,0.0301192,-0.0169988,-0.0131464,-0.0109044,0.0208108,-0.0630204,0.1395084,-0.0778032,-0.0161844,-0.0131016
194,0.009262,-0.0213192,0.0440972,-0.023936,-0.00711,-0.0059596,0.0128932,-0.0552556,0.1236984,-0.0697044,-0.0100648,-0.0080728
195,0.001284,-0.0290444,0.0596344,-0.0317352,-0.0009372,-0.0009004,0.0048452,-0.0475744,0.10803,-0.0616684,-0.0038432,-0.002962
196,-0.0067088,-0.0369472,0.0756184,-0.0398136,0.005246,0.0041696,-0.0031864,-0.0399264,0.0923608,-0.0536084,0.0023668,0.0021364
197,-0.0146892,-0.0447872,0.091544,-0.0479032,0.0114184,0.0092332,-0.011194,-0.0322935999999999,0.0766396000000001,-0.045488,0.0085596,0.0072184
198,-0.022584,-0.0525512,0.1073876,-0.0559932,0.0175236,0.0142436,-0.019104,-0.0246843999999999,0.0608876,-0.03732,0.014678,0.0122368
199,-0.0303184,-0.0602296,0.1231356,-0.0640792,0.0235036,0.0191532,-0.0268388,-0.0171383999999999,0.0451936,-0.029154,0.020662,0.0171424
200,-0.0378124,-0.0678648,0.1389104,-0.0722408,0.0292964,0.0239108,-0.034294,-0.0101183999999999,0.030554,-0.021526,0.0264308,0.0218684
201,-0.0449824,-0.0754984,0.1548336,-0.0805584,0.0348384,0.028464,-0.0413672,-0.00410319999999995,0.0179996,-0.0149892,0.0319056,0.0263504
202,-0.051744,-0.08315,0.1709704,-0.0890764,0.0400636,0.0327588,-0.0479712,0.000578400000000054,0.00824120000000005,-0.00992359999999999,0.0370188,0.0305328
203,-0.0580088,-0.0907872,0.1872632,-0.0977684,0.044904,0.0367388,-0.0540288,0.00376200000000005,0.00163400000000006,-0.00652039999999999,0.04171,0.0343672
204,-0.0636644,-0.0979684,0.2027652,-0.1061272,0.049272,0.0403328,-0.059466,0.00552160000000005,-0.00199879999999994,-0.00467319999999999,0.0459224,0.0378068
205,-0.0686232,-0.104224,0.2164452,-0.1135888,0.0531008,0.0434856,-0.0642344,0.00621320000000005,-0.00343479999999994,-0.00395799999999999,0.049618,0.0408216
206,-0.0728016,-0.1092032,0.2275152,-0.1197132,0.0563252,0.046144,-0.0682728,0.00635000000000005,-0.00377879999999994,-0.00378039999999999,0.0527492,0.0433728
207,-0.0761356,-0.1126996,0.2354888,-0.1242196,0.058896,0.0482672,-0.0715228,0.00646520000000005,-0.00416959999999994,-0.00353159999999999,0.0552704,0.045424
208,-0.0785764,-0.1147136,0.240356,-0.127096,0.0607756,0.0498248,-0.0739244,0.00656520000000005,-0.00462639999999995,-0.00319679999999999,0.0571356,0.0469372
209,-0.0800888,-0.1154476,0.2425396,-0.12856,0.0619368,0.0507948,-0.0754264,0.00660280000000006,-0.00504039999999994,-0.00283479999999999,0.0583048,0.04788
210,-0.0806544,-0.1153452,0.24297,-0.1290988,0.0623652,0.0511648,-0.0759956,0.00652120000000005,-0.00526279999999995,-0.00253639999999999,0.0587528,0.0482316
211,-0.0802704,-0.1150196,0.2429412,-0.1293912,0.0620592,0.0509328,-0.0756188,0.00626200000000005,-0.00512879999999994,-0.00240759999999999,0.0584688,0.047984
212,-0.0789464,-0.1145932,0.2427084,-0.1295716,0.0610256,0.0501048,-0.074304,0.00581760000000005,-0.00461519999999994,-0.00246399999999999,0.0574592,0.0471416
213,-0.0767108,-0.1140644,0.2422664,-0.1296372,0.0592872,0.0486992,-0.07208,0.00519760000000005,-0.00374399999999994,-0.00269519999999999,0.0557464,0.0457228
214,-0.0736044,-0.1130948,0.2408896,-0.1292036,0.0568752,0.0467412,-0.0689932,0.00444680000000005,-0.00263639999999994,-0.00302639999999999,0.0533664,0.0437572
215,-0.0696672,-0.1110904,0.237306,-0.1275944,0.0538208,0.044256,-0.0651016,0.00363760000000005,-0.00149199999999993,-0.00333319999999999,0.0503636,0.0412808
216,-0.0649484,-0.107714,0.2307872,-0.1244204,0.0501624,0.0412744,-0.06047,0.00282920000000006,-0.000460799999999937,-0.00352759999999999,0.0467884,0.0383352
217,-0.0595084,-0.1028576,0.2210908,-0.119548,0.0459468,0.0378344,-0.0551732,0.00206360000000005,0.000362000000000062,-0.00355839999999999,0.0426988,0.0349676
218,-0.0534316,-0.0966176000000001,0.2084216,-0.1130872,0.0412396,0.0339892,-0.0492972,0.00118000000000006,0.00132920000000006,-0.00361919999999999,0.0381608,0.031232
219,-0.0467972,-0.0892824000000001,0.193426,-0.1053968,0.036102,0.0297888,-0.0428988,-0.000439599999999944,0.00377880000000006,-0.00443239999999999,0.0332188,0.0271652
220,-0.0396976,-0.0812628000000001,0.1769952,-0.0969584,0.0306056,0.0252912,-0.036036,-0.00321479999999994,0.00863760000000006,-0.00650719999999999,0.0279172,0.0228036
221,-0.0322348,-0.0730828000000001,0.1602464,-0.0883676,0.0248292,0.0205616,-0.0287684,-0.00734919999999994,0.0163844000000001,-0.0101204,0.0223024,0.0181856
222,-0.0244988,-0.0650092000000001,0.1437388,-0.0799184,0.0188428,0.0156572,-0.0211592,-0.0128259999999999,0.0270148000000001,-0.0152856,0.0164224,0.0133508
223,-0.016564,-0.0570408000000001,0.1274536,-0.0715936,0.0127036,0.0106252,-0.0132788,-0.0194407999999999,0.0401092000000001,-0.0217884,0.0103328,0.0083444
224,-0.0085044,-0.0491568000000001,0.1113224,-0.0633452,0.0064692,0.0055124,-0.0052116,-0.0268535999999999,0.0549584000000001,-0.0292596,0.0040976,0.00322
225,-0.000394000000000001,-0.0413160000000001,0.0952272,-0.055098,0.000196800000000001,0.000366,0.0029452,-0.0345955999999999,0.0705760000000001,-0.0371792,-0.0022076,-0.00196
226,0.0076932,-0.0334852,0.079074,-0.04679,-0.0060568,-0.0047672,0.0110948,-0.042282,0.0861504000000001,-0.0451184,-0.0085084,-0.0071344
227,0.0156856,-0.0256732000000001,0.0628844,-0.0384344,-0.0122364,-0.0098412,0.0191652,-0.0498915999999999,0.101642,-0.0530588,-0.0147492,-0.0122572
228,0.0235096,-0.0179216000000001,0.0467512,-0.0300824,-0.0182848,-0.0148088,0.0270844,-0.0574179999999999,0.1170432,-0.0609976,-0.020874,-0.0172824
229,0.0310696,-0.0106608000000001,0.0316004,-0.02223,-0.024128,-0.01961,0.0347764,-0.0649019999999999,0.1324712,-0.0690108,-0.0268248,-0.0221616
230,0.0382736,-0.00433400000000005,0.0183872,-0.0153892,-0.0296956,-0.0241852,0.042164,-0.0723843999999999,0.1480428,-0.077174,-0.0325412,-0.026846
231,0.0450408,0.000743999999999949,0.0077908,-0.0099232,-0.0349248,-0.028484,0.049168,-0.0798868,0.1638272,-0.0855324,-0.0379624,-0.0312852
232,0.0512992,0.00439519999999995,0.000197999999999996,-0.0060384,-0.03976,-0.03246,0.0557076,-0.0874115999999999,0.1798408,-0.0940992,-0.0430256,-0.035428
233,0.0569784,0.00663959999999995,-0.00444840000000001,-0.003696,-0.0441472,-0.0360688,0.0616784,-0.0946251999999999,0.19537,-0.1024916,-0.04765,-0.039208
234,0.0620088,0.00770959999999995,-0.00666640000000001,-0.0026076,-0.048032,-0.0392664,0.0669688,-0.1010316,0.2093392,-0.1101264,-0.0517492,-0.0425544
235,0.0663252,0.00805679999999995,-0.0074308,-0.0022464,-0.0513644,-0.0420112,0.0714872,-0.1062536,0.2209068,-0.1165364,-0.0552528,-0.04541
236,0.069866,0.00828399999999995,-0.0080308,-0.0019232,-0.0540968,-0.0442644,0.075164,-0.1100436,0.2294948,-0.1213896,-0.0581056,-0.0477304
237,0.07257,0.00848399999999995,-0.00867,-0.0015244,-0.0561816,-0.0459868,0.077946,-0.1123532,0.2349844,-0.1246132,-0.0602668,-0.0494832
238,0.0743016,0.00858959999999995,-0.0092004,-0.0011256,-0.0575144,-0.0470932,0.0797136,-0.1133304,0.2376844,-0.1263628,-0.0616436,-0.0505924
239,0.0751308,0.00857399999999995,-0.0095432,-0.000780399999999999,-0.0581488,-0.0476276,0.080556,-0.1133604,0.2383992,-0.1270612,-0.0623048,-0.0511152
240,0.075044,0.00837359999999996,-0.0095216,-0.000600399999999999,-0.0580744,-0.047582,0.0804752,-0.113066,0.2384412,-0.1273968,-0.0622516,-0.0510524
241,0.0740468,0.00796639999999996,-0.0090724,-0.0006264,-0.0572956,-0.0469592,0.07948,-0.1126996,0.2383416,-0.1276472,-0.0614908,-0.0504104
242,0.0721588,0.00735799999999995,-0.0082092,-0.000851199999999999,-0.0558272,-0.045772,0.0775908,-0.1122612,0.238098,-0.127812,-0.0600384,-0.049202
243,0.0694156,0.00657719999999995,-0.0070084,-0.0012292,-0.0536972,-0.0440428,0.0748388,-0.1115624,0.2373048,-0.1276756,-0.0579176,-0.0474468
244,0.0658616,0.00569599999999995,-0.0056716,-0.0016336,-0.05094,-0.0417996,0.0712492,-0.1099808,0.2346308,-0.1265308,-0.0551492,-0.0451612
245,0.0615504,0.00477799999999995,-0.0043632,-0.0019668,-0.0475968,-0.0390756,0.066856,-0.1071124,0.2292068,-0.1239144,-0.0517588,-0.042366
246,0.0565468,0.00387199999999995,-0.0031964,-0.0021664,-0.0437184,-0.0359124,0.0617084,-0.102792,0.2206692,-0.1196296,-0.0477848,-0.0390924
247,0.050928,0.00292959999999995,-0.0020636,-0.0022948,-0.0393644,-0.0323584,0.055876,-0.0970603999999999,0.209096,-0.1137152,-0.0432804,-0.035384
248,0.0447644,0.00137519999999995,0.000280000000000005,-0.0030232,-0.0345896,-0.028458,0.049442,-0.0901631999999999,0.19504,-0.10648,-0.0383112,-0.0312944
249,0.03812,-0.00126600000000004,0.0048768,-0.004922,-0.0294436,-0.0242512,0.0425008,-0.0824796,0.1793288,-0.0983744,-0.0329488,-0.0268832
250,0.0310572,-0.00524520000000004,0.0123032,-0.008318,-0.0239748,-0.0197776,0.035158,-0.0745032,0.1630184,-0.089964,-0.0272756,-0.0222172
251,0.0236412,-0.0106016,0.022682,-0.0132968,-0.0182344,-0.0150784,0.027516,-0.0666271999999999,0.1469396,-0.0816892,-0.02137,-0.017362
252,0.0159412,-0.0171664,0.0356704,-0.0196852,-0.0122752,-0.0101976,0.0196504,-0.0588636,0.1311024,-0.0735488,-0.0152908,-0.0123656
253,0.0080356,-0.0246304,0.0506244,-0.0271496,-0.0061584,-0.0051848,0.0116356,-0.0511944,0.1154468,-0.0655016,-0.0090952,-0.007276
254,1.56000000000001e-05,-0.0325556,0.0666236,-0.0352072,4.60000000000038e-05,-9.75999999999999e-05,0.0035464,-0.0435824,0.0998644000000001,-0.0574776,-0.0028408,-0.00214
255,-0.008022,-0.0404744,0.0826812,-0.0433372,0.0062628,0.0050016,-0.0045432,-0.0359832,0.0842316000000001,-0.049398,0.0034148,0.0029952
256,-0.0160016,-0.0483176,0.098656,-0.0514672,0.012434,0.0100656,-0.0125612,-0.0283988,0.0685520000000001,-0.0412652,0.009616,0.0080832
257,-0.0238508,-0.0560728,0.1145264,-0.059588,0.0185036,0.015048,-0.0204352,-0.0208396,0.0528512000000001,-0.0330944,0.0157072,0.013078
258,-0.0314944,-0.0637676,0.1303748,-0.067754,0.0244132,0.0199004,-0.0280708,-0.0136336,0.0378376000000001,-0.0252664,0.0216152,0.0179196
259,-0.0388548,-0.0714452000000001,0.1463264,-0.0760468,0.0301024,0.024574,-0.0353688,-0.00725599999999996,0.0245324000000001,-0.0183296,0.0272632,0.0225452
260,-0.0458528,-0.0791304,0.1624584,-0.0845176,0.0355108,0.0290184,-0.0422428,-0.00205159999999996,0.0136796000000001,-0.0126828,0.0325848,0.0269
261,-0.0522892,-0.0868312000000001,0.1788044,-0.0931872,0.040484,0.0331068,-0.0485104,0.00173360000000004,0.00581120000000006,-0.00860599999999999,0.037438,0.030868
262,-0.0581932,-0.0943396000000001,0.1949208,-0.1018224,0.0450448,0.036858,-0.0542128,0.00410120000000004,0.000918000000000063,-0.00609439999999999,0.0418552,0.0344768
263,-0.0633788,-0.1011156,0.2096408,-0.109798,0.0490492,0.040154,-0.0592032,0.00523480000000004,-0.00141799999999994,-0.00491399999999999,0.045722,0.0376324
264,-0.0678636,-0.10678,0.2221248,-0.1166472,0.0525112,0.043006,-0.0635304,0.00553400000000004,-0.00206159999999994,-0.00459359999999999,0.0490764,0.0403672
265,-0.0715792,-0.1110448,0.2317076,-0.1219924,0.0553776,0.0453712,-0.0671416,0.00561720000000004,-0.00233559999999995,-0.00442639999999999,0.0518772,0.0426472
266,-0.0744708,-0.1138056,0.238142,-0.1256884,0.057606,0.0472144,-0.0699772,0.00571360000000004,-0.00273399999999995,-0.00414519999999999,0.054078,0.0444352
267,-0.0764908,-0.1151576,0.2416228,-0.1278332,0.05916,0.0485056,-0.0719764,0.00578440000000004,-0.00317359999999995,-0.00379239999999999,0.055632,0.0456932
268,-0.0776012,-0.1154168,0.2428108,-0.1287712,0.0600096,0.04922,-0.0730856,0.00577680000000004,-0.00352479999999995,-0.00344319999999999,0.0564972,0.0463868
269,-0.0777792,-0.1151532,0.2429068,-0.1291328,0.060138,0.049344,-0.0732692,0.00562800000000004,-0.00361639999999995,-0.00320439999999999,0.0566468,0.0464944
270,-0.0770156,-0.1147816,0.2427856,-0.1293764,0.059538,0.0488712,-0.0725132,0.00529920000000004,-0.00333919999999995,-0.00314679999999999,0.0560696,0.0460064
271,-0.0753212,-0.1143032,0.242446,-0.1295016,0.058218,0.0478088,-0.070828,0.00479400000000004,-0.00270199999999995,-0.00326519999999999,0.0547736,0.0449296
272,-0.0727304,-0.1136384,0.241716,-0.1294168,0.0562048,0.046178,-0.06825,0.00413080000000003,-0.00175079999999995,-0.00353399999999999,0.0527868,0.0432864
273,-0.069284,-0.1122,0.2393404,-0.1284556,0.05353,0.0440044,-0.0648316,0.00337640000000004,-0.000673199999999947,-0.00383439999999999,0.0501504,0.0411104
274,-0.0650268,-0.1095244,0.234322,-0.1260868,0.0502284,0.041316,-0.0606348,0.00259600000000004,0.000357200000000057,-0.00406079999999999,0.0469116,0.0384408
275,-0.0600136,-0.1053948,0.2261884,-0.122056,0.0463424,0.0381472,-0.05573,0.00184000000000004,0.00121960000000006,-0.00414479999999999,0.0431252,0.0353216
276,-0.0543128,-0.0998048,0.2149132,-0.1163444,0.0419256,0.0345412,-0.050196,0.00112520000000004,0.00188000000000006,-0.00407079999999999,0.038852,0.0318036
277,-0.0480056,-0.092958,0.200952,-0.1092048,0.0370404,0.0305496,-0.0441028,-2.79999999999614e-05,0.00337680000000006,-0.00439959999999999,0.0341464,0.0279308
278,-0.0411804,-0.0852076,0.1850824,-0.1010624,0.0317556,0.0262272,-0.0375104,-0.00215799999999996,0.00688400000000006,-0.00576879999999999,0.029054,0.0237412
279,-0.0339352,-0.0770208,0.1683084,-0.0924556,0.0261468,0.0216368,-0.0304784,-0.00557159999999996,0.0130944000000001,-0.00856639999999999,0.0236212,0.0192724
280,-0.0263724,-0.0688784,0.1516496,-0.0839256,0.020294,0.0168432,-0.0230688,-0.0103672,0.0222616000000001,-0.0129488,0.0178964,0.014564
281,-0.0185712,-0.0608448,0.1352304,-0.0755332,0.0142576,0.0118964,-0.0153488,-0.0164224,0.0341436000000001,-0.0187976,0.0119308,0.00965959999999999
282,-0.010606,-0.0529096,0.1190068,-0.0672452,0.0080952,0.006844,-0.007396,-0.0234628,0.0481724000000001,-0.0258192,0.0057844,0.00460760000000001
283,-0.0025772,-0.0450508000000001,0.1029068,-0.0590096,0.0018848,0.00175,0.000670000000000003,-0.031086,0.0635040000000001,-0.03357,-0.0004504,-0.000515199999999995
284,0.0054624,-0.037214,0.086782,-0.0507344,-0.0043328,-0.0033524,0.00877,-0.0387872,0.0790732000000001,-0.0414884,-0.006712,-0.00565839999999999
285,0.0134424,-0.0293928,0.0706116,-0.042406,-0.0105032,-0.008418,0.0168244,-0.0464184,0.0945720000000001,-0.0494124,-0.01294,-0.0107716
286,0.0211748,-0.0215956,0.0544144,-0.0340388,-0.0164812,-0.0133268,0.0246568,-0.053934,0.109908,-0.0572996,-0.0189972,-0.0157424
287,0.0286996,-0.014028,0.0386384,-0.0258704,-0.0222984,-0.0181048,0.032306,-0.0613848,0.1252044,-0.0652172,-0.0249144,-0.0205952
288,0.0359248,-0.00719040000000004,0.0243608,-0.0184772,-0.0278824,-0.0226932,0.0396992,-0.06882,0.1406012,-0.0732552,-0.0306344,-0.0252836
289,0.0427668,-0.00146160000000004,0.012398,-0.0122968,-0.0331696,-0.0270388,0.04676,-0.076272,0.1561932,-0.0814744,-0.0360988,-0.0297592
290,0.0491496,0.00290959999999996,0.003288,-0.007616,-0.0381012,-0.0310936,0.0534088,-0.0837531999999999,0.1720248,-0.0899052,-0.0412456,-0.0339716
291,0.0550016,0.00583239999999996,-0.0027752,-0.0045364,-0.0426216,-0.0348124,0.0595556,-0.0911628,0.1878864,-0.0984372,-0.0460056,-0.0378636
292,0.0602508,0.00743799999999996,-0.0060956,-0.0028832,-0.0466756,-0.0381488,0.0650856,-0.0980028,0.2027056,-0.1064924,-0.0502896,-0.0413628
293,0.0648272,0.00806399999999996,-0.0074092,-0.002254,-0.0502088,-0.0410584,0.0698952,-0.1038364,0.2155236,-0.1135464,-0.0540172,-0.0444036
294,0.0686668,0.00828119999999996,-0.0079412,-0.001992,-0.053172,-0.0435008,0.0739028,-0.1083456,0.2256164,-0.1191904,-0.057126,-0.0469348
295,0.0717064,0.00848519999999996,-0.00854040000000001,-0.0016424,-0.0555168,-0.045436,0.0770468,-0.1113756,0.2326172,-0.12321,-0.0595672,-0.0489172
296,0.0738864,0.00864039999999996,-0.00913160000000001,-0.0012404,-0.0571964,-0.0468268,0.079282,-0.1129772,0.236626,-0.1256532,-0.0613056,-0.0503232
297,0.0751584,0.00869519999999996,-0.00959160000000001,-0.000855200000000003,-0.0581732,-0.0476416,0.0805768,-0.113412,0.2381892,-0.1268028,-0.0623168,-0.0511328
298,0.0754928,0.00858799999999996,-0.00975880000000001,-0.000586400000000002,-0.0584248,-0.0478628,0.0809192,-0.113188,0.2383756,-0.1272192,-0.0625912,-0.0513384
299,0.0748816,0.00826839999999996,-0.00948920000000001,-0.000526800000000003,-0.0579444,-0.0474844,0.0803116,-0.112852,0.2383376,-0.1275072,-0.06213,-0.050942
300,0.0733368,0.00773759999999996,-0.00878400000000001,-0.000676400000000001,-0.0567416,-0.0465148,0.0787668,-0.1124412,0.2381508,-0.1277064,-0.060944,-0.0499516
301,0.0708924,0.00700959999999996,-0.00767520000000001,-0.0010192,-0.0548428,-0.0449748,0.0763188,-0.1119376,0.2377748,-0.127796,-0.0590588,-0.0483892
302,0.0675988,0.00614479999999996,-0.00633080000000001,-0.0014512,-0.0522868,-0.0428968,0.0730052,-0.1108464,0.2361492,-0.1272136,-0.056504,-0.0462784
303,0.0635152,0.00521559999999996,-0.00494320000000001,-0.0018544,-0.0491196,-0.0403172,0.0688644,-0.1086348,0.2321328,-0.125352,-0.0533088,-0.0436428
304,0.0587084,0.00427919999999995,-0.00365400000000001,-0.002148,-0.0453936,-0.0372792,0.063946,-0.1050244,0.225122,-0.1218876,-0.049512,-0.0405144
305,0.0532556,0.00337519999999995,-0.00255000000000001,-0.0022872,-0.041168,-0.0338308,0.0583132,-0.0999559999999999,0.2149772,-0.1167416,-0.0451624,-0.0369328
306,0.0472332,0.00218759999999995,-0.000945600000000009,-0.0026436,-0.0365024,-0.03002,0.0520444,-0.0935767999999999,0.2020236,-0.1100928,-0.0403208,-0.032948
307,0.0407056,0.000123199999999954,0.00244839999999999,-0.0039152,-0.0314464,-0.025888,0.045228,-0.0862076,0.1869724,-0.1023344,-0.0350552,-0.0286156
308,0.0337604,-0.00316800000000005,0.00841279999999998,-0.0065372,-0.0260684,-0.0214896,0.0379912,-0.0782836,0.1707624,-0.0939736,-0.029464,-0.0240168
309,0.0264392,-0.00784400000000005,0.0173288,-0.0107336,-0.0204,-0.0168508,0.0304192,-0.0703264,0.154504,-0.0856008,-0.0236132,-0.019206
310,0.0188052,-0.01383,0.0290632,-0.0164464,-0.0144916,-0.0120124,0.0225952,-0.0624832,0.1384996,-0.0773736,-0.0175664,-0.0142356
311,0.01093,-0.0208852,0.0431184,-0.02342,-0.0083976,-0.0070192,0.0145908,-0.0547468,0.1227144,-0.0692644,-0.0113796,-0.0091516
312,0.0028968,-0.0286364000000001,0.0587132,-0.0312468,-0.002182,-0.0019244,0.0064788,-0.0470896,0.1070644,-0.061218,-0.005108,-0.0040004
313,-0.0051976,-0.0365812,0.0747884,-0.0393684,0.0040792,0.0032108,-0.0016676,-0.0394648,0.0914176,-0.0531496,0.0011908,0.0011712
314,-0.0132668,-0.0444572000000001,0.0907928,-0.0474948,0.01032,0.0083308,-0.0097752,-0.0318508,0.0757148,-0.045022,0.0074608,0.0063164
315,-0.0212392,-0.0522512,0.1067032,-0.0556164,0.0164848,0.0133904,-0.017772,-0.0242572,0.0599780000000001,-0.036848,0.0136464,0.01139
316,-0.0290412,-0.0599632,0.1225292,-0.0637428,0.0225172,0.0183436,-0.0255796,-0.0167876,0.044434,-0.0287516,0.0196868,0.0163416
317,-0.0365968,-0.0676388000000001,0.1384024,-0.0719592,0.028358,0.0231408,-0.0330956,-0.00992679999999996,0.0301252,-0.021292,0.0255028,0.0211064
318,-0.0438276,-0.0753124000000001,0.1544236,-0.080332,0.0339468,0.0277328,-0.0402276,-0.00408319999999996,0.0179336,-0.0149424,0.0310228,0.025626
319,-0.0506544,-0.0829992,0.1706456,-0.0888976,0.039222,0.0320688,-0.0468952,0.000462800000000039,0.00846240000000004,-0.010026,0.0361852,0.0298492
320,-0.0569932,-0.0906656000000001,0.187006,-0.0976256,0.0441192,0.036096,-0.0530272,0.00357720000000004,0.00200400000000005,-0.00669879999999999,0.040934,0.0337308
321,-0.0627364,-0.0978720000000001,0.20256,-0.1060092,0.0485552,0.039746,-0.0585548,0.00533920000000004,-0.00163159999999995,-0.00484839999999999,0.045216,0.037228
322,-0.0677816,-0.10415,0.2162864,-0.1134932,0.0524504,0.0429532,-0.06341,0.00603520000000005,-0.00307559999999995,-0.00412759999999999,0.0489788,0.040298
323,-0.0720444,-0.1091488,0.2273964,-0.1196372,0.0557404,0.0456652,-0.0675332,0.00617880000000005,-0.00343199999999995,-0.00394239999999999,0.0521756,0.0429032
324,-0.0754612,-0.112662,0.2354044,-0.1241604,0.0583752,0.0478408,-0.070866,0.00630280000000005,-0.00384039999999995,-0.00368399999999999,0.0547608,0.0450068
325,-0.0779828,-0.1146896,0.2403,-0.1270508,0.0603172,0.0494496,-0.073348,0.00641320000000005,-0.00431879999999995,-0.00333759999999998,0.0566884,0.0465708
326,-0.0795736,-0.1154352,0.2425064,-0.1285264,0.0615388,0.0504688,-0.0749284,0.00646320000000005,-0.00475839999999994,-0.00296319999999998,0.057918,0.0475632
327,-0.0802144,-0.1153416,0.2429552,-0.1290748,0.0620252,0.050886,-0.0755724,0.00639560000000005,-0.00500879999999994,-0.00265079999999998,0.0584236,0.0479624
328,-0.079902,-0.1150232,0.2429404,-0.1293752,0.061774,0.0506988,-0.0752664,0.00615120000000005,-0.00490479999999994,-0.00250719999999999,0.0581944,0.0477596
329,-0.0786444,-0.1146024,0.2427184,-0.1295616,0.0607924,0.0499132,-0.074018,0.00572160000000005,-0.00442199999999994,-0.00254879999999999,0.0572364,0.0469596
330,-0.0764708,-0.114078,0.2422844,-0.129632,0.059102,0.0485468,-0.0718556,0.00511640000000005,-0.00358119999999995,-0.00276519999999999,0.0555708,0.04558
331,-0.0734224,-0.113112,0.2409144,-0.1292024,0.0567348,0.0466252,-0.0688264,0.00437960000000005,-0.00250319999999995,-0.00308239999999999,0.0532352,0.0436508
332,-0.0695396,-0.1111104,0.237336,-0.1275968,0.0537224,0.0441744,-0.0649876,0.00358400000000005,-0.00138719999999995,-0.00337559999999999,0.0502732,0.0412084
333,-0.0648708,-0.107736,0.2308212,-0.1244256,0.0501028,0.0412244,-0.0604048,0.00278840000000006,-0.000382399999999947,-0.00355759999999999,0.0467356,0.038294
334,-0.0594776,-0.1028812,0.2211288,-0.119556,0.0459232,0.0378136,-0.0551524,0.00203520000000005,0.000415600000000058,-0.00357679999999999,0.0426804,0.0349548
335,-0.0534356,-0.0966428,0.2084628,-0.1130976,0.0412428,0.0339904,-0.0493088,0.00115960000000005,0.00136560000000006,-0.00362919999999999,0.0381676,0.03124
336,-0.0468296,-0.0893092,0.1934708,-0.1054096,0.0361272,0.0298076,-0.0429368,-0.000453599999999952,0.00380120000000006,-0.00443559999999999,0.0332464,0.0271904
337,-0.0397528,-0.0812912,0.1770432,-0.0969736,0.0306484,0.0253248,-0.036096,-0.00322359999999995,0.00864960000000006,-0.00650519999999999,0.0279616,0.0228428
338,-0.0323092,-0.0731128,0.1602976,-0.0883852,0.0248872,0.0206076,-0.0288468,-0.00735399999999995,0.0163880000000001,-0.0101144,0.0223608,0.0182364
339,-0.02459,-0.0650404,0.1437932,-0.0799384,0.0189136,0.015714,-0.0212536,-0.0128276,0.0270112000000001,-0.0152764,0.0164936,0.013412
340,-0.01667,-0.0570736,0.1275112,-0.0716156,0.012786,0.0106912,-0.013388,-0.0194396,0.0401000000000001,-0.0217764,0.0104148,0.0084152
341,-0.0086232,-0.0491908,0.1113832,-0.0633696,0.0065612,0.0055864,-0.0053332,-0.0268504,0.0549452000000001,-0.0292452,0.0041892,0.0032988
342,-0.000523999999999998,-0.0413516,0.0952916,-0.055124,0.000296799999999999,0.000447200000000002,0.0028128,-0.0345904,0.0705596000000001,-0.0371632,-0.0021076,-0.0018744
343,0.0075536,-0.033522,0.0791416,-0.046818,-0.00595,-0.0046796,0.0109536,-0.0422755999999999,0.0861316,-0.0451012,-0.0084012,-0.0070432
344,0.0155388,-0.0257116,0.0629556,-0.038464,-0.012124,-0.0097488,0.0190164,-0.0498844,0.1016216,-0.0530408,-0.014636,-0.0121612
345,0.0233572,-0.0179616,0.046826,-0.0301132,-0.0181676,-0.0147132,0.0269292,-0.0574107999999999,0.117022,-0.0609796,-0.020756,-0.0171824
346,0.0309128,-0.010702,0.0316784,-0.0222624,-0.0240076,-0.0195112,0.0346168,-0.0648952,0.13245,-0.0689928,-0.0267028,-0.0220588
347,0.038114,-0.00437640000000004,0.0184684,-0.0154228,-0.0295728,-0.0240848,0.0420012,-0.072378,0.1480228,-0.0771564,-0.0324168,-0.0267408
348,0.04488,0.000700399999999961,0.00787479999999999,-0.009958,-0.0348012,-0.0283828,0.0490036,-0.0798812,0.1638088,-0.0855156,-0.0378368,-0.0311788
349,0.0511384,0.00435039999999996,0.000284399999999998,-0.0060744,-0.0396364,-0.0323588,0.0555428,-0.0874072,0.1798248,-0.0940836,-0.0428996,-0.0353208
350,0.0568192,0.00659399999999996,-0.00435960000000001,-0.0037332,-0.0440248,-0.0359688,0.0615144,-0.0946216,0.1953568,-0.1024776,-0.0475248,-0.0391012
351,0.0617684,0.00763519999999996,-0.0065156,-0.002674,-0.0478468,-0.0391148,0.0667164,-0.1010312,0.2093356,-0.110114,-0.0515556,-0.0423912
352,0.0660224,0.00796079999999996,-0.0072332,-0.0023352,-0.0511308,-0.04182,0.071168,-0.1062556,0.22091,-0.116526,-0.0550072,-0.045204
353,0.0695252,0.00817439999999996,-0.007804,-0.0020264,-0.0538332,-0.0440484,0.0748036,-0.1100468,0.2295028,-0.1213808,-0.0578284,-0.0474988
354,0.0722176,0.00836999999999996,-0.0084328,-0.0016332,-0.0559092,-0.0457636,0.0775736,-0.1123568,0.2349956,-0.1246056,-0.0599804,-0.049244
355,0.0740468,0.00850159999999996,-0.0090168,-0.0012092,-0.0573176,-0.0469316,0.07944,-0.113338,0.2377028,-0.1263612,-0.0614336,-0.0504156
356,0.0749724,0.00850959999999996,-0.0094084,-0.000840799999999997,-0.0580264,-0.0475268,0.0803796,-0.1133736,0.2384288,-0.1270668,-0.06217,-0.051
357,0.0749724,0.00832879999999996,-0.0094272,-0.000641599999999998,-0.0580188,-0.0475356,0.0803856,-0.113086,0.2384844,-0.1274104,-0.0621836,-0.0509924
358,0.0740432,0.00793559999999996,-0.0090072,-0.000653599999999999,-0.0572924,-0.046956,0.0794588,-0.1127264,0.238398,-0.1276684,-0.0614756,-0.050394
359,0.0722024,0.00733639999999996,-0.0081628,-0.000869599999999997,-0.0558608,-0.0457984,0.0776168,-0.1122936,0.2381652,-0.1278388,-0.0600596,-0.049216
360,0.0694876,0.00656079999999996,-0.00697280000000001,-0.001242,-0.0537528,-0.0440872,0.0748928,-0.1115976,0.2373784,-0.127706,-0.0579608,-0.0474788
361,0.065948,0.00568279999999996,-0.00564280000000001,-0.0016436,-0.0510068,-0.0418528,0.0713176,-0.1100172,0.2347072,-0.1265632,-0.0552036,-0.0452024
362,0.0616428,0.00476719999999996,-0.00433880000000001,-0.0019744,-0.0476684,-0.0391328,0.0669308,-0.1071484,0.2292824,-0.1239468,-0.051818,-0.0424112
363,0.0566412,0.00386319999999996,-0.00317600000000001,-0.0021724,-0.0437916,-0.0359712,0.061786,-0.1028268,0.2207424,-0.1196612,-0.0478456,-0.0391392
364,0.0510228,0.00292239999999996,-0.0020472,-0.0022988,-0.039438,-0.0324172,0.055954,-0.0970935999999999,0.2091656,-0.1137452,-0.043342,-0.0354316
365,0.044858,0.00136999999999996,0.000292799999999995,-0.003026,-0.0346624,-0.0285156,0.0495196,-0.0901943999999999,0.1951048,-0.106508,-0.038372,-0.0313416
366,0.0382104,-0.00126960000000004,0.00488559999999999,-0.0049228,-0.029514,-0.0243068,0.0425764,-0.0825079999999999,0.179388,-0.0984004,-0.033008,-0.0269288
367,0.0311432,-0.00524680000000004,0.012308,-0.0083172,-0.024042,-0.0198304,0.03523,-0.0745288,0.1630712,-0.0899872,-0.027332,-0.0222608
368,0.0237216,-0.0106016,0.0226828,-0.0132944,-0.0182968,-0.0151276,0.0275828,-0.0666492,0.1469848,-0.0817092,-0.0214228,-0.0174024
369,0.0160144,-0.0171648,0.0356668,-0.0196816,-0.0123316,-0.010242,0.0197112,-0.0588815999999999,0.1311396,-0.0735652,-0.0153388,-0.0124024
370,0.0081,-0.0246272,0.0506164,-0.0271448,-0.00620800000000001,-0.0052236,0.0116896,-0.0512079999999999,0.1154752,-0.065514,-0.0091376,-0.007308
371,6.96000000000024e-05,-0.0325504,0.0666116,-0.0352008,4.39999999999718e-06,-0.00013,0.0035916,-0.0435912,0.0998828000000001,-0.0574856,-0.0028768,-0.0021664
372,-0.0079792,-0.0404668,0.0826648,-0.0433296,0.00623,0.0049764,-0.004508,-0.0359868,0.0842396000000001,-0.0494016,0.0033864,0.0029748
373,-0.0159116,-0.0483092,0.0986404,-0.0514588,0.0123644,0.01001,-0.0124824,-0.0284156,0.0685888000000001,-0.0412828,0.009554,0.0080348
374,-0.0237096,-0.056064,0.114512,-0.0595788,0.018394,0.0149596,-0.0203088,-0.0208707999999999,0.0529196000000001,-0.0331272,0.0156084,0.0129992
375,-0.0313012,-0.0637584,0.1303616,-0.067744,0.0242632,0.0197792,-0.027896,-0.0136799999999999,0.0379376000000001,-0.0253144,0.0214792,0.0178104
376,-0.0385276,-0.0714072,0.146254,-0.0760076,0.0298488,0.0243676,-0.0350568,-0.00731479999999995,0.0246568000000001,-0.018392,0.0270212,0.0223484
377,-0.0454128,-0.0790708,0.1623408,-0.084456,0.03517,0.0287404,-0.0418176,-0.00212239999999995,0.0138284000000001,-0.0127584,0.0322552,0.0266308
378,-0.0518812,-0.0867556,0.178652,-0.0931112,0.0401676,0.0328492,-0.0481072,0.00168600000000005,0.00591000000000007,-0.0086588,0.037126,0.0306132
379,-0.0578416,-0.0942572,0.1947524,-0.1017412,0.044772,0.0366364,-0.0538588,0.00407520000000005,0.000970000000000066,-0.0061256,0.0415812,0.0342532
380,-0.0631716,-0.1010112,0.209426,-0.109692,0.0488884,0.040024,-0.0589924,0.00523280000000005,-0.00141959999999993,-0.0049152,0.0455588,0.0374996
381,-0.0677708,-0.1065752,0.2216976,-0.1164284,0.0524388,0.0429488,-0.0634372,0.00555840000000006,-0.00212799999999993,-0.004556,0.0490044,0.0403088
382,-0.0715588,-0.1106504,0.2308792,-0.12156,0.0553608,0.0453596,-0.0671268,0.00566840000000005,-0.00247479999999994,-0.00434159999999999,0.051866,0.0426384
383,-0.07447,-0.1131488,0.2367572,-0.12496,0.0576044,0.0472152,-0.0699896,0.00578720000000005,-0.00294359999999994,-0.00401079999999999,0.0540884,0.0444436
384,-0.0764528,-0.11422,0.2396396,-0.126786,0.0591296,0.0484824,-0.0719576,0.00586880000000006,-0.00343359999999994,-0.00361719999999999,0.0556184,0.0456816
385,-0.0774704,-0.1142788,0.2403984,-0.127494,0.059908,0.0491384,-0.0729768,0.00585360000000005,-0.00379159999999994,-0.00325199999999999,0.0564144,0.0463188
386,-0.077506,-0.114002,0.2404588,-0.1278312,0.0599264,0.049172,-0.073018,0.00567360000000006,-0.00382879999999994,-0.00303519999999999,0.056454,0.046336
387,-0.0765556,-0.1136092,0.2402828,-0.1280412,0.059182,0.0485808,-0.0720756,0.00530960000000006,-0.00349039999999994,-0.00300279999999999,0.0557324,0.0457296
388,-0.0746388,-0.1130992,0.2398656,-0.1281208,0.05769,0.0473776,-0.0701684,0.00476880000000006,-0.00279279999999994,-0.00314599999999999,0.0542644,0.0445116
389,-0.0717996,-0.112392,0.2390344,-0.1279796,0.0554844,0.0455888,-0.0673408,0.00407200000000006,-0.00178759999999994,-0.00343719999999999,0.0520848,0.0427104
390,-0.068086,-0.1109012,0.2365344,-0.1269508,0.0526028,0.0432452,-0.0636544,0.00328840000000006,-0.000667199999999939,-0.00375519999999999,0.0492408,0.0403644
391,-0.0635528,-0.108164,0.2313724,-0.1245056,0.0490876,0.0403816,-0.0591804,0.00248440000000006,0.000393200000000058,-0.00399399999999999,0.0457876,0.0375188
392,-0.0582652,-0.1039672,0.223082,-0.1203924,0.0449896,0.0370384,-0.0539996,0.00171120000000005,0.00127240000000005,-0.00408439999999999,0.041788,0.0342248
393,-0.0523016,-0.0983316,0.2117184,-0.1146452,0.0403696,0.0332652,-0.0481932,0.000696800000000053,0.00255240000000005,-0.00433799999999999,0.0373044,0.030534
394,-0.0457456,-0.0914808,0.1977912,-0.1075508,0.035292,0.0291148,-0.0418252,-0.00120559999999995,0.00563000000000005,-0.00550799999999999,0.032386,0.0264868
395,-0.0386888,-0.0837624,0.182054,-0.0995164,0.0298284,0.0246452,-0.0349584,-0.00437799999999995,0.0113512,-0.00805919999999999,0.0270812,0.0221232
396,-0.031232,-0.0756344,0.1654768,-0.0910556,0.0240568,0.01992,-0.0276568,-0.00896239999999995,0.0200612,-0.0121964,0.02144,0.0174836
397,-0.0234808,-0.0675636,0.1490384,-0.082682,0.0180584,0.0150064,-0.0199924,-0.0148976,0.031676,-0.0178976,0.0155176,0.0126136
398,-0.0155768,-0.0595944,0.1328092,-0.0744248,0.0119432,0.0099944,-0.0121004,-0.0218864,0.0455824,-0.0248504,0.0094188,0.0076
399,-0.0075436,-0.0516956,0.116694,-0.0662168,0.0057292,0.0048984,-0.0040268,-0.0295075999999999,0.0609,-0.0325908,0.0031784,0.0024716
400,0.000544000000000002,-0.0438176,0.1005504,-0.0579652,-0.000526000000000004,-0.000233599999999998,0.0041216,-0.0372163999999999,0.0764784,-0.0405116,-0.0031208,-0.0027032
401,0.00861400000000001,-0.0359564,0.0843624,-0.049658,-0.006766,-0.0053556,0.0122636,-0.044866,0.0920116,-0.0484516,-0.009416,-0.0078724
402,0.0165932,-0.0281244,0.0681576,-0.04131,-0.0129352,-0.0104212,0.020326,-0.0524463999999999,0.1074824,-0.0564028,-0.0156508,-0.0129896
403,0.0244064,-0.0203336,0.0519652,-0.032938,-0.0189752,-0.0153824,0.0282328,-0.059948,0.1228732,-0.0643568,-0.0217668,-0.0180068
404,0.031966,-0.0127896,0.0362292,-0.0247808,-0.0248184,-0.0201832,0.035906,-0.0673848,0.1382288,-0.0723428,-0.0277036,-0.022874
405,0.0391564,-0.00603960000000004,0.0221236,-0.0174656,-0.0303752,-0.02475,0.0432532,-0.0748072,0.1536932,-0.0804536,-0.0333888,-0.0275316
406,0.0458816,-0.000494400000000037,0.0105336,-0.011466,-0.035572,-0.0290224,0.0501856,-0.0822496,0.1693648,-0.0887524,-0.0387552,-0.0319244
407,0.0520552,0.00362039999999996,0.0019308,-0.0070264,-0.0403412,-0.0329448,0.0565956,-0.0894564,0.184712,-0.0969612,-0.0437188,-0.0359836
408,0.0575948,0.00628039999999996,-0.00366159999999999,-0.004144,-0.04462,-0.0364652,0.0623608,-0.095892,0.1985928,-0.1044704,-0.0481852,-0.039632
409,0.062422,0.00765239999999996,-0.00661599999999999,-0.0026096,-0.0483476,-0.039534,0.0673732,-0.1011508,0.2101284,-0.1108036,-0.05207,-0.0428008
410,0.0664608,0.00814359999999996,-0.00780839999999999,-0.0019528,-0.0514648,-0.0421028,0.0715412,-0.1049672,0.2187168,-0.1156244,-0.0553024,-0.0454332
411,0.0696412,0.00839999999999996,-0.00860679999999999,-0.001448,-0.053918,-0.0441276,0.0747944,-0.1072432,0.2240956,-0.1187668,-0.057828,-0.0474848
412,0.0718924,0.00859039999999996,-0.00936039999999999,-0.0009124,-0.0556528,-0.0455636,0.0770792,-0.1081472,0.226598,-0.120394,-0.0596044,-0.0489216
413,0.0731604,0.00864919999999996,-0.00990079999999999,-0.000446800000000001,-0.0566264,-0.0463764,0.07836,-0.1081396,0.2271908,-0.1210116,-0.0606044,-0.049722
414,0.0734152,0.00850719999999996,-0.0100356,-0.000172800000000002,-0.0568156,-0.0465468,0.0786216,-0.1078912,0.2272888,-0.1213616,-0.060816,-0.0498768
415,0.0726496,0.00814959999999996,-0.00972519999999999,-0.0001156,-0.0562152,-0.0460708,0.0778592,-0.1075468,0.2271964,-0.121604,-0.0602352,-0.0493832
416,0.0708816,0.00758199999999996,-0.008982,-0.0002688,-0.0548396,-0.0449604,0.0760916,-0.1071064,0.2269108,-0.1217368,-0.0588764,-0.0482524
417,0.0681548,0.00681759999999997,-0.007836,-0.0006176,-0.052722,-0.043242,0.0733628,-0.1065688,0.2264284,-0.1217592,-0.056774,-0.0465124
418,0.0645352,0.00590239999999997,-0.006408,-0.00109,-0.0499136,-0.0409576,0.0697308,-0.1056304,0.2250984,-0.1213268,-0.0539724,-0.0442
419,0.0600992,0.00491879999999997,-0.00492239999999999,-0.001546,-0.0464736,-0.0381552,0.0652504,-0.1036328,0.221512,-0.1196896,-0.0505144,-0.04135
420,0.0549348,0.00393319999999997,-0.00354719999999999,-0.0018868,-0.0424704,-0.0348904,0.0599884,-0.1002076,0.2148724,-0.1164216,-0.0464516,-0.0380044
421,0.0491268,0.00258479999999996,-0.00151599999999999,-0.00252,-0.0379704,-0.0312168,0.0540224,-0.0952847999999999,0.205048,-0.1114612,-0.0418444,-0.034212
422,0.0427464,0.000270399999999964,0.00247160000000001,-0.0041448,-0.0330284,-0.0271788,0.0474356,-0.0890295999999999,0.1924212,-0.1050272,-0.0367564,-0.0300252
423,0.0358616,-0.00334320000000003,0.00915600000000001,-0.0071704,-0.0276968,-0.0228196,0.0403196,-0.0817624,0.1776812,-0.0974888,-0.0312588,-0.0255028
424,0.0285432,-0.00835960000000004,0.0188008,-0.0117592,-0.0220312,-0.0181836,0.0327804,-0.0739368,0.1617852,-0.0893524,-0.0254332,-0.020712
425,0.0208688,-0.0146968,0.0312844,-0.0178732,-0.0160912,-0.0133196,0.024936,-0.0660952,0.1458688,-0.0812132,-0.0193712,-0.015728
426,0.0129236,-0.0220604,0.0460044,-0.0252044,-0.0099432,-0.0082824,0.0168784,-0.0583595999999999,0.1301648,-0.0731852,-0.0131432,-0.0106096
427,0.004806,-0.0299884,0.0619912,-0.0332452,-0.0036628,-0.003134,0.0086884,-0.0506927999999999,0.1145624,-0.0651944,-0.0068124,-0.0054084
428,-0.0033772,-0.0379524,0.0781288,-0.0414068,0.0026672,0.0020576,0.000447600000000001,-0.0430452,0.0989208,-0.0571504,-0.000440800000000001,-0.000175999999999998
429,-0.0115428,-0.045854,0.094214,-0.0495836,0.0089824,0.0072396,-0.007766,-0.0354167999999999,0.0832356000000001,-0.0490488,0.0059108,0.0050376
430,-0.0196132,-0.0536792,0.1102212,-0.0577644,0.0152228,0.012362,-0.0158748,-0.0278179999999999,0.0675296000000001,-0.0409036,0.012182,0.0101824
431,-0.0275092,-0.0614148,0.1261256,-0.0659376,0.0213276,0.0173752,-0.0237988,-0.0202579999999999,0.0518268000000001,-0.0327292,0.0183124,0.0152088
432,-0.0351488,-0.0690816,0.14199,-0.0741444,0.0272328,0.022226,-0.0314404,-0.0130144,0.0367256000000001,-0.024848,0.0242256,0.0200536
433,-0.0424456,-0.0767296,0.1579572,-0.0824764,0.0328724,0.02686,-0.038688,-0.00662319999999995,0.0233792000000001,-0.0178788,0.0298352,0.0246468
434,-0.0493116,-0.0843864,0.1741092,-0.0909888,0.0381784,0.0312216,-0.0454452,-0.00147119999999995,0.0126212000000001,-0.0122688,0.0350668,0.0289264
435,-0.0556376,-0.0917096,0.1897284,-0.099304,0.0430656,0.0352408,-0.0516252,0.00225120000000005,0.00484320000000006,-0.00821679999999999,0.0398532,0.032838
436,-0.0613084,-0.0981792,0.203702,-0.106828,0.0474456,0.0388448,-0.0571484,0.00454760000000005,1.04000000000593e-05,-0.00568999999999999,0.044132,0.0363316
437,-0.0662204,-0.1034052,0.2151824,-0.1131016,0.0512384,0.041968,-0.0619388,0.00561880000000005,-0.00232279999999995,-0.00444199999999999,0.0478448,0.0393596
438,-0.0703232,-0.1071396,0.2236048,-0.1178088,0.0544044,0.0445784,-0.0659596,0.00592520000000005,-0.00313919999999995,-0.00394839999999999,0.0509628,0.0418988
439,-0.0735572,-0.109314,0.2287676,-0.1208144,0.0568976,0.046638,-0.069154,0.00610520000000006,-0.00379199999999995,-0.00349159999999999,0.053442,0.043914
440,-0.0758744,-0.1101388,0.2310984,-0.1223344,0.0586812,0.0481168,-0.0714608,0.00625160000000006,-0.00446599999999995,-0.00297759999999999,0.0552344,0.0453664
441,-0.0772408,-0.1101172,0.2316556,-0.1229224,0.0597296,0.0489936,-0.07283,0.00629640000000006,-0.00498519999999995,-0.00251239999999999,0.0563012,0.0462244
442,-0.0776328,-0.1098936,0.2317984,-0.1232916,0.060024,0.0492528,-0.0732276,0.00617120000000006,-0.00516079999999995,-0.00221439999999999,0.0566168,0.0464668
443,-0.0770352,-0.1095528,0.231704,-0.1235332,0.0595528,0.0488852,-0.0726372,0.00586280000000006,-0.00496079999999995,-0.00210159999999999,0.0561676,0.0460832
444,-0.0754544,-0.1090952,0.2313708,-0.1236468,0.0583208,0.047894,-0.0710652,0.00537200000000006,-0.00438839999999995,-0.00217199999999999,0.0549592,0.045078
445,-0.0729216,-0.1085192,0.2307956,-0.1236304,0.056352,0.0462996,-0.0685424,0.00470880000000006,-0.00346559999999994,-0.00241519999999999,0.0530152,0.04347
446,-0.0694832,-0.1074172,0.2291052,-0.1230208,0.0536836,0.0441308,-0.0651236,0.00392480000000006,-0.00233359999999994,-0.00274359999999999,0.0503784,0.041294
447,-0.0651904,-0.105164,0.2249596,-0.121106,0.0503544,0.0414196,-0.0608788,0.00309840000000006,-0.00120559999999994,-0.00302439999999999,0.0471024,0.0385936
448,-0.0601104,-0.1014332,0.2176536,-0.1175076,0.0464164,0.0382084,-0.055892,0.00228200000000006,-0.000215599999999947,-0.00317879999999999,0.0432524,0.0354228
449,-0.0543244,-0.0961988,0.2071568,-0.1122216,0.0419336,0.0345484,-0.0502464,0.00101080000000005,0.00162600000000005,-0.00373319999999999,0.0388928,0.031834
450,-0.0479184,-0.0896536,0.1939044,-0.105492,0.0369724,0.0304936,-0.0440116,-0.00127999999999995,0.00554160000000005,-0.00534759999999999,0.0340776,0.0278712
451,-0.0409872,-0.0821392000000001,0.1786304,-0.0977112,0.0316056,0.026104,-0.0372564,-0.00488919999999995,0.0122012,-0.00839399999999999,0.0288592,0.0235784
452,-0.0336372,-0.0741296,0.1623336,-0.0894056,0.025916,0.0214468,-0.0300516,-0.00989319999999995,0.0218124000000001,-0.013006,0.0232932,0.0190008
453,-0.025982,-0.0661452,0.1461012,-0.081144,0.019992,0.0165944,-0.0224776,-0.0161843999999999,0.0341964000000001,-0.0191136,0.0174404,0.0141892
454,-0.0181112,-0.058254,0.1300516,-0.072978,0.013902,0.0116028,-0.0146236,-0.0234412,0.0486900000000001,-0.0263756,0.0113708,0.0092
455,-0.0101076,-0.0504172000000001,0.1140692,-0.06483,0.0077104,0.0065256,-0.0065936,-0.0311815999999999,0.0642816,-0.0342604,0.0051644,0.0041004
456,-0.0020536,-0.0425912,0.098028,-0.0566184,0.0014816,0.0014148,0.0015016,-0.0389151999999999,0.0799348000000001,-0.0422204,-0.001094,-0.00104
457,0.0059716,-0.0347832,0.0819412,-0.0483492,-0.004724,-0.0036788,0.0095804,-0.0465851999999999,0.0955352000000001,-0.0501972,-0.0073408,-0.0061684
458,0.0138888,-0.0270052,0.065836,-0.0400384,-0.0108452,-0.0087048,0.0175636,-0.0541795999999999,0.1110612,-0.0581804,-0.0135148,-0.0112348
459,0.0216172,-0.0192704,0.0497456,-0.0317044,-0.0168196,-0.0136124,0.0253708,-0.0616879999999999,0.1264936,-0.06616,-0.019554,-0.0161876
460,0.0289628,-0.0119744,0.0345204,-0.0237984,-0.0224976,-0.0182772,0.0328152,-0.0691463999999999,0.141936,-0.0741976,-0.0253144,-0.020908
461,0.035914,-0.00560000000000004,0.0212008,-0.0168832,-0.0278696,-0.0226924,0.0399136,-0.0765999999999999,0.1575148,-0.0823792,-0.030808,-0.0254068
462,0.0423812,-0.000512400000000039,0.0105728,-0.0113792,-0.0328668,-0.0268008,0.04658,-0.0840607999999999,0.17328,-0.0907412,-0.0359692,-0.0296296
463,0.0483164,0.00312759999999996,0.00295879999999999,-0.007444,-0.037452,-0.030572,0.0527332,-0.0911271999999999,0.188382,-0.098832,-0.0407348,-0.0335248
464,0.0536476,0.00534759999999996,-0.00172480000000001,-0.0050208,-0.0415692,-0.03396,0.0582648,-0.0973007999999999,0.2017548,-0.1060824,-0.0450208,-0.037024
465,0.0583024,0.00638039999999996,-0.00398800000000001,-0.0038288,-0.0451632,-0.0369192,0.0630788,-0.1022148,0.2125952,-0.1120544,-0.0487524,-0.0400664
466,0.0622092,0.00671359999999996,-0.00487360000000001,-0.0033112,-0.0481788,-0.039404,0.0670916,-0.105644,0.2203844,-0.1164524,-0.0518648,-0.0425996
467,0.0652908,0.00695359999999996,-0.00566400000000001,-0.0027896,-0.050556,-0.041366,0.0702292,-0.1075496,0.2249864,-0.1191792,-0.0543012,-0.0445772
468,0.0674652,0.00712759999999996,-0.00640320000000001,-0.0022456,-0.0522312,-0.0427528,0.0724272,-0.1081796,0.2269132,-0.120498,-0.0560112,-0.0459592
469,0.0686684,0.00716639999999996,-0.00690800000000001,-0.0017908,-0.0531548,-0.043524,0.07364,-0.108074,0.227302,-0.1210048,-0.0569588,-0.0467168
470,0.0688596,0.00700839999999996,-0.00701000000000001,-0.0015328,-0.0532948,-0.0436544,0.073838,-0.107822,0.227394,-0.1213508,-0.0571208,-0.0468312
471,0.0680256,0.00664719999999996,-0.00669320000000001,-0.0014804,-0.0526416,-0.0431352,0.0730076,-0.1074608,0.2272664,-0.1215764,-0.0564872,-0.0462944
472,0.066182,0.00608679999999996,-0.00596680000000001,-0.001628,-0.0512072,-0.0419768,0.0711656,-0.1069912,0.2269196,-0.1216812,-0.0550708,-0.0451164
473,0.0633764,0.00533999999999996,-0.0048604,-0.0019612,-0.049028,-0.0402088,0.0683592,-0.1064052,0.2263352,-0.121656,-0.052908,-0.0433276
474,0.0596808,0.00446879999999996,-0.0035452,-0.0023732,-0.0461608,-0.0378764,0.0646484,-0.1051996,0.224436,-0.1209288,-0.0500456,-0.0409656
475,0.0551776,0.00355079999999996,-0.0022272,-0.002736,-0.0426688,-0.0350316,0.060094,-0.1027952,0.21998,-0.1188376,-0.0465304,-0.0380688
476,0.0499576,0.00260919999999996,-0.000977200000000007,-0.0030056,-0.0386228,-0.031732,0.0547684,-0.0989092,0.2123548,-0.1150548,-0.0424184,-0.0346828
477,0.044102,0.00110159999999996,0.00136399999999999,-0.0038,-0.0340856,-0.0280284,0.0487516,-0.0935536,0.201616,-0.1096236,-0.037772,-0.0308584
478,0.0376816,-0.00149680000000004,0.00593439999999999,-0.0057348,-0.0291124,-0.0239652,0.04213,-0.0869424,0.1882428,-0.1028096,-0.0326568,-0.0266504
479,0.030766,-0.00544840000000004,0.013328,-0.0091432,-0.0237568,-0.019586,0.0349992,-0.0794364,0.1730048,-0.0950232,-0.0271476,-0.0221188
480,0.023428,-0.0108012,0.0236932,-0.014128,-0.018076,-0.0149372,0.0274692,-0.0715264,0.1569348,-0.0868084,-0.0213292,-0.0173348
481,0.0157596,-0.0174172,0.0367848,-0.020582,-0.0121408,-0.0100772,0.0196648,-0.0636952,0.14104,-0.0786916,-0.0152976,-0.0123772
482,0.0078424,-0.0249464,0.051876,-0.0281296,-0.0060144,-0.0050572,0.0116644,-0.055964,0.1253368,-0.0706696,-0.0091136,-0.007296
483,-0.0002224,-0.032884,0.067906,-0.0362132,0.000224799999999998,5.76000000000021e-05,0.0035488,-0.0482888,0.1096972,-0.0626588,-0.0028392,-0.0021424
484,-0.0083316,-0.04079,0.083944,-0.044342,0.0064972,0.0052024,-0.004602,-0.0406292,0.0940064000000001,-0.0545864,0.0034628,0.003032
485,-0.0163132,-0.0485984,0.0998564,-0.052452,0.01267,0.0102672,-0.0126068,-0.0329896,0.0782704000000001,-0.04646,0.0096536,0.008112
486,-0.024182,-0.0563308,0.1156924,-0.0605664,0.0187544,0.015262,-0.02049,-0.025384,0.0625252000000001,-0.0382956,0.0157516,0.0131132
487,-0.0318616,-0.0639772000000001,0.1314352,-0.0686772,0.0246916,0.0201376,-0.0281748,-0.0178372,0.0468268000000001,-0.0301252,0.0216972,0.0179864
488,-0.0365570833333333,-0.06675125,0.136663333333333,-0.0711045833333333,0.028325,0.0231141666666667,-0.03304125,-0.01140375,0.0332629166666667,-0.0229495833333333,0.02546125,0.02107375
489,-0.0414126086956522,-0.0697930434782609,0.142487826086957,-0.0738682608695652,0.0320817391304348,0.0261921739130435,-0.0380121739130435,-0.0054260869565217,0.0206326086956522,-0.0162621739130435,0.0293069565217391,0.0242260869565217
490,-0.0463963636363636,-0.0731618181818182,0.149067727272727,-0.0770709090909091,0.0359377272727273,0.0293518181818182,-0.04304,-0.000342727272727232,0.00987863636363643,-0.0105695454545454,0.0331972727272727,0.0274131818181818
491,-0.0514695238095238,-0.0769019047619048,0.156526666666667,-0.0807938095238095,0.0398628571428571,0.0325680952380952,-0.0480819047619048,0.00351238095238099,0.0017185714285715,-0.00625761904761904,0.0370990476190476,0.0306080952380952
492,-0.056583,-0.0810410000000001,0.1649435,-0.08509,0.043819,0.0358105,-0.0530955,0.00597300000000004,-0.00348549999999992,-0.00352349999999999,0.0409795,0.033784
493,-0.0616763157894737,-0.0855894736842106,0.174340526315789,-0.0899736842105263,0.0477589473684211,0.03904,-0.0580347368421053,0.0071468421052632,-0.00594894736842098,-0.00225947368421052,0.0448031578947369,0.0369126315789474
494,-0.0666877777777778,-0.0905416666666667,0.184676111111111,-0.0954094444444445,0.051635,0.0422183333333333,-0.0628555555555556,0.00755611111111115,-0.00676555555555549,-0.00189444444444443,0.048535,0.0399661111111111
495,-0.0715582352941176,-0.0959029411764706,0.195918235294118,-0.101358823529412,0.0554011764705882,0.0453082352941176,-0.06751,0.00791294117647063,-0.0074288235294117,-0.00164588235294116,0.0521376470588235,0.0429141176470588
496,-0.076233125,-0.1017625,0.208259375,-0.10792375,0.059015,0.048275,-0.071939375,0.00824187500000004,-0.00798124999999993,-0.00149374999999999,0.05556625,0.04572
497,-0.0806633333333333,-0.108243333333333,0.22197,-0.115249333333333,0.0624393333333333,0.0510886666666667,-0.0760913333333333,0.00851133333333337,-0.00834599999999994,-0.00148133333333332,0.05878,0.0483506666666667
498,-0.08481,-0.115507142857143,0.237404285714286,-0.123525,0.0656428571428571,0.0537242857142857,-0.0799214285714286,0.00868357142857147,-0.00842999999999994,-0.00165999999999999,0.0617442857142857,0.0507778571428571
499,-0.0886469230769231,-0.123766923076923,0.255026153846154,-0.132997692307692,0.0686061538461538,0.0561646153846154,-0.0833953846153846,0.00871538461538465,-0.00812538461538456,-0.00209076923076922,0.0644330769230769,0.05298
